(.../EAGLE-7.2.0/ulp/pcb-gcode.ulp)
(Copyright 2005 - 2012 by John Johnson)
(See readme.txt for licensing terms.)
(This file generated from the board:)
(.../disruptor/generator_cd4047_trafo_ct.brd)
(Current profile is .../EAGLE-7.2.0/ulp/profiles/mach.pp  )
(This file generated 7/9/2015 10:50:39 AM)
(Settings from pcb-machine.h)
(spindle on time = 3.0000)
(  Tool Size)
(0.0400  )
(spindle speed = 5000.0000)
(tool change at 0.0000  0.0000  1.0000  )
(feed rate xy = F20    )
(feed rate z  = F10    )
(Z Axis Settings)
(  High     Up        Down     Drill)
(0.5000  	0.1000  	-0.0070 	-0.0625 )
(Settings from pcb-defaults.h)
(isolate min = 0.0010)
(isolate max = 0.0560)
(isolate step = 0.0050)
(Generated top outlines, top drill, bottom outlines, bottom drill, )
(Unit of measure: inch)
(Inch Mode)
G20
(Absolute Coordinates)
G90
S5000
G00 Z0.5000  
G00 X0.0000  Y0.0000  
M03
G04 P3.000000
G00 Z0.1000  
G00 X0.0415  Y0.0455  
G01 Z-0.0070 F10    
G01 X0.0383  Y0.0503  F20    
G01 X0.0361  Y0.0555  
G01 X0.0350  Y0.0611  
G01 X0.0350  Y0.4882  
G01 X0.0349  Y0.4901  
G01 X0.0350  Y0.4910  
G01 X0.0350  Y0.4920  
G01 X0.0354  Y0.4938  
G01 X0.0356  Y0.4957  
G01 X0.0359  Y0.4966  
G01 X0.0361  Y0.4976  
G01 X0.0368  Y0.4993  
G01 X0.0375  Y0.5011  
G01 X0.0379  Y0.5020  
G01 X0.0383  Y0.5028  
G01 X0.0394  Y0.5044  
G01 X0.0403  Y0.5061  
G01 X0.0409  Y0.5068  
G01 X0.0415  Y0.5076  
G01 X0.0428  Y0.5089  
G01 X0.0441  Y0.5104  
G01 X0.0448  Y0.5110  
G01 X0.0455  Y0.5116  
G01 X0.0471  Y0.5127  
G01 X0.0486  Y0.5138  
G01 X0.0495  Y0.5143  
G01 X0.0503  Y0.5148  
G01 X0.0520  Y0.5155  
G01 X0.0537  Y0.5164  
G01 X0.0547  Y0.5166  
G01 X0.0555  Y0.5170  
G01 X0.0574  Y0.5174  
G01 X0.0593  Y0.5179  
G01 X0.0602  Y0.5179  
G01 X0.0611  Y0.5181  
G01 X0.0631  Y0.5181  
G01 X0.0650  Y0.5182  
G01 X0.0659  Y0.5181  
G01 X0.0669  Y0.5181  
G01 X0.0687  Y0.5177  
G01 X0.0706  Y0.5175  
G01 X0.0715  Y0.5172  
G01 X0.0725  Y0.5170  
G01 X0.0742  Y0.5163  
G01 X0.0749  Y0.5160  
G01 X0.0974  Y0.5100  
G01 X0.2198  Y0.5100  
G01 X0.2412  Y0.5157  
G01 X0.2416  Y0.5161  
G01 X0.2433  Y0.5169  
G01 X0.2450  Y0.5179  
G01 X0.2459  Y0.5182  
G01 X0.2467  Y0.5186  
G01 X0.2486  Y0.5191  
G01 X0.2504  Y0.5197  
G01 X0.2513  Y0.5198  
G01 X0.2523  Y0.5201  
G01 X0.2542  Y0.5202  
G01 X0.2560  Y0.5204  
G01 X0.2570  Y0.5204  
G01 X0.2580  Y0.5204  
G01 X0.2598  Y0.5202  
G01 X0.2617  Y0.5201  
G01 X0.2627  Y0.5198  
G01 X0.2636  Y0.5197  
G01 X0.2654  Y0.5191  
G01 X0.2673  Y0.5186  
G01 X0.2681  Y0.5182  
G01 X0.2690  Y0.5179  
G01 X0.2707  Y0.5169  
G01 X0.2724  Y0.5161  
G01 X0.2728  Y0.5157  
G01 X0.2942  Y0.5100  
G01 X0.4166  Y0.5100  
G01 X0.4382  Y0.5158  
G01 X0.4576  Y0.5270  
G01 X0.4734  Y0.5428  
G01 X0.4846  Y0.5622  
G01 X0.4904  Y0.5838  
G01 X0.4904  Y0.6062  
G01 X0.4846  Y0.6278  
G01 X0.4734  Y0.6472  
G01 X0.4576  Y0.6630  
G01 X0.4382  Y0.6742  
G01 X0.4166  Y0.6800  
G01 X0.2942  Y0.6800  
G01 X0.2728  Y0.6743  
G01 X0.2724  Y0.6739  
G01 X0.2707  Y0.6731  
G01 X0.2690  Y0.6721  
G01 X0.2681  Y0.6718  
G01 X0.2673  Y0.6714  
G01 X0.2654  Y0.6709  
G01 X0.2636  Y0.6703  
G01 X0.2627  Y0.6702  
G01 X0.2617  Y0.6699  
G01 X0.2598  Y0.6698  
G01 X0.2580  Y0.6696  
G01 X0.2570  Y0.6696  
G01 X0.2560  Y0.6696  
G01 X0.2542  Y0.6698  
G01 X0.2523  Y0.6699  
G01 X0.2513  Y0.6702  
G01 X0.2504  Y0.6703  
G01 X0.2486  Y0.6709  
G01 X0.2467  Y0.6714  
G01 X0.2459  Y0.6718  
G01 X0.2450  Y0.6721  
G01 X0.2433  Y0.6731  
G01 X0.2416  Y0.6739  
G01 X0.2412  Y0.6743  
G01 X0.2198  Y0.6800  
G01 X0.0974  Y0.6800  
G01 X0.0749  Y0.6740  
G01 X0.0742  Y0.6737  
G01 X0.0725  Y0.6730  
G01 X0.0715  Y0.6728  
G01 X0.0706  Y0.6725  
G01 X0.0687  Y0.6723  
G01 X0.0669  Y0.6719  
G01 X0.0659  Y0.6719  
G01 X0.0650  Y0.6718  
G01 X0.0631  Y0.6719  
G01 X0.0611  Y0.6719  
G01 X0.0602  Y0.6721  
G01 X0.0593  Y0.6721  
G01 X0.0574  Y0.6726  
G01 X0.0555  Y0.6730  
G01 X0.0547  Y0.6734  
G01 X0.0537  Y0.6736  
G01 X0.0520  Y0.6745  
G01 X0.0503  Y0.6752  
G01 X0.0495  Y0.6757  
G01 X0.0486  Y0.6762  
G01 X0.0471  Y0.6773  
G01 X0.0455  Y0.6784  
G01 X0.0448  Y0.6790  
G01 X0.0441  Y0.6796  
G01 X0.0428  Y0.6811  
G01 X0.0415  Y0.6824  
G01 X0.0409  Y0.6832  
G01 X0.0403  Y0.6839  
G01 X0.0394  Y0.6856  
G01 X0.0383  Y0.6872  
G01 X0.0379  Y0.6880  
G01 X0.0375  Y0.6889  
G01 X0.0368  Y0.6907  
G01 X0.0361  Y0.6924  
G01 X0.0359  Y0.6934  
G01 X0.0356  Y0.6943  
G01 X0.0354  Y0.6962  
G01 X0.0350  Y0.6980  
G01 X0.0350  Y0.6990  
G01 X0.0349  Y0.6999  
G01 X0.0350  Y0.7018  
G01 X0.0350  Y1.1439  
G01 X0.0349  Y1.1458  
G01 X0.0350  Y1.1467  
G01 X0.0350  Y1.1477  
G01 X0.0354  Y1.1495  
G01 X0.0356  Y1.1514  
G01 X0.0359  Y1.1523  
G01 X0.0361  Y1.1533  
G01 X0.0368  Y1.1550  
G01 X0.0375  Y1.1568  
G01 X0.0379  Y1.1577  
G01 X0.0383  Y1.1585  
G01 X0.0394  Y1.1601  
G01 X0.0403  Y1.1618  
G01 X0.0409  Y1.1625  
G01 X0.0415  Y1.1633  
G01 X0.0428  Y1.1646  
G01 X0.0441  Y1.1661  
G01 X0.0448  Y1.1667  
G01 X0.0455  Y1.1673  
G01 X0.0471  Y1.1684  
G01 X0.0486  Y1.1695  
G01 X0.0495  Y1.1700  
G01 X0.0503  Y1.1705  
G01 X0.0520  Y1.1712  
G01 X0.0537  Y1.1721  
G01 X0.0547  Y1.1723  
G01 X0.0555  Y1.1727  
G01 X0.0574  Y1.1731  
G01 X0.0593  Y1.1736  
G01 X0.0602  Y1.1736  
G01 X0.0611  Y1.1738  
G01 X0.0631  Y1.1738  
G01 X0.0650  Y1.1739  
G01 X0.0659  Y1.1738  
G01 X0.0669  Y1.1738  
G01 X0.0687  Y1.1734  
G01 X0.0706  Y1.1732  
G01 X0.0715  Y1.1729  
G01 X0.0725  Y1.1727  
G01 X0.0742  Y1.1720  
G01 X0.0760  Y1.1713  
G01 X0.0769  Y1.1709  
G01 X0.0777  Y1.1705  
G01 X0.0793  Y1.1694  
G01 X0.0978  Y1.1588  
G01 X0.1194  Y1.1530  
G01 X0.2418  Y1.1530  
G01 X0.2632  Y1.1587  
G01 X0.2636  Y1.1591  
G01 X0.2653  Y1.1599  
G01 X0.2670  Y1.1609  
G01 X0.2679  Y1.1612  
G01 X0.2687  Y1.1616  
G01 X0.2706  Y1.1621  
G01 X0.2724  Y1.1627  
G01 X0.2733  Y1.1628  
G01 X0.2743  Y1.1631  
G01 X0.2762  Y1.1632  
G01 X0.2780  Y1.1634  
G01 X0.2790  Y1.1634  
G01 X0.2800  Y1.1634  
G01 X0.2818  Y1.1632  
G01 X0.2837  Y1.1631  
G01 X0.2847  Y1.1628  
G01 X0.2856  Y1.1627  
G01 X0.2874  Y1.1621  
G01 X0.2893  Y1.1616  
G01 X0.2901  Y1.1612  
G01 X0.2910  Y1.1609  
G01 X0.2927  Y1.1599  
G01 X0.2944  Y1.1591  
G01 X0.2948  Y1.1587  
G01 X0.3162  Y1.1530  
G01 X0.4386  Y1.1530  
G01 X0.4602  Y1.1588  
G01 X0.4796  Y1.1700  
G01 X0.4954  Y1.1858  
G01 X0.5066  Y1.2052  
G01 X0.5124  Y1.2268  
G01 X0.5124  Y1.2492  
G01 X0.5066  Y1.2708  
G01 X0.4954  Y1.2902  
G01 X0.4796  Y1.3060  
G01 X0.4602  Y1.3172  
G01 X0.4386  Y1.3230  
G01 X0.3162  Y1.3230  
G01 X0.2948  Y1.3173  
G01 X0.2944  Y1.3169  
G01 X0.2927  Y1.3161  
G01 X0.2910  Y1.3151  
G01 X0.2901  Y1.3148  
G01 X0.2893  Y1.3144  
G01 X0.2874  Y1.3139  
G01 X0.2856  Y1.3133  
G01 X0.2847  Y1.3132  
G01 X0.2837  Y1.3129  
G01 X0.2818  Y1.3128  
G01 X0.2800  Y1.3126  
G01 X0.2790  Y1.3126  
G01 X0.2780  Y1.3126  
G01 X0.2762  Y1.3128  
G01 X0.2743  Y1.3129  
G01 X0.2733  Y1.3132  
G01 X0.2724  Y1.3133  
G01 X0.2706  Y1.3139  
G01 X0.2687  Y1.3144  
G01 X0.2679  Y1.3148  
G01 X0.2670  Y1.3151  
G01 X0.2653  Y1.3161  
G01 X0.2636  Y1.3169  
G01 X0.2632  Y1.3173  
G01 X0.2418  Y1.3230  
G01 X0.1194  Y1.3230  
G01 X0.0978  Y1.3172  
G01 X0.0793  Y1.3066  
G01 X0.0777  Y1.3055  
G01 X0.0769  Y1.3051  
G01 X0.0760  Y1.3047  
G01 X0.0742  Y1.3040  
G01 X0.0725  Y1.3033  
G01 X0.0715  Y1.3031  
G01 X0.0706  Y1.3028  
G01 X0.0687  Y1.3026  
G01 X0.0669  Y1.3022  
G01 X0.0659  Y1.3022  
G01 X0.0650  Y1.3021  
G01 X0.0631  Y1.3022  
G01 X0.0611  Y1.3022  
G01 X0.0602  Y1.3024  
G01 X0.0593  Y1.3024  
G01 X0.0574  Y1.3029  
G01 X0.0555  Y1.3033  
G01 X0.0547  Y1.3037  
G01 X0.0537  Y1.3039  
G01 X0.0520  Y1.3048  
G01 X0.0503  Y1.3055  
G01 X0.0495  Y1.3060  
G01 X0.0486  Y1.3065  
G01 X0.0471  Y1.3076  
G01 X0.0455  Y1.3087  
G01 X0.0448  Y1.3093  
G01 X0.0441  Y1.3099  
G01 X0.0428  Y1.3114  
G01 X0.0415  Y1.3127  
G01 X0.0409  Y1.3135  
G01 X0.0403  Y1.3142  
G01 X0.0394  Y1.3159  
G01 X0.0383  Y1.3175  
G01 X0.0379  Y1.3183  
G01 X0.0375  Y1.3192  
G01 X0.0368  Y1.3210  
G01 X0.0361  Y1.3227  
G01 X0.0359  Y1.3237  
G01 X0.0356  Y1.3246  
G01 X0.0354  Y1.3265  
G01 X0.0350  Y1.3283  
G01 X0.0350  Y1.3293  
G01 X0.0349  Y1.3302  
G01 X0.0350  Y1.3321  
G01 X0.0350  Y2.9389  
G01 X0.0361  Y2.9445  
G01 X0.0383  Y2.9497  
G01 X0.0415  Y2.9545  
G01 X0.0455  Y2.9585  
G01 X0.0503  Y2.9617  
G01 X0.0555  Y2.9639  
G01 X0.0611  Y2.9650  
G01 X5.9249  Y2.9650  
G01 X5.9305  Y2.9639  
G01 X5.9357  Y2.9617  
G01 X5.9405  Y2.9585  
G01 X5.9445  Y2.9545  
G01 X5.9477  Y2.9497  
G01 X5.9499  Y2.9445  
G01 X5.9510  Y2.9389  
G01 X5.9510  Y0.0611  
G01 X5.9499  Y0.0555  
G01 X5.9477  Y0.0503  
G01 X5.9445  Y0.0455  
G01 X5.9405  Y0.0415  
G01 X5.9357  Y0.0383  
G01 X5.9305  Y0.0361  
G01 X5.9249  Y0.0350  
G01 X0.0611  Y0.0350  
G01 X0.0555  Y0.0361  
G01 X0.0503  Y0.0383  
G01 X0.0455  Y0.0415  
G01 X0.0415  Y0.0455  
G00 Z0.1000  
G00 X0.1855  Y0.1660  
G01 Z-0.0070 F10    
G01 X0.2095  Y0.1522  F20    
G01 X0.2362  Y0.1450  
G01 X0.2638  Y0.1450  
G01 X0.2905  Y0.1522  
G01 X0.3145  Y0.1660  
G01 X0.3340  Y0.1855  
G01 X0.3478  Y0.2095  
G01 X0.3550  Y0.2362  
G01 X0.3550  Y0.2638  
G01 X0.3478  Y0.2905  
G01 X0.3340  Y0.3145  
G01 X0.3145  Y0.3340  
G01 X0.2905  Y0.3478  
G01 X0.2638  Y0.3550  
G01 X0.2362  Y0.3550  
G01 X0.2095  Y0.3478  
G01 X0.1855  Y0.3340  
G01 X0.1660  Y0.3145  
G01 X0.1522  Y0.2905  
G01 X0.1450  Y0.2638  
G01 X0.1450  Y0.2362  
G01 X0.1522  Y0.2095  
G01 X0.1660  Y0.1855  
G01 X0.1855  Y0.1660  
G00 Z0.1000  
G00 X0.2132  Y0.5240  
G01 Z-0.0070 F10    
G01 X0.1039  Y0.5240  F20    
G01 X0.0947  Y0.5252  
G01 X0.0857  Y0.5276  
G01 X0.0771  Y0.5312  
G01 X0.0690  Y0.5358  
G01 X0.0617  Y0.5415  
G01 X0.0551  Y0.5481  
G01 X0.0494  Y0.5555  
G01 X0.0448  Y0.5635  
G01 X0.0412  Y0.5721  
G01 X0.0388  Y0.5811  
G01 X0.0376  Y0.5903  
G01 X0.0376  Y0.5997  
G01 X0.0388  Y0.6089  
G01 X0.0412  Y0.6179  
G01 X0.0448  Y0.6265  
G01 X0.0494  Y0.6345  
G01 X0.0551  Y0.6419  
G01 X0.0617  Y0.6485  
G01 X0.0690  Y0.6542  
G01 X0.0771  Y0.6588  
G01 X0.0857  Y0.6624  
G01 X0.0947  Y0.6648  
G01 X0.1039  Y0.6660  
G01 X0.2132  Y0.6660  
G01 X0.2225  Y0.6648  
G01 X0.2314  Y0.6624  
G01 X0.2400  Y0.6588  
G01 X0.2481  Y0.6542  
G01 X0.2555  Y0.6485  
G01 X0.2570  Y0.6470  
G01 X0.2585  Y0.6485  
G01 X0.2659  Y0.6542  
G01 X0.2740  Y0.6588  
G01 X0.2826  Y0.6624  
G01 X0.2915  Y0.6648  
G01 X0.3008  Y0.6660  
G01 X0.4101  Y0.6660  
G01 X0.4193  Y0.6648  
G01 X0.4283  Y0.6624  
G01 X0.4369  Y0.6588  
G01 X0.4450  Y0.6542  
G01 X0.4523  Y0.6485  
G01 X0.4589  Y0.6419  
G01 X0.4646  Y0.6345  
G01 X0.4692  Y0.6265  
G01 X0.4728  Y0.6179  
G01 X0.4752  Y0.6089  
G01 X0.4764  Y0.5997  
G01 X0.4764  Y0.5903  
G01 X0.4752  Y0.5811  
G01 X0.4728  Y0.5721  
G01 X0.4692  Y0.5635  
G01 X0.4646  Y0.5555  
G01 X0.4589  Y0.5481  
G01 X0.4523  Y0.5415  
G01 X0.4450  Y0.5358  
G01 X0.4369  Y0.5312  
G01 X0.4283  Y0.5276  
G01 X0.4193  Y0.5252  
G01 X0.4101  Y0.5240  
G01 X0.3008  Y0.5240  
G01 X0.2915  Y0.5252  
G01 X0.2826  Y0.5276  
G01 X0.2740  Y0.5312  
G01 X0.2659  Y0.5358  
G01 X0.2585  Y0.5415  
G01 X0.2570  Y0.5430  
G01 X0.2555  Y0.5415  
G01 X0.2481  Y0.5358  
G01 X0.2400  Y0.5312  
G01 X0.2314  Y0.5276  
G01 X0.2225  Y0.5252  
G01 X0.2132  Y0.5240  
G00 Z0.1000  
G00 X0.7250  Y0.4171  
G01 Z-0.0070 F10    
G01 X0.7250  Y0.3649  F20    
G01 X0.7619  Y0.3280  
G01 X0.8141  Y0.3280  
G01 X0.8510  Y0.3649  
G01 X0.8510  Y0.4171  
G01 X0.8141  Y0.4540  
G01 X0.7619  Y0.4540  
G01 X0.7250  Y0.4171  
G00 Z0.1000  
G00 X0.7390  Y0.4113  
G01 Z-0.0070 F10    
G01 X0.7677  Y0.4400  F20    
G01 X0.8083  Y0.4400  
G01 X0.8370  Y0.4113  
G01 X0.8370  Y0.3707  
G01 X0.8083  Y0.3420  
G01 X0.7677  Y0.3420  
G01 X0.7390  Y0.3707  
G01 X0.7390  Y0.4113  
G00 Z0.1000  
G00 X0.7619  Y0.6280  
G01 Z-0.0070 F10    
G01 X0.8141  Y0.6280  F20    
G01 X0.8510  Y0.6649  
G01 X0.8510  Y0.7171  
G01 X0.8141  Y0.7540  
G01 X0.7619  Y0.7540  
G01 X0.7250  Y0.7171  
G01 X0.7250  Y0.6649  
G01 X0.7619  Y0.6280  
G00 Z0.1000  
G00 X0.7677  Y0.6420  
G01 Z-0.0070 F10    
G01 X0.7390  Y0.6707  F20    
G01 X0.7390  Y0.7113  
G01 X0.7677  Y0.7400  
G01 X0.8083  Y0.7400  
G01 X0.8370  Y0.7113  
G01 X0.8370  Y0.6707  
G01 X0.8083  Y0.6420  
G01 X0.7677  Y0.6420  
G00 Z0.1000  
G00 X1.2700  Y0.6242  
G01 Z-0.0070 F10    
G01 X1.2700  Y0.5538  F20    
G01 X1.3153  Y0.5085  
G01 X1.3161  Y0.5079  
G01 X1.3173  Y0.5065  
G01 X1.3187  Y0.5051  
G01 X1.3192  Y0.5043  
G01 X1.3198  Y0.5036  
G01 X1.3208  Y0.5020  
G01 X1.3218  Y0.5004  
G01 X1.3222  Y0.4995  
G01 X1.3227  Y0.4987  
G01 X1.3233  Y0.4969  
G01 X1.3240  Y0.4951  
G01 X1.3242  Y0.4942  
G01 X1.3245  Y0.4933  
G01 X1.3248  Y0.4914  
G01 X1.3251  Y0.4895  
G01 X1.3251  Y0.4885  
G01 X1.3253  Y0.4876  
G01 X1.3251  Y0.4857  
G01 X1.3251  Y0.4838  
G01 X1.3249  Y0.4829  
G01 X1.3249  Y0.4819  
G01 X1.3244  Y0.4801  
G01 X1.3240  Y0.4782  
G01 X1.3237  Y0.4773  
G01 X1.3234  Y0.4764  
G01 X1.3226  Y0.4747  
G01 X1.3218  Y0.4729  
G01 X1.3213  Y0.4721  
G01 X1.3209  Y0.4713  
G01 X1.3197  Y0.4697  
G01 X1.3187  Y0.4682  
G01 X1.3180  Y0.4675  
G01 X1.3174  Y0.4667  
G01 X1.3160  Y0.4655  
G01 X1.3146  Y0.4641  
G01 X1.3138  Y0.4636  
G01 X1.3131  Y0.4630  
G01 X1.3115  Y0.4620  
G01 X1.3099  Y0.4609  
G01 X1.3090  Y0.4606  
G01 X1.3028  Y0.4570  
G01 X1.2870  Y0.4412  
G01 X1.2758  Y0.4218  
G01 X1.2700  Y0.4002  
G01 X1.2700  Y0.3778  
G01 X1.2758  Y0.3562  
G01 X1.2870  Y0.3368  
G01 X1.3028  Y0.3210  
G01 X1.3222  Y0.3098  
G01 X1.3438  Y0.3040  
G01 X1.3662  Y0.3040  
G01 X1.3878  Y0.3098  
G01 X1.4072  Y0.3210  
G01 X1.4230  Y0.3368  
G01 X1.4342  Y0.3562  
G01 X1.4400  Y0.3778  
G01 X1.4400  Y0.4002  
G01 X1.4342  Y0.4218  
G01 X1.4230  Y0.4412  
G01 X1.4072  Y0.4570  
G01 X1.4010  Y0.4606  
G01 X1.4001  Y0.4609  
G01 X1.3985  Y0.4620  
G01 X1.3969  Y0.4630  
G01 X1.3962  Y0.4636  
G01 X1.3954  Y0.4641  
G01 X1.3940  Y0.4655  
G01 X1.3926  Y0.4667  
G01 X1.3920  Y0.4675  
G01 X1.3913  Y0.4682  
G01 X1.3903  Y0.4697  
G01 X1.3891  Y0.4713  
G01 X1.3887  Y0.4721  
G01 X1.3882  Y0.4729  
G01 X1.3874  Y0.4747  
G01 X1.3866  Y0.4764  
G01 X1.3863  Y0.4773  
G01 X1.3860  Y0.4782  
G01 X1.3856  Y0.4801  
G01 X1.3851  Y0.4819  
G01 X1.3851  Y0.4829  
G01 X1.3849  Y0.4838  
G01 X1.3849  Y0.4857  
G01 X1.3847  Y0.4876  
G01 X1.3849  Y0.4885  
G01 X1.3849  Y0.4895  
G01 X1.3852  Y0.4914  
G01 X1.3855  Y0.4933  
G01 X1.3858  Y0.4942  
G01 X1.3860  Y0.4951  
G01 X1.3867  Y0.4969  
G01 X1.3873  Y0.4987  
G01 X1.3878  Y0.4995  
G01 X1.3882  Y0.5004  
G01 X1.3892  Y0.5020  
G01 X1.3902  Y0.5036  
G01 X1.3908  Y0.5043  
G01 X1.3913  Y0.5051  
G01 X1.3927  Y0.5065  
G01 X1.3939  Y0.5079  
G01 X1.3947  Y0.5085  
G01 X1.4400  Y0.5538  
G01 X1.4400  Y0.6242  
G01 X1.3902  Y0.6740  
G01 X1.3198  Y0.6740  
G01 X1.2700  Y0.6242  
G00 Z0.1000  
G00 X1.2840  Y0.6184  
G01 Z-0.0070 F10    
G01 X1.3256  Y0.6600  F20    
G01 X1.3844  Y0.6600  
G01 X1.4260  Y0.6184  
G01 X1.4260  Y0.5596  
G01 X1.3844  Y0.5180  
G01 X1.3256  Y0.5180  
G01 X1.2840  Y0.5596  
G01 X1.2840  Y0.6184  
G00 Z0.1000  
G00 X1.3081  Y0.4425  
G01 Z-0.0070 F10    
G01 X1.3155  Y0.4482  F20    
G01 X1.3235  Y0.4528  
G01 X1.3321  Y0.4564  
G01 X1.3411  Y0.4588  
G01 X1.3503  Y0.4600  
G01 X1.3597  Y0.4600  
G01 X1.3689  Y0.4588  
G01 X1.3779  Y0.4564  
G01 X1.3865  Y0.4528  
G01 X1.3945  Y0.4482  
G01 X1.4019  Y0.4425  
G01 X1.4085  Y0.4359  
G01 X1.4142  Y0.4285  
G01 X1.4188  Y0.4205  
G01 X1.4224  Y0.4119  
G01 X1.4248  Y0.4029  
G01 X1.4260  Y0.3937  
G01 X1.4260  Y0.3843  
G01 X1.4248  Y0.3751  
G01 X1.4224  Y0.3661  
G01 X1.4188  Y0.3575  
G01 X1.4142  Y0.3495  
G01 X1.4085  Y0.3421  
G01 X1.4019  Y0.3355  
G01 X1.3945  Y0.3298  
G01 X1.3865  Y0.3252  
G01 X1.3779  Y0.3216  
G01 X1.3689  Y0.3192  
G01 X1.3597  Y0.3180  
G01 X1.3503  Y0.3180  
G01 X1.3411  Y0.3192  
G01 X1.3321  Y0.3216  
G01 X1.3235  Y0.3252  
G01 X1.3155  Y0.3298  
G01 X1.3081  Y0.3355  
G01 X1.3015  Y0.3421  
G01 X1.2958  Y0.3495  
G01 X1.2912  Y0.3575  
G01 X1.2876  Y0.3661  
G01 X1.2852  Y0.3751  
G01 X1.2840  Y0.3843  
G01 X1.2840  Y0.3937  
G01 X1.2852  Y0.4029  
G01 X1.2876  Y0.4119  
G01 X1.2912  Y0.4205  
G01 X1.2958  Y0.4285  
G01 X1.3015  Y0.4359  
G01 X1.3081  Y0.4425  
G00 Z0.1000  
G00 X1.4852  Y1.0909  
G01 Z-0.0070 F10    
G01 X1.5091  Y1.0810  F20    
G01 X1.5949  Y1.0810  
G01 X1.6188  Y1.0909  
G01 X1.6371  Y1.1092  
G01 X1.6470  Y1.1331  
G01 X1.6470  Y1.1589  
G01 X1.6351  Y1.1875  
G01 X1.6340  Y1.1931  
G01 X1.6340  Y1.1989  
G01 X1.6343  Y1.2000  
G01 X1.6351  Y1.2045  
G01 X1.6373  Y1.2097  
G01 X1.6470  Y1.2331  
G01 X1.6470  Y1.2589  
G01 X1.6351  Y1.2875  
G01 X1.6340  Y1.2931  
G01 X1.6340  Y1.2989  
G01 X1.6343  Y1.3000  
G01 X1.6351  Y1.3045  
G01 X1.6373  Y1.3097  
G01 X1.6470  Y1.3331  
G01 X1.6470  Y1.3589  
G01 X1.6371  Y1.3828  
G01 X1.6188  Y1.4011  
G01 X1.5949  Y1.4110  
G01 X1.5091  Y1.4110  
G01 X1.4852  Y1.4011  
G01 X1.4669  Y1.3828  
G01 X1.4570  Y1.3589  
G01 X1.4570  Y1.3331  
G01 X1.4667  Y1.3097  
G01 X1.4689  Y1.3045  
G01 X1.4698  Y1.2999  
G01 X1.4700  Y1.2989  
G01 X1.4700  Y1.2931  
G01 X1.4689  Y1.2875  
G01 X1.4570  Y1.2589  
G01 X1.4570  Y1.2331  
G01 X1.4667  Y1.2097  
G01 X1.4689  Y1.2045  
G01 X1.4698  Y1.1999  
G01 X1.4700  Y1.1989  
G01 X1.4700  Y1.1931  
G01 X1.4689  Y1.1875  
G01 X1.4570  Y1.1589  
G01 X1.4570  Y1.1331  
G01 X1.4669  Y1.1092  
G01 X1.4852  Y1.0909  
G00 Z0.1000  
G00 X1.4888  Y1.1071  
G01 Z-0.0070 F10    
G01 X1.4831  Y1.1128  F20    
G01 X1.4784  Y1.1193  
G01 X1.4747  Y1.1264  
G01 X1.4723  Y1.1341  
G01 X1.4710  Y1.1420  
G01 X1.4710  Y1.1500  
G01 X1.4723  Y1.1579  
G01 X1.4747  Y1.1656  
G01 X1.4784  Y1.1727  
G01 X1.4831  Y1.1792  
G01 X1.4888  Y1.1849  
G01 X1.4953  Y1.1896  
G01 X1.5024  Y1.1933  
G01 X1.5101  Y1.1957  
G01 X1.5117  Y1.1960  
G01 X1.5101  Y1.1963  
G01 X1.5024  Y1.1987  
G01 X1.4953  Y1.2024  
G01 X1.4888  Y1.2071  
G01 X1.4831  Y1.2128  
G01 X1.4784  Y1.2193  
G01 X1.4747  Y1.2264  
G01 X1.4723  Y1.2341  
G01 X1.4710  Y1.2420  
G01 X1.4710  Y1.2500  
G01 X1.4723  Y1.2579  
G01 X1.4747  Y1.2656  
G01 X1.4784  Y1.2727  
G01 X1.4831  Y1.2792  
G01 X1.4888  Y1.2849  
G01 X1.4953  Y1.2896  
G01 X1.5024  Y1.2933  
G01 X1.5101  Y1.2957  
G01 X1.5117  Y1.2960  
G01 X1.5101  Y1.2963  
G01 X1.5024  Y1.2987  
G01 X1.4953  Y1.3024  
G01 X1.4888  Y1.3071  
G01 X1.4831  Y1.3128  
G01 X1.4784  Y1.3193  
G01 X1.4747  Y1.3264  
G01 X1.4723  Y1.3341  
G01 X1.4710  Y1.3420  
G01 X1.4710  Y1.3500  
G01 X1.4723  Y1.3579  
G01 X1.4747  Y1.3656  
G01 X1.4784  Y1.3727  
G01 X1.4831  Y1.3792  
G01 X1.4888  Y1.3849  
G01 X1.4953  Y1.3896  
G01 X1.5024  Y1.3933  
G01 X1.5101  Y1.3957  
G01 X1.5180  Y1.3970  
G01 X1.5860  Y1.3970  
G01 X1.5939  Y1.3957  
G01 X1.6016  Y1.3933  
G01 X1.6087  Y1.3896  
G01 X1.6152  Y1.3849  
G01 X1.6209  Y1.3792  
G01 X1.6256  Y1.3727  
G01 X1.6293  Y1.3656  
G01 X1.6317  Y1.3579  
G01 X1.6330  Y1.3500  
G01 X1.6330  Y1.3420  
G01 X1.6317  Y1.3341  
G01 X1.6293  Y1.3264  
G01 X1.6256  Y1.3193  
G01 X1.6209  Y1.3128  
G01 X1.6152  Y1.3071  
G01 X1.6087  Y1.3024  
G01 X1.6016  Y1.2987  
G01 X1.5939  Y1.2963  
G01 X1.5923  Y1.2960  
G01 X1.5939  Y1.2957  
G01 X1.6016  Y1.2933  
G01 X1.6087  Y1.2896  
G01 X1.6152  Y1.2849  
G01 X1.6209  Y1.2792  
G01 X1.6256  Y1.2727  
G01 X1.6293  Y1.2656  
G01 X1.6317  Y1.2579  
G01 X1.6330  Y1.2500  
G01 X1.6330  Y1.2420  
G01 X1.6317  Y1.2341  
G01 X1.6293  Y1.2264  
G01 X1.6256  Y1.2193  
G01 X1.6209  Y1.2128  
G01 X1.6152  Y1.2071  
G01 X1.6087  Y1.2024  
G01 X1.6016  Y1.1987  
G01 X1.5939  Y1.1963  
G01 X1.5923  Y1.1960  
G01 X1.5939  Y1.1957  
G01 X1.6016  Y1.1933  
G01 X1.6087  Y1.1896  
G01 X1.6152  Y1.1849  
G01 X1.6209  Y1.1792  
G01 X1.6256  Y1.1727  
G01 X1.6293  Y1.1656  
G01 X1.6317  Y1.1579  
G01 X1.6330  Y1.1500  
G01 X1.6330  Y1.1420  
G01 X1.6317  Y1.1341  
G01 X1.6293  Y1.1264  
G01 X1.6256  Y1.1193  
G01 X1.6209  Y1.1128  
G01 X1.6152  Y1.1071  
G01 X1.6087  Y1.1024  
G01 X1.6016  Y1.0987  
G01 X1.5939  Y1.0963  
G01 X1.5860  Y1.0950  
G01 X1.5180  Y1.0950  
G01 X1.5101  Y1.0963  
G01 X1.5024  Y1.0987  
G01 X1.4953  Y1.1024  
G01 X1.4888  Y1.1071  
G00 Z0.1000  
G00 X1.8360  Y1.0573  
G01 Z-0.0070 F10    
G01 X1.8360  Y1.0067  F20    
G01 X1.8717  Y0.9710  
G01 X1.9223  Y0.9710  
G01 X1.9580  Y1.0067  
G01 X1.9580  Y1.0573  
G01 X1.9223  Y1.0930  
G01 X1.8717  Y1.0930  
G01 X1.8360  Y1.0573  
G00 Z0.1000  
G00 X1.8500  Y1.0515  
G01 Z-0.0070 F10    
G01 X1.8775  Y1.0790  F20    
G01 X1.9165  Y1.0790  
G01 X1.9440  Y1.0515  
G01 X1.9440  Y1.0125  
G01 X1.9165  Y0.9850  
G01 X1.8775  Y0.9850  
G01 X1.8500  Y1.0125  
G01 X1.8500  Y1.0515  
G00 Z0.1000  
G00 X1.8717  Y1.3710  
G01 Z-0.0070 F10    
G01 X1.9223  Y1.3710  F20    
G01 X1.9580  Y1.4067  
G01 X1.9580  Y1.4573  
G01 X1.9223  Y1.4930  
G01 X1.8717  Y1.4930  
G01 X1.8360  Y1.4573  
G01 X1.8360  Y1.4067  
G01 X1.8717  Y1.3710  
G00 Z0.1000  
G00 X1.8775  Y1.3850  
G01 Z-0.0070 F10    
G01 X1.8500  Y1.4125  F20    
G01 X1.8500  Y1.4515  
G01 X1.8775  Y1.4790  
G01 X1.9165  Y1.4790  
G01 X1.9440  Y1.4515  
G01 X1.9440  Y1.4125  
G01 X1.9165  Y1.3850  
G01 X1.8775  Y1.3850  
G00 Z0.1000  
G00 X1.8220  Y1.6797  
G01 Z-0.0070 F10    
G01 X1.8220  Y1.7303  F20    
G01 X1.7863  Y1.7660  
G01 X1.7357  Y1.7660  
G01 X1.7000  Y1.7303  
G01 X1.7000  Y1.6797  
G01 X1.7357  Y1.6440  
G01 X1.7863  Y1.6440  
G01 X1.8220  Y1.6797  
G00 Z0.1000  
G00 X1.8080  Y1.6855  
G01 Z-0.0070 F10    
G01 X1.7805  Y1.6580  F20    
G01 X1.7415  Y1.6580  
G01 X1.7140  Y1.6855  
G01 X1.7140  Y1.7245  
G01 X1.7415  Y1.7520  
G01 X1.7805  Y1.7520  
G01 X1.8080  Y1.7245  
G01 X1.8080  Y1.6855  
G00 Z0.1000  
G00 X2.1220  Y1.6827  
G01 Z-0.0070 F10    
G01 X2.1577  Y1.6470  F20    
G01 X2.2083  Y1.6470  
G01 X2.2440  Y1.6827  
G01 X2.2440  Y1.7333  
G01 X2.2083  Y1.7690  
G01 X2.1577  Y1.7690  
G01 X2.1220  Y1.7333  
G01 X2.1220  Y1.6827  
G00 Z0.1000  
G00 X2.1360  Y1.6885  
G01 Z-0.0070 F10    
G01 X2.1360  Y1.7275  F20    
G01 X2.1635  Y1.7550  
G01 X2.2025  Y1.7550  
G01 X2.2300  Y1.7275  
G01 X2.2300  Y1.6885  
G01 X2.2025  Y1.6610  
G01 X2.1635  Y1.6610  
G01 X2.1360  Y1.6885  
G00 Z0.1000  
G00 X2.5220  Y1.6827  
G01 Z-0.0070 F10    
G01 X2.5577  Y1.6470  F20    
G01 X2.6083  Y1.6470  
G01 X2.6440  Y1.6827  
G01 X2.6440  Y1.7333  
G01 X2.6083  Y1.7690  
G01 X2.5577  Y1.7690  
G01 X2.5220  Y1.7333  
G01 X2.5220  Y1.6827  
G00 Z0.1000  
G00 X2.5360  Y1.6885  
G01 Z-0.0070 F10    
G01 X2.5360  Y1.7275  F20    
G01 X2.5635  Y1.7550  
G01 X2.6025  Y1.7550  
G01 X2.6300  Y1.7275  
G01 X2.6300  Y1.6885  
G01 X2.6025  Y1.6610  
G01 X2.5635  Y1.6610  
G01 X2.5360  Y1.6885  
G00 Z0.1000  
G00 X2.5391  Y1.4090  
G01 Z-0.0070 F10    
G01 X2.5152  Y1.3991  F20    
G01 X2.4969  Y1.3808  
G01 X2.4870  Y1.3569  
G01 X2.4870  Y1.3311  
G01 X2.4967  Y1.3077  
G01 X2.4989  Y1.3025  
G01 X2.4998  Y1.2979  
G01 X2.5000  Y1.2969  
G01 X2.5000  Y1.2911  
G01 X2.4989  Y1.2855  
G01 X2.4870  Y1.2569  
G01 X2.4870  Y1.2311  
G01 X2.4967  Y1.2077  
G01 X2.4989  Y1.2025  
G01 X2.4998  Y1.1979  
G01 X2.5000  Y1.1969  
G01 X2.5000  Y1.1911  
G01 X2.4989  Y1.1855  
G01 X2.4870  Y1.1569  
G01 X2.4870  Y1.1311  
G01 X2.4969  Y1.1072  
G01 X2.5152  Y1.0889  
G01 X2.5391  Y1.0790  
G01 X2.6249  Y1.0790  
G01 X2.6488  Y1.0889  
G01 X2.6671  Y1.1072  
G01 X2.6770  Y1.1311  
G01 X2.6770  Y1.1569  
G01 X2.6651  Y1.1855  
G01 X2.6640  Y1.1911  
G01 X2.6640  Y1.1969  
G01 X2.6643  Y1.1980  
G01 X2.6651  Y1.2025  
G01 X2.6673  Y1.2077  
G01 X2.6770  Y1.2311  
G01 X2.6770  Y1.2569  
G01 X2.6651  Y1.2855  
G01 X2.6640  Y1.2911  
G01 X2.6640  Y1.2969  
G01 X2.6643  Y1.2980  
G01 X2.6651  Y1.3025  
G01 X2.6673  Y1.3077  
G01 X2.6770  Y1.3311  
G01 X2.6770  Y1.3569  
G01 X2.6671  Y1.3808  
G01 X2.6488  Y1.3991  
G01 X2.6249  Y1.4090  
G01 X2.5391  Y1.4090  
G00 Z0.1000  
G00 X2.5401  Y1.3937  
G01 Z-0.0070 F10    
G01 X2.5480  Y1.3950  F20    
G01 X2.6160  Y1.3950  
G01 X2.6239  Y1.3937  
G01 X2.6316  Y1.3913  
G01 X2.6387  Y1.3876  
G01 X2.6452  Y1.3829  
G01 X2.6509  Y1.3772  
G01 X2.6556  Y1.3707  
G01 X2.6593  Y1.3636  
G01 X2.6617  Y1.3559  
G01 X2.6630  Y1.3480  
G01 X2.6630  Y1.3400  
G01 X2.6617  Y1.3321  
G01 X2.6593  Y1.3244  
G01 X2.6556  Y1.3173  
G01 X2.6509  Y1.3108  
G01 X2.6452  Y1.3051  
G01 X2.6387  Y1.3004  
G01 X2.6316  Y1.2967  
G01 X2.6239  Y1.2943  
G01 X2.6223  Y1.2940  
G01 X2.6239  Y1.2937  
G01 X2.6316  Y1.2913  
G01 X2.6387  Y1.2876  
G01 X2.6452  Y1.2829  
G01 X2.6509  Y1.2772  
G01 X2.6556  Y1.2707  
G01 X2.6593  Y1.2636  
G01 X2.6617  Y1.2559  
G01 X2.6630  Y1.2480  
G01 X2.6630  Y1.2400  
G01 X2.6617  Y1.2321  
G01 X2.6593  Y1.2244  
G01 X2.6556  Y1.2173  
G01 X2.6509  Y1.2108  
G01 X2.6452  Y1.2051  
G01 X2.6387  Y1.2004  
G01 X2.6316  Y1.1967  
G01 X2.6239  Y1.1943  
G01 X2.6223  Y1.1940  
G01 X2.6239  Y1.1937  
G01 X2.6316  Y1.1913  
G01 X2.6387  Y1.1876  
G01 X2.6452  Y1.1829  
G01 X2.6509  Y1.1772  
G01 X2.6556  Y1.1707  
G01 X2.6593  Y1.1636  
G01 X2.6617  Y1.1559  
G01 X2.6630  Y1.1480  
G01 X2.6630  Y1.1400  
G01 X2.6617  Y1.1321  
G01 X2.6593  Y1.1244  
G01 X2.6556  Y1.1173  
G01 X2.6509  Y1.1108  
G01 X2.6452  Y1.1051  
G01 X2.6387  Y1.1004  
G01 X2.6316  Y1.0967  
G01 X2.6239  Y1.0943  
G01 X2.6160  Y1.0930  
G01 X2.5480  Y1.0930  
G01 X2.5401  Y1.0943  
G01 X2.5324  Y1.0967  
G01 X2.5253  Y1.1004  
G01 X2.5188  Y1.1051  
G01 X2.5131  Y1.1108  
G01 X2.5084  Y1.1173  
G01 X2.5047  Y1.1244  
G01 X2.5023  Y1.1321  
G01 X2.5010  Y1.1400  
G01 X2.5010  Y1.1480  
G01 X2.5023  Y1.1559  
G01 X2.5047  Y1.1636  
G01 X2.5084  Y1.1707  
G01 X2.5131  Y1.1772  
G01 X2.5188  Y1.1829  
G01 X2.5253  Y1.1876  
G01 X2.5324  Y1.1913  
G01 X2.5401  Y1.1937  
G01 X2.5417  Y1.1940  
G01 X2.5401  Y1.1943  
G01 X2.5324  Y1.1967  
G01 X2.5253  Y1.2004  
G01 X2.5188  Y1.2051  
G01 X2.5131  Y1.2108  
G01 X2.5084  Y1.2173  
G01 X2.5047  Y1.2244  
G01 X2.5023  Y1.2321  
G01 X2.5010  Y1.2400  
G01 X2.5010  Y1.2480  
G01 X2.5023  Y1.2559  
G01 X2.5047  Y1.2636  
G01 X2.5084  Y1.2707  
G01 X2.5131  Y1.2772  
G01 X2.5188  Y1.2829  
G01 X2.5253  Y1.2876  
G01 X2.5324  Y1.2913  
G01 X2.5401  Y1.2937  
G01 X2.5417  Y1.2940  
G01 X2.5401  Y1.2943  
G01 X2.5324  Y1.2967  
G01 X2.5253  Y1.3004  
G01 X2.5188  Y1.3051  
G01 X2.5131  Y1.3108  
G01 X2.5084  Y1.3173  
G01 X2.5047  Y1.3244  
G01 X2.5023  Y1.3321  
G01 X2.5010  Y1.3400  
G01 X2.5010  Y1.3480  
G01 X2.5023  Y1.3559  
G01 X2.5047  Y1.3636  
G01 X2.5084  Y1.3707  
G01 X2.5131  Y1.3772  
G01 X2.5188  Y1.3829  
G01 X2.5253  Y1.3876  
G01 X2.5324  Y1.3913  
G01 X2.5401  Y1.3937  
G00 Z0.1000  
G00 X2.8980  Y1.3937  
G01 Z-0.0070 F10    
G01 X2.9337  Y1.3580  F20    
G01 X2.9843  Y1.3580  
G01 X3.0200  Y1.3937  
G01 X3.0200  Y1.4443  
G01 X2.9843  Y1.4800  
G01 X2.9337  Y1.4800  
G01 X2.8980  Y1.4443  
G01 X2.8980  Y1.3937  
G00 Z0.1000  
G00 X2.9120  Y1.3995  
G01 Z-0.0070 F10    
G01 X2.9120  Y1.4385  F20    
G01 X2.9395  Y1.4660  
G01 X2.9785  Y1.4660  
G01 X3.0060  Y1.4385  
G01 X3.0060  Y1.3995  
G01 X2.9785  Y1.3720  
G01 X2.9395  Y1.3720  
G01 X2.9120  Y1.3995  
G00 Z0.1000  
G00 X2.9337  Y1.0800  
G01 Z-0.0070 F10    
G01 X2.8980  Y1.0443  F20    
G01 X2.8980  Y0.9937  
G01 X2.9337  Y0.9580  
G01 X2.9843  Y0.9580  
G01 X3.0200  Y0.9937  
G01 X3.0200  Y1.0443  
G01 X2.9843  Y1.0800  
G01 X2.9337  Y1.0800  
G00 Z0.1000  
G00 X2.9395  Y1.0660  
G01 Z-0.0070 F10    
G01 X2.9785  Y1.0660  F20    
G01 X3.0060  Y1.0385  
G01 X3.0060  Y0.9995  
G01 X2.9785  Y0.9720  
G01 X2.9395  Y0.9720  
G01 X2.9120  Y0.9995  
G01 X2.9120  Y1.0385  
G01 X2.9395  Y1.0660  
G00 Z0.1000  
G00 X2.9393  Y2.3270  
G01 Z-0.0070 F10    
G01 X2.9750  Y2.3627  F20    
G01 X2.9750  Y2.4133  
G01 X2.9393  Y2.4490  
G01 X2.8887  Y2.4490  
G01 X2.8530  Y2.4133  
G01 X2.8530  Y2.3627  
G01 X2.8887  Y2.3270  
G01 X2.9393  Y2.3270  
G00 Z0.1000  
G00 X2.9335  Y2.3410  
G01 Z-0.0070 F10    
G01 X2.8945  Y2.3410  F20    
G01 X2.8670  Y2.3685  
G01 X2.8670  Y2.4075  
G01 X2.8945  Y2.4350  
G01 X2.9335  Y2.4350  
G01 X2.9610  Y2.4075  
G01 X2.9610  Y2.3685  
G01 X2.9335  Y2.3410  
G00 Z0.1000  
G00 X2.6841  Y2.4632  
G01 Z-0.0070 F10    
G01 X2.6940  Y2.4871  F20    
G01 X2.6940  Y2.5129  
G01 X2.6822  Y2.5414  
G01 X2.6821  Y2.5415  
G01 X2.6810  Y2.5471  
G01 X2.6810  Y2.5529  
G01 X2.6811  Y2.5532  
G01 X2.6821  Y2.5585  
G01 X2.6832  Y2.5611  
G01 X2.6940  Y2.5871  
G01 X2.6940  Y2.6129  
G01 X2.6822  Y2.6414  
G01 X2.6821  Y2.6415  
G01 X2.6810  Y2.6471  
G01 X2.6810  Y2.6529  
G01 X2.6811  Y2.6532  
G01 X2.6821  Y2.6585  
G01 X2.6832  Y2.6611  
G01 X2.6940  Y2.6871  
G01 X2.6940  Y2.7129  
G01 X2.6841  Y2.7368  
G01 X2.6658  Y2.7551  
G01 X2.6419  Y2.7650  
G01 X2.5561  Y2.7650  
G01 X2.5322  Y2.7551  
G01 X2.5139  Y2.7368  
G01 X2.5040  Y2.7129  
G01 X2.5040  Y2.6871  
G01 X2.5147  Y2.6612  
G01 X2.5159  Y2.6585  
G01 X2.5170  Y2.6529  
G01 X2.5170  Y2.6471  
G01 X2.5159  Y2.6415  
G01 X2.5040  Y2.6129  
G01 X2.5040  Y2.5871  
G01 X2.5147  Y2.5612  
G01 X2.5159  Y2.5585  
G01 X2.5170  Y2.5529  
G01 X2.5170  Y2.5471  
G01 X2.5159  Y2.5415  
G01 X2.5040  Y2.5129  
G01 X2.5040  Y2.4871  
G01 X2.5139  Y2.4632  
G01 X2.5322  Y2.4449  
G01 X2.5561  Y2.4350  
G01 X2.6419  Y2.4350  
G01 X2.6658  Y2.4449  
G01 X2.6841  Y2.4632  
G00 Z0.1000  
G00 X2.6679  Y2.4668  
G01 Z-0.0070 F10    
G01 X2.6622  Y2.4611  F20    
G01 X2.6557  Y2.4564  
G01 X2.6486  Y2.4527  
G01 X2.6409  Y2.4503  
G01 X2.6330  Y2.4490  
G01 X2.5650  Y2.4490  
G01 X2.5571  Y2.4503  
G01 X2.5494  Y2.4527  
G01 X2.5423  Y2.4564  
G01 X2.5358  Y2.4611  
G01 X2.5301  Y2.4668  
G01 X2.5254  Y2.4733  
G01 X2.5217  Y2.4804  
G01 X2.5193  Y2.4881  
G01 X2.5180  Y2.4960  
G01 X2.5180  Y2.5040  
G01 X2.5193  Y2.5119  
G01 X2.5217  Y2.5196  
G01 X2.5254  Y2.5267  
G01 X2.5301  Y2.5332  
G01 X2.5358  Y2.5389  
G01 X2.5423  Y2.5436  
G01 X2.5494  Y2.5473  
G01 X2.5571  Y2.5497  
G01 X2.5587  Y2.5500  
G01 X2.5571  Y2.5503  
G01 X2.5494  Y2.5527  
G01 X2.5423  Y2.5564  
G01 X2.5358  Y2.5611  
G01 X2.5301  Y2.5668  
G01 X2.5254  Y2.5733  
G01 X2.5217  Y2.5804  
G01 X2.5193  Y2.5881  
G01 X2.5180  Y2.5960  
G01 X2.5180  Y2.6040  
G01 X2.5193  Y2.6119  
G01 X2.5217  Y2.6196  
G01 X2.5254  Y2.6267  
G01 X2.5301  Y2.6332  
G01 X2.5358  Y2.6389  
G01 X2.5423  Y2.6436  
G01 X2.5494  Y2.6473  
G01 X2.5571  Y2.6497  
G01 X2.5587  Y2.6500  
G01 X2.5571  Y2.6503  
G01 X2.5494  Y2.6527  
G01 X2.5423  Y2.6564  
G01 X2.5358  Y2.6611  
G01 X2.5301  Y2.6668  
G01 X2.5254  Y2.6733  
G01 X2.5217  Y2.6804  
G01 X2.5193  Y2.6881  
G01 X2.5180  Y2.6960  
G01 X2.5180  Y2.7040  
G01 X2.5193  Y2.7119  
G01 X2.5217  Y2.7196  
G01 X2.5254  Y2.7267  
G01 X2.5301  Y2.7332  
G01 X2.5358  Y2.7389  
G01 X2.5423  Y2.7436  
G01 X2.5494  Y2.7473  
G01 X2.5571  Y2.7497  
G01 X2.5650  Y2.7510  
G01 X2.6330  Y2.7510  
G01 X2.6409  Y2.7497  
G01 X2.6486  Y2.7473  
G01 X2.6557  Y2.7436  
G01 X2.6622  Y2.7389  
G01 X2.6679  Y2.7332  
G01 X2.6726  Y2.7267  
G01 X2.6763  Y2.7196  
G01 X2.6787  Y2.7119  
G01 X2.6800  Y2.7040  
G01 X2.6800  Y2.6960  
G01 X2.6787  Y2.6881  
G01 X2.6763  Y2.6804  
G01 X2.6726  Y2.6733  
G01 X2.6679  Y2.6668  
G01 X2.6622  Y2.6611  
G01 X2.6557  Y2.6564  
G01 X2.6486  Y2.6527  
G01 X2.6409  Y2.6503  
G01 X2.6393  Y2.6500  
G01 X2.6409  Y2.6497  
G01 X2.6486  Y2.6473  
G01 X2.6557  Y2.6436  
G01 X2.6622  Y2.6389  
G01 X2.6679  Y2.6332  
G01 X2.6726  Y2.6267  
G01 X2.6763  Y2.6196  
G01 X2.6787  Y2.6119  
G01 X2.6800  Y2.6040  
G01 X2.6800  Y2.5960  
G01 X2.6787  Y2.5881  
G01 X2.6763  Y2.5804  
G01 X2.6726  Y2.5733  
G01 X2.6679  Y2.5668  
G01 X2.6622  Y2.5611  
G01 X2.6557  Y2.5564  
G01 X2.6486  Y2.5527  
G01 X2.6409  Y2.5503  
G01 X2.6393  Y2.5500  
G01 X2.6409  Y2.5497  
G01 X2.6486  Y2.5473  
G01 X2.6557  Y2.5436  
G01 X2.6622  Y2.5389  
G01 X2.6679  Y2.5332  
G01 X2.6726  Y2.5267  
G01 X2.6763  Y2.5196  
G01 X2.6787  Y2.5119  
G01 X2.6800  Y2.5040  
G01 X2.6800  Y2.4960  
G01 X2.6787  Y2.4881  
G01 X2.6763  Y2.4804  
G01 X2.6726  Y2.4733  
G01 X2.6679  Y2.4668  
G00 Z0.1000  
G00 X2.3563  Y2.3610  
G01 Z-0.0070 F10    
G01 X2.3057  Y2.3610  F20    
G01 X2.2700  Y2.3253  
G01 X2.2700  Y2.2747  
G01 X2.3057  Y2.2390  
G01 X2.3563  Y2.2390  
G01 X2.3920  Y2.2747  
G01 X2.3920  Y2.3253  
G01 X2.3563  Y2.3610  
G00 Z0.1000  
G00 X2.3505  Y2.3470  
G01 Z-0.0070 F10    
G01 X2.3780  Y2.3195  F20    
G01 X2.3780  Y2.2805  
G01 X2.3505  Y2.2530  
G01 X2.3115  Y2.2530  
G01 X2.2840  Y2.2805  
G01 X2.2840  Y2.3195  
G01 X2.3115  Y2.3470  
G01 X2.3505  Y2.3470  
G00 Z0.1000  
G00 X2.3563  Y2.6390  
G01 Z-0.0070 F10    
G01 X2.3920  Y2.6747  F20    
G01 X2.3920  Y2.7253  
G01 X2.3563  Y2.7610  
G01 X2.3057  Y2.7610  
G01 X2.2700  Y2.7253  
G01 X2.2700  Y2.6747  
G01 X2.3057  Y2.6390  
G01 X2.3563  Y2.6390  
G00 Z0.1000  
G00 X2.3505  Y2.6530  
G01 Z-0.0070 F10    
G01 X2.3115  Y2.6530  F20    
G01 X2.2840  Y2.6805  
G01 X2.2840  Y2.7195  
G01 X2.3115  Y2.7470  
G01 X2.3505  Y2.7470  
G01 X2.3780  Y2.7195  
G01 X2.3780  Y2.6805  
G01 X2.3505  Y2.6530  
G00 Z0.1000  
G00 X1.9690  Y2.7717  
G01 Z-0.0070 F10    
G01 X1.9690  Y2.8223  F20    
G01 X1.9333  Y2.8580  
G01 X1.8827  Y2.8580  
G01 X1.8470  Y2.8223  
G01 X1.8470  Y2.7717  
G01 X1.8827  Y2.7360  
G01 X1.9333  Y2.7360  
G01 X1.9690  Y2.7717  
G00 Z0.1000  
G00 X1.9550  Y2.7775  
G01 Z-0.0070 F10    
G01 X1.9275  Y2.7500  F20    
G01 X1.8885  Y2.7500  
G01 X1.8610  Y2.7775  
G01 X1.8610  Y2.8165  
G01 X1.8885  Y2.8440  
G01 X1.9275  Y2.8440  
G01 X1.9550  Y2.8165  
G01 X1.9550  Y2.7775  
G00 Z0.1000  
G00 X1.9333  Y2.4580  
G01 Z-0.0070 F10    
G01 X1.8827  Y2.4580  F20    
G01 X1.8470  Y2.4223  
G01 X1.8470  Y2.3717  
G01 X1.8827  Y2.3360  
G01 X1.9333  Y2.3360  
G01 X1.9690  Y2.3717  
G01 X1.9690  Y2.4223  
G01 X1.9333  Y2.4580  
G00 Z0.1000  
G00 X1.9275  Y2.4440  
G01 Z-0.0070 F10    
G01 X1.9550  Y2.4165  F20    
G01 X1.9550  Y2.3775  
G01 X1.9275  Y2.3500  
G01 X1.8885  Y2.3500  
G01 X1.8610  Y2.3775  
G01 X1.8610  Y2.4165  
G01 X1.8885  Y2.4440  
G01 X1.9275  Y2.4440  
G00 Z0.1000  
G00 X1.6411  Y2.4622  
G01 Z-0.0070 F10    
G01 X1.6510  Y2.4861  F20    
G01 X1.6510  Y2.5119  
G01 X1.6391  Y2.5405  
G01 X1.6380  Y2.5461  
G01 X1.6380  Y2.5519  
G01 X1.6383  Y2.5530  
G01 X1.6391  Y2.5575  
G01 X1.6413  Y2.5627  
G01 X1.6510  Y2.5861  
G01 X1.6510  Y2.6119  
G01 X1.6391  Y2.6405  
G01 X1.6380  Y2.6461  
G01 X1.6380  Y2.6519  
G01 X1.6383  Y2.6530  
G01 X1.6391  Y2.6575  
G01 X1.6413  Y2.6627  
G01 X1.6510  Y2.6861  
G01 X1.6510  Y2.7119  
G01 X1.6411  Y2.7358  
G01 X1.6228  Y2.7541  
G01 X1.5989  Y2.7640  
G01 X1.5131  Y2.7640  
G01 X1.4892  Y2.7541  
G01 X1.4709  Y2.7358  
G01 X1.4610  Y2.7119  
G01 X1.4610  Y2.6861  
G01 X1.4707  Y2.6627  
G01 X1.4729  Y2.6575  
G01 X1.4738  Y2.6529  
G01 X1.4740  Y2.6519  
G01 X1.4740  Y2.6461  
G01 X1.4729  Y2.6405  
G01 X1.4610  Y2.6119  
G01 X1.4610  Y2.5861  
G01 X1.4707  Y2.5627  
G01 X1.4729  Y2.5575  
G01 X1.4738  Y2.5529  
G01 X1.4740  Y2.5519  
G01 X1.4740  Y2.5461  
G01 X1.4729  Y2.5405  
G01 X1.4610  Y2.5119  
G01 X1.4610  Y2.4861  
G01 X1.4709  Y2.4622  
G01 X1.4892  Y2.4439  
G01 X1.5131  Y2.4340  
G01 X1.5989  Y2.4340  
G01 X1.6228  Y2.4439  
G01 X1.6411  Y2.4622  
G00 Z0.1000  
G00 X1.6249  Y2.4658  
G01 Z-0.0070 F10    
G01 X1.6192  Y2.4601  F20    
G01 X1.6127  Y2.4554  
G01 X1.6056  Y2.4517  
G01 X1.5979  Y2.4493  
G01 X1.5900  Y2.4480  
G01 X1.5220  Y2.4480  
G01 X1.5141  Y2.4493  
G01 X1.5064  Y2.4517  
G01 X1.4993  Y2.4554  
G01 X1.4928  Y2.4601  
G01 X1.4871  Y2.4658  
G01 X1.4824  Y2.4723  
G01 X1.4787  Y2.4794  
G01 X1.4763  Y2.4871  
G01 X1.4750  Y2.4950  
G01 X1.4750  Y2.5030  
G01 X1.4763  Y2.5109  
G01 X1.4787  Y2.5186  
G01 X1.4824  Y2.5257  
G01 X1.4871  Y2.5322  
G01 X1.4928  Y2.5379  
G01 X1.4993  Y2.5426  
G01 X1.5064  Y2.5463  
G01 X1.5141  Y2.5487  
G01 X1.5157  Y2.5490  
G01 X1.5141  Y2.5493  
G01 X1.5064  Y2.5517  
G01 X1.4993  Y2.5554  
G01 X1.4928  Y2.5601  
G01 X1.4871  Y2.5658  
G01 X1.4824  Y2.5723  
G01 X1.4787  Y2.5794  
G01 X1.4763  Y2.5871  
G01 X1.4750  Y2.5950  
G01 X1.4750  Y2.6030  
G01 X1.4763  Y2.6109  
G01 X1.4787  Y2.6186  
G01 X1.4824  Y2.6257  
G01 X1.4871  Y2.6322  
G01 X1.4928  Y2.6379  
G01 X1.4993  Y2.6426  
G01 X1.5064  Y2.6463  
G01 X1.5141  Y2.6487  
G01 X1.5157  Y2.6490  
G01 X1.5141  Y2.6493  
G01 X1.5064  Y2.6517  
G01 X1.4993  Y2.6554  
G01 X1.4928  Y2.6601  
G01 X1.4871  Y2.6658  
G01 X1.4824  Y2.6723  
G01 X1.4787  Y2.6794  
G01 X1.4763  Y2.6871  
G01 X1.4750  Y2.6950  
G01 X1.4750  Y2.7030  
G01 X1.4763  Y2.7109  
G01 X1.4787  Y2.7186  
G01 X1.4824  Y2.7257  
G01 X1.4871  Y2.7322  
G01 X1.4928  Y2.7379  
G01 X1.4993  Y2.7426  
G01 X1.5064  Y2.7463  
G01 X1.5141  Y2.7487  
G01 X1.5220  Y2.7500  
G01 X1.5900  Y2.7500  
G01 X1.5979  Y2.7487  
G01 X1.6056  Y2.7463  
G01 X1.6127  Y2.7426  
G01 X1.6192  Y2.7379  
G01 X1.6249  Y2.7322  
G01 X1.6296  Y2.7257  
G01 X1.6333  Y2.7186  
G01 X1.6357  Y2.7109  
G01 X1.6370  Y2.7030  
G01 X1.6370  Y2.6950  
G01 X1.6357  Y2.6871  
G01 X1.6333  Y2.6794  
G01 X1.6296  Y2.6723  
G01 X1.6249  Y2.6658  
G01 X1.6192  Y2.6601  
G01 X1.6127  Y2.6554  
G01 X1.6056  Y2.6517  
G01 X1.5979  Y2.6493  
G01 X1.5963  Y2.6490  
G01 X1.5979  Y2.6487  
G01 X1.6056  Y2.6463  
G01 X1.6127  Y2.6426  
G01 X1.6192  Y2.6379  
G01 X1.6249  Y2.6322  
G01 X1.6296  Y2.6257  
G01 X1.6333  Y2.6186  
G01 X1.6357  Y2.6109  
G01 X1.6370  Y2.6030  
G01 X1.6370  Y2.5950  
G01 X1.6357  Y2.5871  
G01 X1.6333  Y2.5794  
G01 X1.6296  Y2.5723  
G01 X1.6249  Y2.5658  
G01 X1.6192  Y2.5601  
G01 X1.6127  Y2.5554  
G01 X1.6056  Y2.5517  
G01 X1.5979  Y2.5493  
G01 X1.5963  Y2.5490  
G01 X1.5979  Y2.5487  
G01 X1.6056  Y2.5463  
G01 X1.6127  Y2.5426  
G01 X1.6192  Y2.5379  
G01 X1.6249  Y2.5322  
G01 X1.6296  Y2.5257  
G01 X1.6333  Y2.5186  
G01 X1.6357  Y2.5109  
G01 X1.6370  Y2.5030  
G01 X1.6370  Y2.4950  
G01 X1.6357  Y2.4871  
G01 X1.6333  Y2.4794  
G01 X1.6296  Y2.4723  
G01 X1.6249  Y2.4658  
G00 Z0.1000  
G00 X1.3453  Y2.3580  
G01 Z-0.0070 F10    
G01 X1.2947  Y2.3580  F20    
G01 X1.2590  Y2.3223  
G01 X1.2590  Y2.2717  
G01 X1.2947  Y2.2360  
G01 X1.3453  Y2.2360  
G01 X1.3810  Y2.2717  
G01 X1.3810  Y2.3223  
G01 X1.3453  Y2.3580  
G00 Z0.1000  
G00 X1.3395  Y2.3440  
G01 Z-0.0070 F10    
G01 X1.3670  Y2.3165  F20    
G01 X1.3670  Y2.2775  
G01 X1.3395  Y2.2500  
G01 X1.3005  Y2.2500  
G01 X1.2730  Y2.2775  
G01 X1.2730  Y2.3165  
G01 X1.3005  Y2.3440  
G01 X1.3395  Y2.3440  
G00 Z0.1000  
G00 X1.1526  Y2.2447  
G01 Z-0.0070 F10    
G01 X1.1301  Y2.2540  F20    
G01 X1.0539  Y2.2540  
G01 X1.0314  Y2.2447  
G01 X1.0143  Y2.2276  
G01 X1.0050  Y2.2051  
G01 X1.0050  Y2.1809  
G01 X1.0150  Y2.1567  
G01 X1.0172  Y2.1515  
G01 X1.0172  Y2.1511  
G01 X1.0183  Y2.1459  
G01 X1.0183  Y2.1401  
G01 X1.0172  Y2.1345  
G01 X1.0050  Y2.1051  
G01 X1.0050  Y2.0809  
G01 X1.0150  Y2.0567  
G01 X1.0172  Y2.0515  
G01 X1.0172  Y2.0511  
G01 X1.0183  Y2.0459  
G01 X1.0183  Y2.0401  
G01 X1.0172  Y2.0345  
G01 X1.0050  Y2.0051  
G01 X1.0050  Y1.9809  
G01 X1.0150  Y1.9567  
G01 X1.0172  Y1.9515  
G01 X1.0172  Y1.9511  
G01 X1.0183  Y1.9459  
G01 X1.0183  Y1.9401  
G01 X1.0172  Y1.9345  
G01 X1.0050  Y1.9051  
G01 X1.0050  Y1.8809  
G01 X1.0150  Y1.8567  
G01 X1.0172  Y1.8515  
G01 X1.0172  Y1.8511  
G01 X1.0183  Y1.8459  
G01 X1.0183  Y1.8401  
G01 X1.0172  Y1.8345  
G01 X1.0050  Y1.8051  
G01 X1.0050  Y1.7809  
G01 X1.0172  Y1.7515  
G01 X1.0182  Y1.7462  
G01 X1.0183  Y1.7459  
G01 X1.0183  Y1.7401  
G01 X1.0172  Y1.7345  
G01 X1.0171  Y1.7344  
G01 X1.0150  Y1.7293  
G01 X1.0050  Y1.7051  
G01 X1.0050  Y1.6809  
G01 X1.0150  Y1.6567  
G01 X1.0172  Y1.6515  
G01 X1.0172  Y1.6511  
G01 X1.0183  Y1.6459  
G01 X1.0183  Y1.6401  
G01 X1.0172  Y1.6345  
G01 X1.0050  Y1.6051  
G01 X1.0050  Y1.5809  
G01 X1.0143  Y1.5584  
G01 X1.0314  Y1.5413  
G01 X1.0539  Y1.5320  
G01 X1.1301  Y1.5320  
G01 X1.1526  Y1.5413  
G01 X1.1697  Y1.5584  
G01 X1.1790  Y1.5809  
G01 X1.1790  Y1.6051  
G01 X1.1668  Y1.6345  
G01 X1.1658  Y1.6398  
G01 X1.1657  Y1.6401  
G01 X1.1657  Y1.6459  
G01 X1.1668  Y1.6515  
G01 X1.1669  Y1.6516  
G01 X1.1690  Y1.6567  
G01 X1.1790  Y1.6809  
G01 X1.1790  Y1.7051  
G01 X1.1690  Y1.7293  
G01 X1.1668  Y1.7345  
G01 X1.1668  Y1.7349  
G01 X1.1657  Y1.7401  
G01 X1.1657  Y1.7459  
G01 X1.1668  Y1.7515  
G01 X1.1790  Y1.7809  
G01 X1.1790  Y1.8051  
G01 X1.1668  Y1.8345  
G01 X1.1658  Y1.8398  
G01 X1.1657  Y1.8401  
G01 X1.1657  Y1.8459  
G01 X1.1668  Y1.8515  
G01 X1.1669  Y1.8516  
G01 X1.1690  Y1.8567  
G01 X1.1790  Y1.8809  
G01 X1.1790  Y1.9051  
G01 X1.1668  Y1.9345  
G01 X1.1658  Y1.9398  
G01 X1.1657  Y1.9401  
G01 X1.1657  Y1.9459  
G01 X1.1668  Y1.9515  
G01 X1.1669  Y1.9516  
G01 X1.1690  Y1.9567  
G01 X1.1790  Y1.9809  
G01 X1.1790  Y2.0051  
G01 X1.1668  Y2.0345  
G01 X1.1658  Y2.0398  
G01 X1.1657  Y2.0401  
G01 X1.1657  Y2.0459  
G01 X1.1668  Y2.0515  
G01 X1.1669  Y2.0516  
G01 X1.1690  Y2.0567  
G01 X1.1790  Y2.0809  
G01 X1.1790  Y2.1051  
G01 X1.1668  Y2.1345  
G01 X1.1658  Y2.1398  
G01 X1.1657  Y2.1401  
G01 X1.1657  Y2.1459  
G01 X1.1668  Y2.1515  
G01 X1.1669  Y2.1516  
G01 X1.1690  Y2.1567  
G01 X1.1790  Y2.1809  
G01 X1.1790  Y2.2051  
G01 X1.1697  Y2.2276  
G01 X1.1526  Y2.2447  
G00 Z0.1000  
G00 X1.1486  Y2.2288  
G01 Z-0.0070 F10    
G01 X1.1538  Y2.2236  F20    
G01 X1.1582  Y2.2176  
G01 X1.1616  Y2.2110  
G01 X1.1638  Y2.2040  
G01 X1.1650  Y2.1967  
G01 X1.1650  Y2.1893  
G01 X1.1638  Y2.1820  
G01 X1.1616  Y2.1750  
G01 X1.1582  Y2.1684  
G01 X1.1538  Y2.1624  
G01 X1.1486  Y2.1572  
G01 X1.1426  Y2.1528  
G01 X1.1360  Y2.1494  
G01 X1.1290  Y2.1472  
G01 X1.1217  Y2.1460  
G01 X1.0623  Y2.1460  
G01 X1.0550  Y2.1472  
G01 X1.0480  Y2.1494  
G01 X1.0414  Y2.1528  
G01 X1.0354  Y2.1572  
G01 X1.0302  Y2.1624  
G01 X1.0258  Y2.1684  
G01 X1.0224  Y2.1750  
G01 X1.0202  Y2.1820  
G01 X1.0190  Y2.1893  
G01 X1.0190  Y2.1967  
G01 X1.0202  Y2.2040  
G01 X1.0224  Y2.2110  
G01 X1.0258  Y2.2176  
G01 X1.0302  Y2.2236  
G01 X1.0354  Y2.2288  
G01 X1.0414  Y2.2332  
G01 X1.0480  Y2.2366  
G01 X1.0550  Y2.2388  
G01 X1.0623  Y2.2400  
G01 X1.1217  Y2.2400  
G01 X1.1290  Y2.2388  
G01 X1.1360  Y2.2366  
G01 X1.1426  Y2.2332  
G01 X1.1486  Y2.2288  
G00 Z0.1000  
G00 X1.1486  Y2.1288  
G01 Z-0.0070 F10    
G01 X1.1538  Y2.1236  F20    
G01 X1.1582  Y2.1176  
G01 X1.1616  Y2.1110  
G01 X1.1638  Y2.1040  
G01 X1.1650  Y2.0967  
G01 X1.1650  Y2.0893  
G01 X1.1638  Y2.0820  
G01 X1.1616  Y2.0750  
G01 X1.1582  Y2.0684  
G01 X1.1538  Y2.0624  
G01 X1.1486  Y2.0572  
G01 X1.1426  Y2.0528  
G01 X1.1360  Y2.0494  
G01 X1.1290  Y2.0472  
G01 X1.1217  Y2.0460  
G01 X1.0623  Y2.0460  
G01 X1.0550  Y2.0472  
G01 X1.0480  Y2.0494  
G01 X1.0414  Y2.0528  
G01 X1.0354  Y2.0572  
G01 X1.0302  Y2.0624  
G01 X1.0258  Y2.0684  
G01 X1.0224  Y2.0750  
G01 X1.0202  Y2.0820  
G01 X1.0190  Y2.0893  
G01 X1.0190  Y2.0967  
G01 X1.0202  Y2.1040  
G01 X1.0224  Y2.1110  
G01 X1.0258  Y2.1176  
G01 X1.0302  Y2.1236  
G01 X1.0354  Y2.1288  
G01 X1.0414  Y2.1332  
G01 X1.0480  Y2.1366  
G01 X1.0550  Y2.1388  
G01 X1.0623  Y2.1400  
G01 X1.1217  Y2.1400  
G01 X1.1290  Y2.1388  
G01 X1.1360  Y2.1366  
G01 X1.1426  Y2.1332  
G01 X1.1486  Y2.1288  
G00 Z0.1000  
G00 X1.1486  Y2.0288  
G01 Z-0.0070 F10    
G01 X1.1538  Y2.0236  F20    
G01 X1.1582  Y2.0176  
G01 X1.1616  Y2.0110  
G01 X1.1638  Y2.0040  
G01 X1.1650  Y1.9967  
G01 X1.1650  Y1.9893  
G01 X1.1638  Y1.9820  
G01 X1.1616  Y1.9750  
G01 X1.1582  Y1.9684  
G01 X1.1538  Y1.9624  
G01 X1.1486  Y1.9572  
G01 X1.1426  Y1.9528  
G01 X1.1360  Y1.9494  
G01 X1.1290  Y1.9472  
G01 X1.1217  Y1.9460  
G01 X1.0623  Y1.9460  
G01 X1.0550  Y1.9472  
G01 X1.0480  Y1.9494  
G01 X1.0414  Y1.9528  
G01 X1.0354  Y1.9572  
G01 X1.0302  Y1.9624  
G01 X1.0258  Y1.9684  
G01 X1.0224  Y1.9750  
G01 X1.0202  Y1.9820  
G01 X1.0190  Y1.9893  
G01 X1.0190  Y1.9967  
G01 X1.0202  Y2.0040  
G01 X1.0224  Y2.0110  
G01 X1.0258  Y2.0176  
G01 X1.0302  Y2.0236  
G01 X1.0354  Y2.0288  
G01 X1.0414  Y2.0332  
G01 X1.0480  Y2.0366  
G01 X1.0550  Y2.0388  
G01 X1.0623  Y2.0400  
G01 X1.1217  Y2.0400  
G01 X1.1290  Y2.0388  
G01 X1.1360  Y2.0366  
G01 X1.1426  Y2.0332  
G01 X1.1486  Y2.0288  
G00 Z0.1000  
G00 X1.1486  Y1.9288  
G01 Z-0.0070 F10    
G01 X1.1538  Y1.9236  F20    
G01 X1.1582  Y1.9176  
G01 X1.1616  Y1.9110  
G01 X1.1638  Y1.9040  
G01 X1.1650  Y1.8967  
G01 X1.1650  Y1.8893  
G01 X1.1638  Y1.8820  
G01 X1.1616  Y1.8750  
G01 X1.1582  Y1.8684  
G01 X1.1538  Y1.8624  
G01 X1.1486  Y1.8572  
G01 X1.1426  Y1.8528  
G01 X1.1360  Y1.8494  
G01 X1.1290  Y1.8472  
G01 X1.1217  Y1.8460  
G01 X1.0623  Y1.8460  
G01 X1.0550  Y1.8472  
G01 X1.0480  Y1.8494  
G01 X1.0414  Y1.8528  
G01 X1.0354  Y1.8572  
G01 X1.0302  Y1.8624  
G01 X1.0258  Y1.8684  
G01 X1.0224  Y1.8750  
G01 X1.0202  Y1.8820  
G01 X1.0190  Y1.8893  
G01 X1.0190  Y1.8967  
G01 X1.0202  Y1.9040  
G01 X1.0224  Y1.9110  
G01 X1.0258  Y1.9176  
G01 X1.0302  Y1.9236  
G01 X1.0354  Y1.9288  
G01 X1.0414  Y1.9332  
G01 X1.0480  Y1.9366  
G01 X1.0550  Y1.9388  
G01 X1.0623  Y1.9400  
G01 X1.1217  Y1.9400  
G01 X1.1290  Y1.9388  
G01 X1.1360  Y1.9366  
G01 X1.1426  Y1.9332  
G01 X1.1486  Y1.9288  
G00 Z0.1000  
G00 X1.1486  Y1.8288  
G01 Z-0.0070 F10    
G01 X1.1538  Y1.8236  F20    
G01 X1.1582  Y1.8176  
G01 X1.1616  Y1.8110  
G01 X1.1638  Y1.8040  
G01 X1.1650  Y1.7967  
G01 X1.1650  Y1.7893  
G01 X1.1638  Y1.7820  
G01 X1.1616  Y1.7750  
G01 X1.1582  Y1.7684  
G01 X1.1538  Y1.7624  
G01 X1.1486  Y1.7572  
G01 X1.1426  Y1.7528  
G01 X1.1360  Y1.7494  
G01 X1.1290  Y1.7472  
G01 X1.1217  Y1.7460  
G01 X1.0623  Y1.7460  
G01 X1.0550  Y1.7472  
G01 X1.0480  Y1.7494  
G01 X1.0414  Y1.7528  
G01 X1.0354  Y1.7572  
G01 X1.0302  Y1.7624  
G01 X1.0258  Y1.7684  
G01 X1.0224  Y1.7750  
G01 X1.0202  Y1.7820  
G01 X1.0190  Y1.7893  
G01 X1.0190  Y1.7967  
G01 X1.0202  Y1.8040  
G01 X1.0224  Y1.8110  
G01 X1.0258  Y1.8176  
G01 X1.0302  Y1.8236  
G01 X1.0354  Y1.8288  
G01 X1.0414  Y1.8332  
G01 X1.0480  Y1.8366  
G01 X1.0550  Y1.8388  
G01 X1.0623  Y1.8400  
G01 X1.1217  Y1.8400  
G01 X1.1290  Y1.8388  
G01 X1.1360  Y1.8366  
G01 X1.1426  Y1.8332  
G01 X1.1486  Y1.8288  
G00 Z0.1000  
G00 X1.1486  Y1.7288  
G01 Z-0.0070 F10    
G01 X1.1538  Y1.7236  F20    
G01 X1.1582  Y1.7176  
G01 X1.1616  Y1.7110  
G01 X1.1638  Y1.7040  
G01 X1.1650  Y1.6967  
G01 X1.1650  Y1.6893  
G01 X1.1638  Y1.6820  
G01 X1.1616  Y1.6750  
G01 X1.1582  Y1.6684  
G01 X1.1538  Y1.6624  
G01 X1.1486  Y1.6572  
G01 X1.1426  Y1.6528  
G01 X1.1360  Y1.6494  
G01 X1.1290  Y1.6472  
G01 X1.1217  Y1.6460  
G01 X1.0623  Y1.6460  
G01 X1.0550  Y1.6472  
G01 X1.0480  Y1.6494  
G01 X1.0414  Y1.6528  
G01 X1.0354  Y1.6572  
G01 X1.0302  Y1.6624  
G01 X1.0258  Y1.6684  
G01 X1.0224  Y1.6750  
G01 X1.0202  Y1.6820  
G01 X1.0190  Y1.6893  
G01 X1.0190  Y1.6967  
G01 X1.0202  Y1.7040  
G01 X1.0224  Y1.7110  
G01 X1.0258  Y1.7176  
G01 X1.0302  Y1.7236  
G01 X1.0354  Y1.7288  
G01 X1.0414  Y1.7332  
G01 X1.0480  Y1.7366  
G01 X1.0550  Y1.7388  
G01 X1.0623  Y1.7400  
G01 X1.1217  Y1.7400  
G01 X1.1290  Y1.7388  
G01 X1.1360  Y1.7366  
G01 X1.1426  Y1.7332  
G01 X1.1486  Y1.7288  
G00 Z0.1000  
G00 X1.1486  Y1.6288  
G01 Z-0.0070 F10    
G01 X1.1538  Y1.6236  F20    
G01 X1.1582  Y1.6176  
G01 X1.1616  Y1.6110  
G01 X1.1638  Y1.6040  
G01 X1.1650  Y1.5967  
G01 X1.1650  Y1.5893  
G01 X1.1638  Y1.5820  
G01 X1.1616  Y1.5750  
G01 X1.1582  Y1.5684  
G01 X1.1538  Y1.5624  
G01 X1.1486  Y1.5572  
G01 X1.1426  Y1.5528  
G01 X1.1360  Y1.5494  
G01 X1.1290  Y1.5472  
G01 X1.1217  Y1.5460  
G01 X1.0623  Y1.5460  
G01 X1.0550  Y1.5472  
G01 X1.0480  Y1.5494  
G01 X1.0414  Y1.5528  
G01 X1.0354  Y1.5572  
G01 X1.0302  Y1.5624  
G01 X1.0258  Y1.5684  
G01 X1.0224  Y1.5750  
G01 X1.0202  Y1.5820  
G01 X1.0190  Y1.5893  
G01 X1.0190  Y1.5967  
G01 X1.0202  Y1.6040  
G01 X1.0224  Y1.6110  
G01 X1.0258  Y1.6176  
G01 X1.0302  Y1.6236  
G01 X1.0354  Y1.6288  
G01 X1.0414  Y1.6332  
G01 X1.0480  Y1.6366  
G01 X1.0550  Y1.6388  
G01 X1.0623  Y1.6400  
G01 X1.1217  Y1.6400  
G01 X1.1290  Y1.6388  
G01 X1.1360  Y1.6366  
G01 X1.1426  Y1.6332  
G01 X1.1486  Y1.6288  
G00 Z0.1000  
G00 X1.3357  Y1.6440  
G01 Z-0.0070 F10    
G01 X1.3863  Y1.6440  F20    
G01 X1.4220  Y1.6797  
G01 X1.4220  Y1.7303  
G01 X1.3863  Y1.7660  
G01 X1.3357  Y1.7660  
G01 X1.3000  Y1.7303  
G01 X1.3000  Y1.6797  
G01 X1.3357  Y1.6440  
G00 Z0.1000  
G00 X1.3415  Y1.6580  
G01 Z-0.0070 F10    
G01 X1.3140  Y1.6855  F20    
G01 X1.3140  Y1.7245  
G01 X1.3415  Y1.7520  
G01 X1.3805  Y1.7520  
G01 X1.4080  Y1.7245  
G01 X1.4080  Y1.6855  
G01 X1.3805  Y1.6580  
G01 X1.3415  Y1.6580  
G00 Z0.1000  
G00 X0.8690  Y1.6567  
G01 Z-0.0070 F10    
G01 X0.8790  Y1.6809  F20    
G01 X0.8790  Y1.7051  
G01 X0.8668  Y1.7345  
G01 X0.8658  Y1.7398  
G01 X0.8657  Y1.7401  
G01 X0.8657  Y1.7459  
G01 X0.8668  Y1.7515  
G01 X0.8669  Y1.7516  
G01 X0.8690  Y1.7567  
G01 X0.8790  Y1.7809  
G01 X0.8790  Y1.8051  
G01 X0.8690  Y1.8293  
G01 X0.8668  Y1.8345  
G01 X0.8668  Y1.8349  
G01 X0.8657  Y1.8401  
G01 X0.8657  Y1.8459  
G01 X0.8668  Y1.8515  
G01 X0.8790  Y1.8809  
G01 X0.8790  Y1.9051  
G01 X0.8690  Y1.9293  
G01 X0.8668  Y1.9345  
G01 X0.8668  Y1.9349  
G01 X0.8657  Y1.9401  
G01 X0.8657  Y1.9459  
G01 X0.8668  Y1.9515  
G01 X0.8790  Y1.9809  
G01 X0.8790  Y2.0051  
G01 X0.8690  Y2.0293  
G01 X0.8668  Y2.0345  
G01 X0.8668  Y2.0349  
G01 X0.8657  Y2.0401  
G01 X0.8657  Y2.0459  
G01 X0.8668  Y2.0515  
G01 X0.8790  Y2.0809  
G01 X0.8790  Y2.1051  
G01 X0.8690  Y2.1293  
G01 X0.8668  Y2.1345  
G01 X0.8668  Y2.1349  
G01 X0.8657  Y2.1401  
G01 X0.8657  Y2.1459  
G01 X0.8668  Y2.1515  
G01 X0.8790  Y2.1809  
G01 X0.8790  Y2.2051  
G01 X0.8697  Y2.2276  
G01 X0.8526  Y2.2447  
G01 X0.8301  Y2.2540  
G01 X0.7539  Y2.2540  
G01 X0.7314  Y2.2447  
G01 X0.7143  Y2.2276  
G01 X0.7050  Y2.2051  
G01 X0.7050  Y2.1809  
G01 X0.7172  Y2.1515  
G01 X0.7182  Y2.1462  
G01 X0.7183  Y2.1459  
G01 X0.7183  Y2.1401  
G01 X0.7172  Y2.1345  
G01 X0.7171  Y2.1344  
G01 X0.7150  Y2.1293  
G01 X0.7050  Y2.1051  
G01 X0.7050  Y2.0809  
G01 X0.7172  Y2.0515  
G01 X0.7182  Y2.0462  
G01 X0.7183  Y2.0459  
G01 X0.7183  Y2.0401  
G01 X0.7172  Y2.0345  
G01 X0.7171  Y2.0344  
G01 X0.7150  Y2.0293  
G01 X0.7050  Y2.0051  
G01 X0.7050  Y1.9809  
G01 X0.7172  Y1.9515  
G01 X0.7182  Y1.9462  
G01 X0.7183  Y1.9459  
G01 X0.7183  Y1.9401  
G01 X0.7172  Y1.9345  
G01 X0.7171  Y1.9344  
G01 X0.7150  Y1.9293  
G01 X0.7050  Y1.9051  
G01 X0.7050  Y1.8809  
G01 X0.7172  Y1.8515  
G01 X0.7182  Y1.8462  
G01 X0.7183  Y1.8459  
G01 X0.7183  Y1.8401  
G01 X0.7172  Y1.8345  
G01 X0.7171  Y1.8344  
G01 X0.7150  Y1.8293  
G01 X0.7050  Y1.8051  
G01 X0.7050  Y1.7809  
G01 X0.7150  Y1.7567  
G01 X0.7172  Y1.7515  
G01 X0.7172  Y1.7511  
G01 X0.7183  Y1.7459  
G01 X0.7183  Y1.7401  
G01 X0.7172  Y1.7345  
G01 X0.7050  Y1.7051  
G01 X0.7050  Y1.6809  
G01 X0.7150  Y1.6567  
G01 X0.7172  Y1.6515  
G01 X0.7172  Y1.6511  
G01 X0.7183  Y1.6459  
G01 X0.7183  Y1.6401  
G01 X0.7172  Y1.6345  
G01 X0.7050  Y1.6051  
G01 X0.7050  Y1.5809  
G01 X0.7143  Y1.5584  
G01 X0.7314  Y1.5413  
G01 X0.7539  Y1.5320  
G01 X0.8301  Y1.5320  
G01 X0.8526  Y1.5413  
G01 X0.8697  Y1.5584  
G01 X0.8790  Y1.5809  
G01 X0.8790  Y1.6051  
G01 X0.8668  Y1.6345  
G01 X0.8658  Y1.6398  
G01 X0.8657  Y1.6401  
G01 X0.8657  Y1.6459  
G01 X0.8668  Y1.6515  
G01 X0.8669  Y1.6516  
G01 X0.8690  Y1.6567  
G00 Z0.1000  
G00 X0.8486  Y1.6572  
G01 Z-0.0070 F10    
G01 X0.8426  Y1.6528  F20    
G01 X0.8360  Y1.6494  
G01 X0.8290  Y1.6472  
G01 X0.8217  Y1.6460  
G01 X0.7623  Y1.6460  
G01 X0.7550  Y1.6472  
G01 X0.7480  Y1.6494  
G01 X0.7414  Y1.6528  
G01 X0.7354  Y1.6572  
G01 X0.7302  Y1.6624  
G01 X0.7258  Y1.6684  
G01 X0.7224  Y1.6750  
G01 X0.7202  Y1.6820  
G01 X0.7190  Y1.6893  
G01 X0.7190  Y1.6967  
G01 X0.7202  Y1.7040  
G01 X0.7224  Y1.7110  
G01 X0.7258  Y1.7176  
G01 X0.7302  Y1.7236  
G01 X0.7354  Y1.7288  
G01 X0.7414  Y1.7332  
G01 X0.7480  Y1.7366  
G01 X0.7550  Y1.7388  
G01 X0.7623  Y1.7400  
G01 X0.8217  Y1.7400  
G01 X0.8290  Y1.7388  
G01 X0.8360  Y1.7366  
G01 X0.8426  Y1.7332  
G01 X0.8486  Y1.7288  
G01 X0.8538  Y1.7236  
G01 X0.8582  Y1.7176  
G01 X0.8616  Y1.7110  
G01 X0.8638  Y1.7040  
G01 X0.8650  Y1.6967  
G01 X0.8650  Y1.6893  
G01 X0.8638  Y1.6820  
G01 X0.8616  Y1.6750  
G01 X0.8582  Y1.6684  
G01 X0.8538  Y1.6624  
G01 X0.8486  Y1.6572  
G00 Z0.1000  
G00 X0.8486  Y1.6288  
G01 Z-0.0070 F10    
G01 X0.8538  Y1.6236  F20    
G01 X0.8582  Y1.6176  
G01 X0.8616  Y1.6110  
G01 X0.8638  Y1.6040  
G01 X0.8650  Y1.5967  
G01 X0.8650  Y1.5893  
G01 X0.8638  Y1.5820  
G01 X0.8616  Y1.5750  
G01 X0.8582  Y1.5684  
G01 X0.8538  Y1.5624  
G01 X0.8486  Y1.5572  
G01 X0.8426  Y1.5528  
G01 X0.8360  Y1.5494  
G01 X0.8290  Y1.5472  
G01 X0.8217  Y1.5460  
G01 X0.7623  Y1.5460  
G01 X0.7550  Y1.5472  
G01 X0.7480  Y1.5494  
G01 X0.7414  Y1.5528  
G01 X0.7354  Y1.5572  
G01 X0.7302  Y1.5624  
G01 X0.7258  Y1.5684  
G01 X0.7224  Y1.5750  
G01 X0.7202  Y1.5820  
G01 X0.7190  Y1.5893  
G01 X0.7190  Y1.5967  
G01 X0.7202  Y1.6040  
G01 X0.7224  Y1.6110  
G01 X0.7258  Y1.6176  
G01 X0.7302  Y1.6236  
G01 X0.7354  Y1.6288  
G01 X0.7414  Y1.6332  
G01 X0.7480  Y1.6366  
G01 X0.7550  Y1.6388  
G01 X0.7623  Y1.6400  
G01 X0.8217  Y1.6400  
G01 X0.8290  Y1.6388  
G01 X0.8360  Y1.6366  
G01 X0.8426  Y1.6332  
G01 X0.8486  Y1.6288  
G00 Z0.1000  
G00 X0.8486  Y1.7572  
G01 Z-0.0070 F10    
G01 X0.8426  Y1.7528  F20    
G01 X0.8360  Y1.7494  
G01 X0.8290  Y1.7472  
G01 X0.8217  Y1.7460  
G01 X0.7623  Y1.7460  
G01 X0.7550  Y1.7472  
G01 X0.7480  Y1.7494  
G01 X0.7414  Y1.7528  
G01 X0.7354  Y1.7572  
G01 X0.7302  Y1.7624  
G01 X0.7258  Y1.7684  
G01 X0.7224  Y1.7750  
G01 X0.7202  Y1.7820  
G01 X0.7190  Y1.7893  
G01 X0.7190  Y1.7967  
G01 X0.7202  Y1.8040  
G01 X0.7224  Y1.8110  
G01 X0.7258  Y1.8176  
G01 X0.7302  Y1.8236  
G01 X0.7354  Y1.8288  
G01 X0.7414  Y1.8332  
G01 X0.7480  Y1.8366  
G01 X0.7550  Y1.8388  
G01 X0.7623  Y1.8400  
G01 X0.8217  Y1.8400  
G01 X0.8290  Y1.8388  
G01 X0.8360  Y1.8366  
G01 X0.8426  Y1.8332  
G01 X0.8486  Y1.8288  
G01 X0.8538  Y1.8236  
G01 X0.8582  Y1.8176  
G01 X0.8616  Y1.8110  
G01 X0.8638  Y1.8040  
G01 X0.8650  Y1.7967  
G01 X0.8650  Y1.7893  
G01 X0.8638  Y1.7820  
G01 X0.8616  Y1.7750  
G01 X0.8582  Y1.7684  
G01 X0.8538  Y1.7624  
G01 X0.8486  Y1.7572  
G00 Z0.1000  
G00 X0.8486  Y1.8572  
G01 Z-0.0070 F10    
G01 X0.8426  Y1.8528  F20    
G01 X0.8360  Y1.8494  
G01 X0.8290  Y1.8472  
G01 X0.8217  Y1.8460  
G01 X0.7623  Y1.8460  
G01 X0.7550  Y1.8472  
G01 X0.7480  Y1.8494  
G01 X0.7414  Y1.8528  
G01 X0.7354  Y1.8572  
G01 X0.7302  Y1.8624  
G01 X0.7258  Y1.8684  
G01 X0.7224  Y1.8750  
G01 X0.7202  Y1.8820  
G01 X0.7190  Y1.8893  
G01 X0.7190  Y1.8967  
G01 X0.7202  Y1.9040  
G01 X0.7224  Y1.9110  
G01 X0.7258  Y1.9176  
G01 X0.7302  Y1.9236  
G01 X0.7354  Y1.9288  
G01 X0.7414  Y1.9332  
G01 X0.7480  Y1.9366  
G01 X0.7550  Y1.9388  
G01 X0.7623  Y1.9400  
G01 X0.8217  Y1.9400  
G01 X0.8290  Y1.9388  
G01 X0.8360  Y1.9366  
G01 X0.8426  Y1.9332  
G01 X0.8486  Y1.9288  
G01 X0.8538  Y1.9236  
G01 X0.8582  Y1.9176  
G01 X0.8616  Y1.9110  
G01 X0.8638  Y1.9040  
G01 X0.8650  Y1.8967  
G01 X0.8650  Y1.8893  
G01 X0.8638  Y1.8820  
G01 X0.8616  Y1.8750  
G01 X0.8582  Y1.8684  
G01 X0.8538  Y1.8624  
G01 X0.8486  Y1.8572  
G00 Z0.1000  
G00 X0.8486  Y1.9572  
G01 Z-0.0070 F10    
G01 X0.8426  Y1.9528  F20    
G01 X0.8360  Y1.9494  
G01 X0.8290  Y1.9472  
G01 X0.8217  Y1.9460  
G01 X0.7623  Y1.9460  
G01 X0.7550  Y1.9472  
G01 X0.7480  Y1.9494  
G01 X0.7414  Y1.9528  
G01 X0.7354  Y1.9572  
G01 X0.7302  Y1.9624  
G01 X0.7258  Y1.9684  
G01 X0.7224  Y1.9750  
G01 X0.7202  Y1.9820  
G01 X0.7190  Y1.9893  
G01 X0.7190  Y1.9967  
G01 X0.7202  Y2.0040  
G01 X0.7224  Y2.0110  
G01 X0.7258  Y2.0176  
G01 X0.7302  Y2.0236  
G01 X0.7354  Y2.0288  
G01 X0.7414  Y2.0332  
G01 X0.7480  Y2.0366  
G01 X0.7550  Y2.0388  
G01 X0.7623  Y2.0400  
G01 X0.8217  Y2.0400  
G01 X0.8290  Y2.0388  
G01 X0.8360  Y2.0366  
G01 X0.8426  Y2.0332  
G01 X0.8486  Y2.0288  
G01 X0.8538  Y2.0236  
G01 X0.8582  Y2.0176  
G01 X0.8616  Y2.0110  
G01 X0.8638  Y2.0040  
G01 X0.8650  Y1.9967  
G01 X0.8650  Y1.9893  
G01 X0.8638  Y1.9820  
G01 X0.8616  Y1.9750  
G01 X0.8582  Y1.9684  
G01 X0.8538  Y1.9624  
G01 X0.8486  Y1.9572  
G00 Z0.1000  
G00 X0.8486  Y2.0572  
G01 Z-0.0070 F10    
G01 X0.8426  Y2.0528  F20    
G01 X0.8360  Y2.0494  
G01 X0.8290  Y2.0472  
G01 X0.8217  Y2.0460  
G01 X0.7623  Y2.0460  
G01 X0.7550  Y2.0472  
G01 X0.7480  Y2.0494  
G01 X0.7414  Y2.0528  
G01 X0.7354  Y2.0572  
G01 X0.7302  Y2.0624  
G01 X0.7258  Y2.0684  
G01 X0.7224  Y2.0750  
G01 X0.7202  Y2.0820  
G01 X0.7190  Y2.0893  
G01 X0.7190  Y2.0967  
G01 X0.7202  Y2.1040  
G01 X0.7224  Y2.1110  
G01 X0.7258  Y2.1176  
G01 X0.7302  Y2.1236  
G01 X0.7354  Y2.1288  
G01 X0.7414  Y2.1332  
G01 X0.7480  Y2.1366  
G01 X0.7550  Y2.1388  
G01 X0.7623  Y2.1400  
G01 X0.8217  Y2.1400  
G01 X0.8290  Y2.1388  
G01 X0.8360  Y2.1366  
G01 X0.8426  Y2.1332  
G01 X0.8486  Y2.1288  
G01 X0.8538  Y2.1236  
G01 X0.8582  Y2.1176  
G01 X0.8616  Y2.1110  
G01 X0.8638  Y2.1040  
G01 X0.8650  Y2.0967  
G01 X0.8650  Y2.0893  
G01 X0.8638  Y2.0820  
G01 X0.8616  Y2.0750  
G01 X0.8582  Y2.0684  
G01 X0.8538  Y2.0624  
G01 X0.8486  Y2.0572  
G00 Z0.1000  
G00 X0.8486  Y2.1572  
G01 Z-0.0070 F10    
G01 X0.8426  Y2.1528  F20    
G01 X0.8360  Y2.1494  
G01 X0.8290  Y2.1472  
G01 X0.8217  Y2.1460  
G01 X0.7623  Y2.1460  
G01 X0.7550  Y2.1472  
G01 X0.7480  Y2.1494  
G01 X0.7414  Y2.1528  
G01 X0.7354  Y2.1572  
G01 X0.7302  Y2.1624  
G01 X0.7258  Y2.1684  
G01 X0.7224  Y2.1750  
G01 X0.7202  Y2.1820  
G01 X0.7190  Y2.1893  
G01 X0.7190  Y2.1967  
G01 X0.7202  Y2.2040  
G01 X0.7224  Y2.2110  
G01 X0.7258  Y2.2176  
G01 X0.7302  Y2.2236  
G01 X0.7354  Y2.2288  
G01 X0.7414  Y2.2332  
G01 X0.7480  Y2.2366  
G01 X0.7550  Y2.2388  
G01 X0.7623  Y2.2400  
G01 X0.8217  Y2.2400  
G01 X0.8290  Y2.2388  
G01 X0.8360  Y2.2366  
G01 X0.8426  Y2.2332  
G01 X0.8486  Y2.2288  
G01 X0.8538  Y2.2236  
G01 X0.8582  Y2.2176  
G01 X0.8616  Y2.2110  
G01 X0.8638  Y2.2040  
G01 X0.8650  Y2.1967  
G01 X0.8650  Y2.1893  
G01 X0.8638  Y2.1820  
G01 X0.8616  Y2.1750  
G01 X0.8582  Y2.1684  
G01 X0.8538  Y2.1624  
G01 X0.8486  Y2.1572  
G00 Z0.1000  
G00 X0.5650  Y2.1929  
G01 Z-0.0070 F10    
G01 X0.5650  Y2.2451  F20    
G01 X0.5281  Y2.2820  
G01 X0.4759  Y2.2820  
G01 X0.4390  Y2.2451  
G01 X0.4390  Y2.1929  
G01 X0.4759  Y2.1560  
G01 X0.5281  Y2.1560  
G01 X0.5650  Y2.1929  
G00 Z0.1000  
G00 X0.5510  Y2.1987  
G01 Z-0.0070 F10    
G01 X0.5223  Y2.1700  F20    
G01 X0.4817  Y2.1700  
G01 X0.4530  Y2.1987  
G01 X0.4530  Y2.2393  
G01 X0.4817  Y2.2680  
G01 X0.5223  Y2.2680  
G01 X0.5510  Y2.2393  
G01 X0.5510  Y2.1987  
G00 Z0.1000  
G00 X0.5281  Y1.9820  
G01 Z-0.0070 F10    
G01 X0.4759  Y1.9820  F20    
G01 X0.4390  Y1.9451  
G01 X0.4390  Y1.8929  
G01 X0.4759  Y1.8560  
G01 X0.5281  Y1.8560  
G01 X0.5650  Y1.8929  
G01 X0.5650  Y1.9451  
G01 X0.5281  Y1.9820  
G00 Z0.1000  
G00 X0.5223  Y1.9680  
G01 Z-0.0070 F10    
G01 X0.5510  Y1.9393  F20    
G01 X0.5510  Y1.8987  
G01 X0.5223  Y1.8700  
G01 X0.4817  Y1.8700  
G01 X0.4530  Y1.8987  
G01 X0.4530  Y1.9393  
G01 X0.4817  Y1.9680  
G01 X0.5223  Y1.9680  
G00 Z0.1000  
G00 X0.2830  Y1.9769  
G01 Z-0.0070 F10    
G01 X0.2830  Y2.0011  F20    
G01 X0.2708  Y2.0305  
G01 X0.2698  Y2.0358  
G01 X0.2697  Y2.0361  
G01 X0.2697  Y2.0419  
G01 X0.2708  Y2.0475  
G01 X0.2709  Y2.0476  
G01 X0.2730  Y2.0527  
G01 X0.2830  Y2.0769  
G01 X0.2830  Y2.1011  
G01 X0.2730  Y2.1253  
G01 X0.2708  Y2.1305  
G01 X0.2708  Y2.1309  
G01 X0.2697  Y2.1361  
G01 X0.2697  Y2.1419  
G01 X0.2708  Y2.1475  
G01 X0.2830  Y2.1769  
G01 X0.2830  Y2.2011  
G01 X0.2737  Y2.2236  
G01 X0.2566  Y2.2407  
G01 X0.2341  Y2.2500  
G01 X0.1579  Y2.2500  
G01 X0.1354  Y2.2407  
G01 X0.1183  Y2.2236  
G01 X0.1090  Y2.2011  
G01 X0.1090  Y2.1769  
G01 X0.1212  Y2.1475  
G01 X0.1222  Y2.1422  
G01 X0.1223  Y2.1419  
G01 X0.1223  Y2.1361  
G01 X0.1212  Y2.1305  
G01 X0.1211  Y2.1304  
G01 X0.1190  Y2.1253  
G01 X0.1090  Y2.1011  
G01 X0.1090  Y2.0769  
G01 X0.1190  Y2.0527  
G01 X0.1212  Y2.0475  
G01 X0.1212  Y2.0471  
G01 X0.1223  Y2.0419  
G01 X0.1223  Y2.0361  
G01 X0.1212  Y2.0305  
G01 X0.1090  Y2.0011  
G01 X0.1090  Y1.9769  
G01 X0.1183  Y1.9544  
G01 X0.1354  Y1.9373  
G01 X0.1579  Y1.9280  
G01 X0.2341  Y1.9280  
G01 X0.2566  Y1.9373  
G01 X0.2737  Y1.9544  
G01 X0.2830  Y1.9769  
G00 Z0.1000  
G00 X0.2678  Y1.9780  
G01 Z-0.0070 F10    
G01 X0.2656  Y1.9710  F20    
G01 X0.2622  Y1.9644  
G01 X0.2578  Y1.9584  
G01 X0.2526  Y1.9532  
G01 X0.2466  Y1.9488  
G01 X0.2400  Y1.9454  
G01 X0.2330  Y1.9432  
G01 X0.2257  Y1.9420  
G01 X0.1663  Y1.9420  
G01 X0.1590  Y1.9432  
G01 X0.1520  Y1.9454  
G01 X0.1454  Y1.9488  
G01 X0.1394  Y1.9532  
G01 X0.1342  Y1.9584  
G01 X0.1298  Y1.9644  
G01 X0.1264  Y1.9710  
G01 X0.1242  Y1.9780  
G01 X0.1230  Y1.9853  
G01 X0.1230  Y1.9927  
G01 X0.1242  Y2.0000  
G01 X0.1264  Y2.0070  
G01 X0.1298  Y2.0136  
G01 X0.1342  Y2.0196  
G01 X0.1394  Y2.0248  
G01 X0.1454  Y2.0292  
G01 X0.1520  Y2.0326  
G01 X0.1590  Y2.0348  
G01 X0.1663  Y2.0360  
G01 X0.2257  Y2.0360  
G01 X0.2330  Y2.0348  
G01 X0.2400  Y2.0326  
G01 X0.2466  Y2.0292  
G01 X0.2526  Y2.0248  
G01 X0.2578  Y2.0196  
G01 X0.2622  Y2.0136  
G01 X0.2656  Y2.0070  
G01 X0.2678  Y2.0000  
G01 X0.2690  Y1.9927  
G01 X0.2690  Y1.9853  
G01 X0.2678  Y1.9780  
G00 Z0.1000  
G00 X0.2526  Y2.0532  
G01 Z-0.0070 F10    
G01 X0.2466  Y2.0488  F20    
G01 X0.2400  Y2.0454  
G01 X0.2330  Y2.0432  
G01 X0.2257  Y2.0420  
G01 X0.1663  Y2.0420  
G01 X0.1590  Y2.0432  
G01 X0.1520  Y2.0454  
G01 X0.1454  Y2.0488  
G01 X0.1394  Y2.0532  
G01 X0.1342  Y2.0584  
G01 X0.1298  Y2.0644  
G01 X0.1264  Y2.0710  
G01 X0.1242  Y2.0780  
G01 X0.1230  Y2.0853  
G01 X0.1230  Y2.0927  
G01 X0.1242  Y2.1000  
G01 X0.1264  Y2.1070  
G01 X0.1298  Y2.1136  
G01 X0.1342  Y2.1196  
G01 X0.1394  Y2.1248  
G01 X0.1454  Y2.1292  
G01 X0.1520  Y2.1326  
G01 X0.1590  Y2.1348  
G01 X0.1663  Y2.1360  
G01 X0.2257  Y2.1360  
G01 X0.2330  Y2.1348  
G01 X0.2400  Y2.1326  
G01 X0.2466  Y2.1292  
G01 X0.2526  Y2.1248  
G01 X0.2578  Y2.1196  
G01 X0.2622  Y2.1136  
G01 X0.2656  Y2.1070  
G01 X0.2678  Y2.1000  
G01 X0.2690  Y2.0927  
G01 X0.2690  Y2.0853  
G01 X0.2678  Y2.0780  
G01 X0.2656  Y2.0710  
G01 X0.2622  Y2.0644  
G01 X0.2578  Y2.0584  
G01 X0.2526  Y2.0532  
G00 Z0.1000  
G00 X0.2526  Y2.1532  
G01 Z-0.0070 F10    
G01 X0.2466  Y2.1488  F20    
G01 X0.2400  Y2.1454  
G01 X0.2330  Y2.1432  
G01 X0.2257  Y2.1420  
G01 X0.1663  Y2.1420  
G01 X0.1590  Y2.1432  
G01 X0.1520  Y2.1454  
G01 X0.1454  Y2.1488  
G01 X0.1394  Y2.1532  
G01 X0.1342  Y2.1584  
G01 X0.1298  Y2.1644  
G01 X0.1264  Y2.1710  
G01 X0.1242  Y2.1780  
G01 X0.1230  Y2.1853  
G01 X0.1230  Y2.1927  
G01 X0.1242  Y2.2000  
G01 X0.1264  Y2.2070  
G01 X0.1298  Y2.2136  
G01 X0.1342  Y2.2196  
G01 X0.1394  Y2.2248  
G01 X0.1454  Y2.2292  
G01 X0.1520  Y2.2326  
G01 X0.1590  Y2.2348  
G01 X0.1663  Y2.2360  
G01 X0.2257  Y2.2360  
G01 X0.2330  Y2.2348  
G01 X0.2400  Y2.2326  
G01 X0.2466  Y2.2292  
G01 X0.2526  Y2.2248  
G01 X0.2578  Y2.2196  
G01 X0.2622  Y2.2136  
G01 X0.2656  Y2.2070  
G01 X0.2678  Y2.2000  
G01 X0.2690  Y2.1927  
G01 X0.2690  Y2.1853  
G01 X0.2678  Y2.1780  
G01 X0.2656  Y2.1710  
G01 X0.2622  Y2.1644  
G01 X0.2578  Y2.1584  
G01 X0.2526  Y2.1532  
G00 Z0.1000  
G00 X0.2638  Y2.6450  
G01 Z-0.0070 F10    
G01 X0.2905  Y2.6522  F20    
G01 X0.3145  Y2.6660  
G01 X0.3340  Y2.6855  
G01 X0.3478  Y2.7095  
G01 X0.3550  Y2.7362  
G01 X0.3550  Y2.7638  
G01 X0.3478  Y2.7905  
G01 X0.3340  Y2.8145  
G01 X0.3145  Y2.8340  
G01 X0.2905  Y2.8478  
G01 X0.2638  Y2.8550  
G01 X0.2362  Y2.8550  
G01 X0.2095  Y2.8478  
G01 X0.1855  Y2.8340  
G01 X0.1660  Y2.8145  
G01 X0.1522  Y2.7905  
G01 X0.1450  Y2.7638  
G01 X0.1450  Y2.7362  
G01 X0.1522  Y2.7095  
G01 X0.1660  Y2.6855  
G01 X0.1855  Y2.6660  
G01 X0.2095  Y2.6522  
G01 X0.2362  Y2.6450  
G01 X0.2638  Y2.6450  
G00 Z0.1000  
G00 X1.2590  Y2.6717  
G01 Z-0.0070 F10    
G01 X1.2947  Y2.6360  F20    
G01 X1.3453  Y2.6360  
G01 X1.3810  Y2.6717  
G01 X1.3810  Y2.7223  
G01 X1.3453  Y2.7580  
G01 X1.2947  Y2.7580  
G01 X1.2590  Y2.7223  
G01 X1.2590  Y2.6717  
G00 Z0.1000  
G00 X1.2730  Y2.6775  
G01 Z-0.0070 F10    
G01 X1.2730  Y2.7165  F20    
G01 X1.3005  Y2.7440  
G01 X1.3395  Y2.7440  
G01 X1.3670  Y2.7165  
G01 X1.3670  Y2.6775  
G01 X1.3395  Y2.6500  
G01 X1.3005  Y2.6500  
G01 X1.2730  Y2.6775  
G00 Z0.1000  
G00 X2.8887  Y2.7270  
G01 Z-0.0070 F10    
G01 X2.9393  Y2.7270  F20    
G01 X2.9750  Y2.7627  
G01 X2.9750  Y2.8133  
G01 X2.9393  Y2.8490  
G01 X2.8887  Y2.8490  
G01 X2.8530  Y2.8133  
G01 X2.8530  Y2.7627  
G01 X2.8887  Y2.7270  
G00 Z0.1000  
G00 X2.8945  Y2.7410  
G01 Z-0.0070 F10    
G01 X2.8670  Y2.7685  F20    
G01 X2.8670  Y2.8075  
G01 X2.8945  Y2.8350  
G01 X2.9335  Y2.8350  
G01 X2.9610  Y2.8075  
G01 X2.9610  Y2.7685  
G01 X2.9335  Y2.7410  
G01 X2.8945  Y2.7410  
G00 Z0.1000  
G00 X4.0893  Y2.5359  
G01 Z-0.0070 F10    
G01 X4.0769  Y2.5144  F20    
G01 X4.0705  Y2.4904  
G01 X4.0705  Y2.4656  
G01 X4.0769  Y2.4416  
G01 X4.0893  Y2.4201  
G01 X4.1069  Y2.4026  
G01 X4.1284  Y2.3902  
G01 X4.1523  Y2.3837  
G01 X4.2957  Y2.3837  
G01 X4.3196  Y2.3902  
G01 X4.3411  Y2.4026  
G01 X4.3587  Y2.4201  
G01 X4.3711  Y2.4416  
G01 X4.3775  Y2.4656  
G01 X4.3775  Y2.4904  
G01 X4.3711  Y2.5144  
G01 X4.3587  Y2.5359  
G01 X4.3411  Y2.5534  
G01 X4.3196  Y2.5658  
G01 X4.2957  Y2.5722  
G01 X4.1523  Y2.5722  
G01 X4.1284  Y2.5658  
G01 X4.1069  Y2.5534  
G01 X4.0893  Y2.5359  
G00 Z0.1000  
G00 X4.1043  Y2.5310  
G01 Z-0.0070 F10    
G01 X4.1117  Y2.5385  F20    
G01 X4.1201  Y2.5449  
G01 X4.1292  Y2.5501  
G01 X4.1389  Y2.5542  
G01 X4.1491  Y2.5569  
G01 X4.1595  Y2.5582  
G01 X4.2885  Y2.5582  
G01 X4.2989  Y2.5569  
G01 X4.3091  Y2.5542  
G01 X4.3188  Y2.5501  
G01 X4.3279  Y2.5449  
G01 X4.3363  Y2.5385  
G01 X4.3437  Y2.5310  
G01 X4.3501  Y2.5227  
G01 X4.3554  Y2.5136  
G01 X4.3594  Y2.5039  
G01 X4.3621  Y2.4937  
G01 X4.3635  Y2.4833  
G01 X4.3635  Y2.4727  
G01 X4.3621  Y2.4623  
G01 X4.3594  Y2.4521  
G01 X4.3554  Y2.4424  
G01 X4.3501  Y2.4333  
G01 X4.3437  Y2.4250  
G01 X4.3363  Y2.4175  
G01 X4.3279  Y2.4111  
G01 X4.3188  Y2.4059  
G01 X4.3091  Y2.4018  
G01 X4.2989  Y2.3991  
G01 X4.2885  Y2.3977  
G01 X4.1595  Y2.3977  
G01 X4.1491  Y2.3991  
G01 X4.1389  Y2.4018  
G01 X4.1292  Y2.4059  
G01 X4.1201  Y2.4111  
G01 X4.1117  Y2.4175  
G01 X4.1043  Y2.4250  
G01 X4.0979  Y2.4333  
G01 X4.0926  Y2.4424  
G01 X4.0886  Y2.4521  
G01 X4.0859  Y2.4623  
G01 X4.0845  Y2.4727  
G01 X4.0845  Y2.4833  
G01 X4.0859  Y2.4937  
G01 X4.0886  Y2.5039  
G01 X4.0926  Y2.5136  
G01 X4.0979  Y2.5227  
G01 X4.1043  Y2.5310  
G00 Z0.1000  
G00 X4.5566  Y2.6788  
G01 Z-0.0070 F10    
G01 X4.5734  Y2.6690  F20    
G01 X4.5923  Y2.6640  
G01 X4.6117  Y2.6640  
G01 X4.6306  Y2.6690  
G01 X4.6474  Y2.6788  
G01 X4.6612  Y2.6926  
G01 X4.6710  Y2.7094  
G01 X4.6760  Y2.7283  
G01 X4.6760  Y2.8257  
G01 X4.6710  Y2.8446  
G01 X4.6612  Y2.8614  
G01 X4.6474  Y2.8752  
G01 X4.6306  Y2.8850  
G01 X4.6117  Y2.8900  
G01 X4.5923  Y2.8900  
G01 X4.5734  Y2.8850  
G01 X4.5566  Y2.8752  
G01 X4.5428  Y2.8614  
G01 X4.5330  Y2.8446  
G01 X4.5280  Y2.8257  
G01 X4.5280  Y2.7283  
G01 X4.5330  Y2.7094  
G01 X4.5428  Y2.6926  
G01 X4.5566  Y2.6788  
G00 Z0.1000  
G00 X4.5629  Y2.6922  
G01 Z-0.0070 F10    
G01 X4.5562  Y2.6989  F20    
G01 X4.5507  Y2.7066  
G01 X4.5464  Y2.7150  
G01 X4.5435  Y2.7239  
G01 X4.5420  Y2.7333  
G01 X4.5420  Y2.8207  
G01 X4.5435  Y2.8300  
G01 X4.5464  Y2.8390  
G01 X4.5507  Y2.8474  
G01 X4.5562  Y2.8551  
G01 X4.5629  Y2.8618  
G01 X4.5706  Y2.8673  
G01 X4.5790  Y2.8716  
G01 X4.5879  Y2.8745  
G01 X4.5973  Y2.8760  
G01 X4.6067  Y2.8760  
G01 X4.6160  Y2.8745  
G01 X4.6250  Y2.8716  
G01 X4.6334  Y2.8673  
G01 X4.6411  Y2.8618  
G01 X4.6478  Y2.8551  
G01 X4.6533  Y2.8474  
G01 X4.6576  Y2.8390  
G01 X4.6605  Y2.8300  
G01 X4.6620  Y2.8207  
G01 X4.6620  Y2.7333  
G01 X4.6605  Y2.7239  
G01 X4.6576  Y2.7150  
G01 X4.6533  Y2.7066  
G01 X4.6478  Y2.6989  
G01 X4.6411  Y2.6922  
G01 X4.6334  Y2.6867  
G01 X4.6250  Y2.6824  
G01 X4.6160  Y2.6795  
G01 X4.6067  Y2.6780  
G01 X4.5973  Y2.6780  
G01 X4.5879  Y2.6795  
G01 X4.5790  Y2.6824  
G01 X4.5706  Y2.6867  
G01 X4.5629  Y2.6922  
G00 Z0.1000  
G00 X4.8230  Y2.6984  
G01 Z-0.0070 F10    
G01 X4.8328  Y2.6816  F20    
G01 X4.8466  Y2.6678  
G01 X4.8634  Y2.6580  
G01 X4.8823  Y2.6530  
G01 X4.9017  Y2.6530  
G01 X4.9206  Y2.6580  
G01 X4.9374  Y2.6678  
G01 X4.9512  Y2.6816  
G01 X4.9610  Y2.6984  
G01 X4.9660  Y2.7173  
G01 X4.9660  Y2.8147  
G01 X4.9610  Y2.8336  
G01 X4.9512  Y2.8504  
G01 X4.9374  Y2.8642  
G01 X4.9206  Y2.8740  
G01 X4.9017  Y2.8790  
G01 X4.8823  Y2.8790  
G01 X4.8634  Y2.8740  
G01 X4.8466  Y2.8642  
G01 X4.8328  Y2.8504  
G01 X4.8230  Y2.8336  
G01 X4.8180  Y2.8147  
G01 X4.8180  Y2.7173  
G01 X4.8230  Y2.6984  
G00 Z0.1000  
G00 X4.8364  Y2.7040  
G01 Z-0.0070 F10    
G01 X4.8335  Y2.7129  F20    
G01 X4.8320  Y2.7223  
G01 X4.8320  Y2.8097  
G01 X4.8335  Y2.8190  
G01 X4.8364  Y2.8280  
G01 X4.8407  Y2.8364  
G01 X4.8462  Y2.8441  
G01 X4.8529  Y2.8508  
G01 X4.8606  Y2.8563  
G01 X4.8690  Y2.8606  
G01 X4.8779  Y2.8635  
G01 X4.8873  Y2.8650  
G01 X4.8967  Y2.8650  
G01 X4.9060  Y2.8635  
G01 X4.9150  Y2.8606  
G01 X4.9234  Y2.8563  
G01 X4.9311  Y2.8508  
G01 X4.9378  Y2.8441  
G01 X4.9433  Y2.8364  
G01 X4.9476  Y2.8280  
G01 X4.9505  Y2.8190  
G01 X4.9520  Y2.8097  
G01 X4.9520  Y2.7223  
G01 X4.9505  Y2.7129  
G01 X4.9476  Y2.7040  
G01 X4.9433  Y2.6956  
G01 X4.9378  Y2.6879  
G01 X4.9311  Y2.6812  
G01 X4.9234  Y2.6757  
G01 X4.9150  Y2.6714  
G01 X4.9060  Y2.6685  
G01 X4.8967  Y2.6670  
G01 X4.8873  Y2.6670  
G01 X4.8779  Y2.6685  
G01 X4.8690  Y2.6714  
G01 X4.8606  Y2.6757  
G01 X4.8529  Y2.6812  
G01 X4.8462  Y2.6879  
G01 X4.8407  Y2.6956  
G01 X4.8364  Y2.7040  
G00 Z0.1000  
G00 X5.6382  Y2.7095  
G01 Z-0.0070 F10    
G01 X5.6520  Y2.6855  F20    
G01 X5.6715  Y2.6660  
G01 X5.6955  Y2.6522  
G01 X5.7222  Y2.6450  
G01 X5.7498  Y2.6450  
G01 X5.7765  Y2.6522  
G01 X5.8005  Y2.6660  
G01 X5.8200  Y2.6855  
G01 X5.8338  Y2.7095  
G01 X5.8410  Y2.7362  
G01 X5.8410  Y2.7638  
G01 X5.8338  Y2.7905  
G01 X5.8200  Y2.8145  
G01 X5.8005  Y2.8340  
G01 X5.7765  Y2.8478  
G01 X5.7498  Y2.8550  
G01 X5.7222  Y2.8550  
G01 X5.6955  Y2.8478  
G01 X5.6715  Y2.8340  
G01 X5.6520  Y2.8145  
G01 X5.6382  Y2.7905  
G01 X5.6310  Y2.7638  
G01 X5.6310  Y2.7362  
G01 X5.6382  Y2.7095  
G00 Z0.1000  
G00 X5.6358  Y2.4586  
G01 Z-0.0070 F10    
G01 X5.6142  Y2.4644  F20    
G01 X5.5918  Y2.4644  
G01 X5.5702  Y2.4586  
G01 X5.5508  Y2.4474  
G01 X5.5350  Y2.4316  
G01 X5.5238  Y2.4122  
G01 X5.5180  Y2.3906  
G01 X5.5180  Y2.2682  
G01 X5.5237  Y2.2468  
G01 X5.5241  Y2.2464  
G01 X5.5249  Y2.2447  
G01 X5.5259  Y2.2430  
G01 X5.5262  Y2.2421  
G01 X5.5266  Y2.2413  
G01 X5.5271  Y2.2394  
G01 X5.5277  Y2.2376  
G01 X5.5278  Y2.2367  
G01 X5.5281  Y2.2357  
G01 X5.5282  Y2.2338  
G01 X5.5284  Y2.2320  
G01 X5.5284  Y2.2310  
G01 X5.5284  Y2.2300  
G01 X5.5282  Y2.2282  
G01 X5.5281  Y2.2263  
G01 X5.5278  Y2.2253  
G01 X5.5277  Y2.2244  
G01 X5.5271  Y2.2226  
G01 X5.5266  Y2.2207  
G01 X5.5262  Y2.2199  
G01 X5.5259  Y2.2190  
G01 X5.5249  Y2.2173  
G01 X5.5241  Y2.2156  
G01 X5.5237  Y2.2152  
G01 X5.5180  Y2.1938  
G01 X5.5180  Y2.0714  
G01 X5.5238  Y2.0498  
G01 X5.5350  Y2.0304  
G01 X5.5508  Y2.0146  
G01 X5.5702  Y2.0034  
G01 X5.5918  Y1.9976  
G01 X5.6142  Y1.9976  
G01 X5.6358  Y2.0034  
G01 X5.6552  Y2.0146  
G01 X5.6710  Y2.0304  
G01 X5.6822  Y2.0498  
G01 X5.6880  Y2.0714  
G01 X5.6880  Y2.1938  
G01 X5.6823  Y2.2152  
G01 X5.6819  Y2.2156  
G01 X5.6811  Y2.2173  
G01 X5.6801  Y2.2190  
G01 X5.6798  Y2.2199  
G01 X5.6794  Y2.2207  
G01 X5.6789  Y2.2226  
G01 X5.6783  Y2.2244  
G01 X5.6782  Y2.2253  
G01 X5.6779  Y2.2263  
G01 X5.6778  Y2.2282  
G01 X5.6776  Y2.2300  
G01 X5.6776  Y2.2310  
G01 X5.6776  Y2.2320  
G01 X5.6778  Y2.2338  
G01 X5.6779  Y2.2357  
G01 X5.6782  Y2.2367  
G01 X5.6783  Y2.2376  
G01 X5.6789  Y2.2394  
G01 X5.6794  Y2.2413  
G01 X5.6798  Y2.2421  
G01 X5.6801  Y2.2430  
G01 X5.6811  Y2.2447  
G01 X5.6819  Y2.2464  
G01 X5.6823  Y2.2468  
G01 X5.6880  Y2.2682  
G01 X5.6880  Y2.3906  
G01 X5.6822  Y2.4122  
G01 X5.6710  Y2.4316  
G01 X5.6552  Y2.4474  
G01 X5.6358  Y2.4586  
G00 Z0.1000  
G00 X5.6345  Y2.4432  
G01 Z-0.0070 F10    
G01 X5.6425  Y2.4386  F20    
G01 X5.6499  Y2.4329  
G01 X5.6565  Y2.4263  
G01 X5.6622  Y2.4190  
G01 X5.6668  Y2.4109  
G01 X5.6704  Y2.4023  
G01 X5.6728  Y2.3933  
G01 X5.6740  Y2.3841  
G01 X5.6740  Y2.2748  
G01 X5.6728  Y2.2655  
G01 X5.6704  Y2.2566  
G01 X5.6668  Y2.2480  
G01 X5.6622  Y2.2399  
G01 X5.6565  Y2.2325  
G01 X5.6550  Y2.2310  
G01 X5.6565  Y2.2295  
G01 X5.6622  Y2.2221  
G01 X5.6668  Y2.2140  
G01 X5.6704  Y2.2054  
G01 X5.6728  Y2.1965  
G01 X5.6740  Y2.1872  
G01 X5.6740  Y2.0779  
G01 X5.6728  Y2.0687  
G01 X5.6704  Y2.0597  
G01 X5.6668  Y2.0511  
G01 X5.6622  Y2.0430  
G01 X5.6565  Y2.0357  
G01 X5.6499  Y2.0291  
G01 X5.6425  Y2.0234  
G01 X5.6345  Y2.0188  
G01 X5.6259  Y2.0152  
G01 X5.6169  Y2.0128  
G01 X5.6077  Y2.0116  
G01 X5.5983  Y2.0116  
G01 X5.5891  Y2.0128  
G01 X5.5801  Y2.0152  
G01 X5.5715  Y2.0188  
G01 X5.5635  Y2.0234  
G01 X5.5561  Y2.0291  
G01 X5.5495  Y2.0357  
G01 X5.5438  Y2.0430  
G01 X5.5392  Y2.0511  
G01 X5.5356  Y2.0597  
G01 X5.5332  Y2.0687  
G01 X5.5320  Y2.0779  
G01 X5.5320  Y2.1872  
G01 X5.5332  Y2.1965  
G01 X5.5356  Y2.2054  
G01 X5.5392  Y2.2140  
G01 X5.5438  Y2.2221  
G01 X5.5495  Y2.2295  
G01 X5.5510  Y2.2310  
G01 X5.5495  Y2.2325  
G01 X5.5438  Y2.2399  
G01 X5.5392  Y2.2480  
G01 X5.5356  Y2.2566  
G01 X5.5332  Y2.2655  
G01 X5.5320  Y2.2748  
G01 X5.5320  Y2.3841  
G01 X5.5332  Y2.3933  
G01 X5.5356  Y2.4023  
G01 X5.5392  Y2.4109  
G01 X5.5438  Y2.4190  
G01 X5.5495  Y2.4263  
G01 X5.5561  Y2.4329  
G01 X5.5635  Y2.4386  
G01 X5.5715  Y2.4432  
G01 X5.5801  Y2.4468  
G01 X5.5891  Y2.4492  
G01 X5.5983  Y2.4504  
G01 X5.6077  Y2.4504  
G01 X5.6169  Y2.4492  
G01 X5.6259  Y2.4468  
G01 X5.6345  Y2.4432  
G00 Z0.1000  
G00 X5.6338  Y0.9596  
G01 Z-0.0070 F10    
G01 X5.6122  Y0.9654  F20    
G01 X5.5898  Y0.9654  
G01 X5.5682  Y0.9596  
G01 X5.5488  Y0.9484  
G01 X5.5330  Y0.9326  
G01 X5.5218  Y0.9132  
G01 X5.5160  Y0.8916  
G01 X5.5160  Y0.7692  
G01 X5.5217  Y0.7478  
G01 X5.5221  Y0.7474  
G01 X5.5229  Y0.7457  
G01 X5.5239  Y0.7440  
G01 X5.5242  Y0.7431  
G01 X5.5246  Y0.7423  
G01 X5.5251  Y0.7404  
G01 X5.5257  Y0.7386  
G01 X5.5258  Y0.7377  
G01 X5.5261  Y0.7367  
G01 X5.5262  Y0.7348  
G01 X5.5264  Y0.7330  
G01 X5.5264  Y0.7320  
G01 X5.5264  Y0.7310  
G01 X5.5262  Y0.7292  
G01 X5.5261  Y0.7273  
G01 X5.5258  Y0.7263  
G01 X5.5257  Y0.7254  
G01 X5.5251  Y0.7236  
G01 X5.5246  Y0.7217  
G01 X5.5242  Y0.7209  
G01 X5.5239  Y0.7200  
G01 X5.5229  Y0.7183  
G01 X5.5221  Y0.7166  
G01 X5.5217  Y0.7162  
G01 X5.5160  Y0.6948  
G01 X5.5160  Y0.5724  
G01 X5.5218  Y0.5508  
G01 X5.5330  Y0.5314  
G01 X5.5488  Y0.5156  
G01 X5.5682  Y0.5044  
G01 X5.5898  Y0.4986  
G01 X5.6122  Y0.4986  
G01 X5.6338  Y0.5044  
G01 X5.6532  Y0.5156  
G01 X5.6690  Y0.5314  
G01 X5.6802  Y0.5508  
G01 X5.6860  Y0.5724  
G01 X5.6860  Y0.6948  
G01 X5.6803  Y0.7162  
G01 X5.6799  Y0.7166  
G01 X5.6791  Y0.7183  
G01 X5.6781  Y0.7200  
G01 X5.6778  Y0.7209  
G01 X5.6774  Y0.7217  
G01 X5.6769  Y0.7236  
G01 X5.6763  Y0.7254  
G01 X5.6762  Y0.7263  
G01 X5.6759  Y0.7273  
G01 X5.6758  Y0.7292  
G01 X5.6756  Y0.7310  
G01 X5.6756  Y0.7320  
G01 X5.6756  Y0.7330  
G01 X5.6758  Y0.7348  
G01 X5.6759  Y0.7367  
G01 X5.6762  Y0.7377  
G01 X5.6763  Y0.7386  
G01 X5.6769  Y0.7404  
G01 X5.6774  Y0.7423  
G01 X5.6778  Y0.7431  
G01 X5.6781  Y0.7440  
G01 X5.6791  Y0.7457  
G01 X5.6799  Y0.7474  
G01 X5.6803  Y0.7478  
G01 X5.6860  Y0.7692  
G01 X5.6860  Y0.8916  
G01 X5.6802  Y0.9132  
G01 X5.6690  Y0.9326  
G01 X5.6532  Y0.9484  
G01 X5.6338  Y0.9596  
G00 Z0.1000  
G00 X5.6325  Y0.9442  
G01 Z-0.0070 F10    
G01 X5.6405  Y0.9396  F20    
G01 X5.6479  Y0.9339  
G01 X5.6545  Y0.9273  
G01 X5.6602  Y0.9200  
G01 X5.6648  Y0.9119  
G01 X5.6684  Y0.9033  
G01 X5.6708  Y0.8943  
G01 X5.6720  Y0.8851  
G01 X5.6720  Y0.7758  
G01 X5.6708  Y0.7665  
G01 X5.6684  Y0.7576  
G01 X5.6648  Y0.7490  
G01 X5.6602  Y0.7409  
G01 X5.6545  Y0.7335  
G01 X5.6530  Y0.7320  
G01 X5.6545  Y0.7305  
G01 X5.6602  Y0.7231  
G01 X5.6648  Y0.7150  
G01 X5.6684  Y0.7064  
G01 X5.6708  Y0.6975  
G01 X5.6720  Y0.6882  
G01 X5.6720  Y0.5789  
G01 X5.6708  Y0.5697  
G01 X5.6684  Y0.5607  
G01 X5.6648  Y0.5521  
G01 X5.6602  Y0.5440  
G01 X5.6545  Y0.5367  
G01 X5.6479  Y0.5301  
G01 X5.6405  Y0.5244  
G01 X5.6325  Y0.5198  
G01 X5.6239  Y0.5162  
G01 X5.6149  Y0.5138  
G01 X5.6057  Y0.5126  
G01 X5.5963  Y0.5126  
G01 X5.5871  Y0.5138  
G01 X5.5781  Y0.5162  
G01 X5.5695  Y0.5198  
G01 X5.5615  Y0.5244  
G01 X5.5541  Y0.5301  
G01 X5.5475  Y0.5367  
G01 X5.5418  Y0.5440  
G01 X5.5372  Y0.5521  
G01 X5.5336  Y0.5607  
G01 X5.5312  Y0.5697  
G01 X5.5300  Y0.5789  
G01 X5.5300  Y0.6882  
G01 X5.5312  Y0.6975  
G01 X5.5336  Y0.7064  
G01 X5.5372  Y0.7150  
G01 X5.5418  Y0.7231  
G01 X5.5475  Y0.7305  
G01 X5.5490  Y0.7320  
G01 X5.5475  Y0.7335  
G01 X5.5418  Y0.7409  
G01 X5.5372  Y0.7490  
G01 X5.5336  Y0.7576  
G01 X5.5312  Y0.7665  
G01 X5.5300  Y0.7758  
G01 X5.5300  Y0.8851  
G01 X5.5312  Y0.8943  
G01 X5.5336  Y0.9033  
G01 X5.5372  Y0.9119  
G01 X5.5418  Y0.9200  
G01 X5.5475  Y0.9273  
G01 X5.5541  Y0.9339  
G01 X5.5615  Y0.9396  
G01 X5.5695  Y0.9442  
G01 X5.5781  Y0.9478  
G01 X5.5871  Y0.9502  
G01 X5.5963  Y0.9514  
G01 X5.6057  Y0.9514  
G01 X5.6149  Y0.9502  
G01 X5.6239  Y0.9478  
G01 X5.6325  Y0.9442  
G00 Z0.1000  
G00 X5.6520  Y0.3145  
G01 Z-0.0070 F10    
G01 X5.6382  Y0.2905  F20    
G01 X5.6310  Y0.2638  
G01 X5.6310  Y0.2362  
G01 X5.6382  Y0.2095  
G01 X5.6520  Y0.1855  
G01 X5.6715  Y0.1660  
G01 X5.6955  Y0.1522  
G01 X5.7222  Y0.1450  
G01 X5.7498  Y0.1450  
G01 X5.7765  Y0.1522  
G01 X5.8005  Y0.1660  
G01 X5.8200  Y0.1855  
G01 X5.8338  Y0.2095  
G01 X5.8410  Y0.2362  
G01 X5.8410  Y0.2638  
G01 X5.8338  Y0.2905  
G01 X5.8200  Y0.3145  
G01 X5.8005  Y0.3340  
G01 X5.7765  Y0.3478  
G01 X5.7498  Y0.3550  
G01 X5.7222  Y0.3550  
G01 X5.6955  Y0.3478  
G01 X5.6715  Y0.3340  
G01 X5.6520  Y0.3145  
G00 Z0.1000  
G00 X4.3587  Y0.4201  
G01 Z-0.0070 F10    
G01 X4.3711  Y0.4416  F20    
G01 X4.3775  Y0.4656  
G01 X4.3775  Y0.4904  
G01 X4.3711  Y0.5144  
G01 X4.3587  Y0.5359  
G01 X4.3411  Y0.5534  
G01 X4.3196  Y0.5658  
G01 X4.2957  Y0.5722  
G01 X4.1523  Y0.5722  
G01 X4.1284  Y0.5658  
G01 X4.1069  Y0.5534  
G01 X4.0893  Y0.5359  
G01 X4.0769  Y0.5144  
G01 X4.0705  Y0.4904  
G01 X4.0705  Y0.4656  
G01 X4.0769  Y0.4416  
G01 X4.0893  Y0.4201  
G01 X4.1069  Y0.4026  
G01 X4.1284  Y0.3902  
G01 X4.1523  Y0.3837  
G01 X4.2957  Y0.3837  
G01 X4.3196  Y0.3902  
G01 X4.3411  Y0.4026  
G01 X4.3587  Y0.4201  
G00 Z0.1000  
G00 X4.3437  Y0.4250  
G01 Z-0.0070 F10    
G01 X4.3363  Y0.4175  F20    
G01 X4.3279  Y0.4111  
G01 X4.3188  Y0.4059  
G01 X4.3091  Y0.4018  
G01 X4.2989  Y0.3991  
G01 X4.2885  Y0.3977  
G01 X4.1595  Y0.3977  
G01 X4.1491  Y0.3991  
G01 X4.1389  Y0.4018  
G01 X4.1292  Y0.4059  
G01 X4.1201  Y0.4111  
G01 X4.1117  Y0.4175  
G01 X4.1043  Y0.4250  
G01 X4.0979  Y0.4333  
G01 X4.0926  Y0.4424  
G01 X4.0886  Y0.4521  
G01 X4.0859  Y0.4623  
G01 X4.0845  Y0.4727  
G01 X4.0845  Y0.4833  
G01 X4.0859  Y0.4937  
G01 X4.0886  Y0.5039  
G01 X4.0926  Y0.5136  
G01 X4.0979  Y0.5227  
G01 X4.1043  Y0.5310  
G01 X4.1117  Y0.5385  
G01 X4.1201  Y0.5449  
G01 X4.1292  Y0.5501  
G01 X4.1389  Y0.5542  
G01 X4.1491  Y0.5569  
G01 X4.1595  Y0.5582  
G01 X4.2885  Y0.5582  
G01 X4.2989  Y0.5569  
G01 X4.3091  Y0.5542  
G01 X4.3188  Y0.5501  
G01 X4.3279  Y0.5449  
G01 X4.3363  Y0.5385  
G01 X4.3437  Y0.5310  
G01 X4.3501  Y0.5227  
G01 X4.3554  Y0.5136  
G01 X4.3594  Y0.5039  
G01 X4.3621  Y0.4937  
G01 X4.3635  Y0.4833  
G01 X4.3635  Y0.4727  
G01 X4.3621  Y0.4623  
G01 X4.3594  Y0.4521  
G01 X4.3554  Y0.4424  
G01 X4.3501  Y0.4333  
G01 X4.3437  Y0.4250  
G00 Z0.1000  
G00 X4.3411  Y1.6526  
G01 Z-0.0070 F10    
G01 X4.3587  Y1.6701  F20    
G01 X4.3711  Y1.6916  
G01 X4.3775  Y1.7156  
G01 X4.3775  Y1.7404  
G01 X4.3711  Y1.7644  
G01 X4.3587  Y1.7859  
G01 X4.3411  Y1.8034  
G01 X4.3196  Y1.8158  
G01 X4.2957  Y1.8222  
G01 X4.1523  Y1.8222  
G01 X4.1284  Y1.8158  
G01 X4.1069  Y1.8034  
G01 X4.0893  Y1.7859  
G01 X4.0769  Y1.7644  
G01 X4.0705  Y1.7404  
G01 X4.0705  Y1.7156  
G01 X4.0769  Y1.6916  
G01 X4.0893  Y1.6701  
G01 X4.1069  Y1.6526  
G01 X4.1284  Y1.6402  
G01 X4.1523  Y1.6337  
G01 X4.2957  Y1.6337  
G01 X4.3196  Y1.6402  
G01 X4.3411  Y1.6526  
G00 Z0.1000  
G00 X4.3363  Y1.6675  
G01 Z-0.0070 F10    
G01 X4.3279  Y1.6611  F20    
G01 X4.3188  Y1.6559  
G01 X4.3091  Y1.6518  
G01 X4.2989  Y1.6491  
G01 X4.2885  Y1.6478  
G01 X4.1595  Y1.6478  
G01 X4.1491  Y1.6491  
G01 X4.1389  Y1.6518  
G01 X4.1292  Y1.6559  
G01 X4.1201  Y1.6611  
G01 X4.1117  Y1.6675  
G01 X4.1043  Y1.6750  
G01 X4.0979  Y1.6833  
G01 X4.0926  Y1.6924  
G01 X4.0886  Y1.7021  
G01 X4.0859  Y1.7123  
G01 X4.0845  Y1.7227  
G01 X4.0845  Y1.7333  
G01 X4.0859  Y1.7437  
G01 X4.0886  Y1.7539  
G01 X4.0926  Y1.7636  
G01 X4.0979  Y1.7727  
G01 X4.1043  Y1.7810  
G01 X4.1117  Y1.7885  
G01 X4.1201  Y1.7949  
G01 X4.1292  Y1.8001  
G01 X4.1389  Y1.8042  
G01 X4.1491  Y1.8069  
G01 X4.1595  Y1.8082  
G01 X4.2885  Y1.8082  
G01 X4.2989  Y1.8069  
G01 X4.3091  Y1.8042  
G01 X4.3188  Y1.8001  
G01 X4.3279  Y1.7949  
G01 X4.3363  Y1.7885  
G01 X4.3437  Y1.7810  
G01 X4.3501  Y1.7727  
G01 X4.3554  Y1.7636  
G01 X4.3594  Y1.7539  
G01 X4.3621  Y1.7437  
G01 X4.3635  Y1.7333  
G01 X4.3635  Y1.7227  
G01 X4.3621  Y1.7123  
G01 X4.3594  Y1.7021  
G01 X4.3554  Y1.6924  
G01 X4.3501  Y1.6833  
G01 X4.3437  Y1.6750  
G01 X4.3363  Y1.6675  
G00 Z0.1000  
G00 X0.4809  Y1.2849  
G01 Z-0.0070 F10    
G01 X0.4866  Y1.2775  F20    
G01 X0.4912  Y1.2695  
G01 X0.4948  Y1.2609  
G01 X0.4972  Y1.2519  
G01 X0.4984  Y1.2427  
G01 X0.4984  Y1.2333  
G01 X0.4972  Y1.2241  
G01 X0.4948  Y1.2151  
G01 X0.4912  Y1.2065  
G01 X0.4866  Y1.1985  
G01 X0.4809  Y1.1911  
G01 X0.4743  Y1.1845  
G01 X0.4670  Y1.1788  
G01 X0.4589  Y1.1742  
G01 X0.4503  Y1.1706  
G01 X0.4413  Y1.1682  
G01 X0.4321  Y1.1670  
G01 X0.3228  Y1.1670  
G01 X0.3135  Y1.1682  
G01 X0.3046  Y1.1706  
G01 X0.2960  Y1.1742  
G01 X0.2879  Y1.1788  
G01 X0.2805  Y1.1845  
G01 X0.2790  Y1.1860  
G01 X0.2775  Y1.1845  
G01 X0.2701  Y1.1788  
G01 X0.2620  Y1.1742  
G01 X0.2534  Y1.1706  
G01 X0.2445  Y1.1682  
G01 X0.2352  Y1.1670  
G01 X0.1259  Y1.1670  
G01 X0.1167  Y1.1682  
G01 X0.1077  Y1.1706  
G01 X0.0991  Y1.1742  
G01 X0.0910  Y1.1788  
G01 X0.0837  Y1.1845  
G01 X0.0771  Y1.1911  
G01 X0.0714  Y1.1985  
G01 X0.0668  Y1.2065  
G01 X0.0632  Y1.2151  
G01 X0.0608  Y1.2241  
G01 X0.0596  Y1.2333  
G01 X0.0596  Y1.2427  
G01 X0.0608  Y1.2519  
G01 X0.0632  Y1.2609  
G01 X0.0668  Y1.2695  
G01 X0.0714  Y1.2775  
G01 X0.0771  Y1.2849  
G01 X0.0837  Y1.2915  
G01 X0.0910  Y1.2972  
G01 X0.0991  Y1.3018  
G01 X0.1077  Y1.3054  
G01 X0.1167  Y1.3078  
G01 X0.1259  Y1.3090  
G01 X0.2352  Y1.3090  
G01 X0.2445  Y1.3078  
G01 X0.2534  Y1.3054  
G01 X0.2620  Y1.3018  
G01 X0.2701  Y1.2972  
G01 X0.2775  Y1.2915  
G01 X0.2790  Y1.2900  
G01 X0.2805  Y1.2915  
G01 X0.2879  Y1.2972  
G01 X0.2960  Y1.3018  
G01 X0.3046  Y1.3054  
G01 X0.3135  Y1.3078  
G01 X0.3228  Y1.3090  
G01 X0.4321  Y1.3090  
G01 X0.4413  Y1.3078  
G01 X0.4503  Y1.3054  
G01 X0.4589  Y1.3018  
G01 X0.4670  Y1.2972  
G01 X0.4743  Y1.2915  
G01 X0.4809  Y1.2849  
G00 Z0.1000  
G00 X0.0376  Y0.0423  
G01 Z-0.0070 F10    
G01 X0.0339  Y0.0479  F20    
G01 X0.0313  Y0.0541  
G01 X0.0300  Y0.0607  
G01 X0.0300  Y0.4880  
G01 X0.0299  Y0.4902  
G01 X0.0300  Y0.4913  
G01 X0.0300  Y0.4924  
G01 X0.0304  Y0.4946  
G01 X0.0307  Y0.4969  
G01 X0.0311  Y0.4979  
G01 X0.0313  Y0.4990  
G01 X0.0322  Y0.5011  
G01 X0.0329  Y0.5032  
G01 X0.0334  Y0.5042  
G01 X0.0339  Y0.5052  
G01 X0.0351  Y0.5071  
G01 X0.0362  Y0.5090  
G01 X0.0370  Y0.5098  
G01 X0.0376  Y0.5108  
G01 X0.0392  Y0.5124  
G01 X0.0406  Y0.5140  
G01 X0.0415  Y0.5147  
G01 X0.0423  Y0.5155  
G01 X0.0442  Y0.5168  
G01 X0.0460  Y0.5181  
G01 X0.0470  Y0.5186  
G01 X0.0479  Y0.5192  
G01 X0.0500  Y0.5201  
G01 X0.0520  Y0.5211  
G01 X0.0530  Y0.5214  
G01 X0.0541  Y0.5218  
G01 X0.0563  Y0.5222  
G01 X0.0584  Y0.5228  
G01 X0.0596  Y0.5229  
G01 X0.0607  Y0.5231  
G01 X0.0629  Y0.5231  
G01 X0.0651  Y0.5232  
G01 X0.0662  Y0.5231  
G01 X0.0673  Y0.5231  
G01 X0.0695  Y0.5227  
G01 X0.0718  Y0.5224  
G01 X0.0728  Y0.5220  
G01 X0.0739  Y0.5218  
G01 X0.0760  Y0.5209  
G01 X0.0764  Y0.5208  
G01 X0.0980  Y0.5150  
G01 X0.2191  Y0.5150  
G01 X0.2389  Y0.5203  
G01 X0.2410  Y0.5213  
G01 X0.2429  Y0.5224  
G01 X0.2440  Y0.5228  
G01 X0.2450  Y0.5233  
G01 X0.2471  Y0.5239  
G01 X0.2492  Y0.5246  
G01 X0.2504  Y0.5247  
G01 X0.2514  Y0.5250  
G01 X0.2537  Y0.5252  
G01 X0.2559  Y0.5255  
G01 X0.2570  Y0.5254  
G01 X0.2581  Y0.5255  
G01 X0.2603  Y0.5252  
G01 X0.2626  Y0.5250  
G01 X0.2636  Y0.5247  
G01 X0.2648  Y0.5246  
G01 X0.2669  Y0.5239  
G01 X0.2690  Y0.5233  
G01 X0.2700  Y0.5228  
G01 X0.2711  Y0.5224  
G01 X0.2730  Y0.5213  
G01 X0.2750  Y0.5203  
G01 X0.2949  Y0.5150  
G01 X0.4160  Y0.5150  
G01 X0.4363  Y0.5205  
G01 X0.4545  Y0.5310  
G01 X0.4694  Y0.5459  
G01 X0.4800  Y0.5641  
G01 X0.4854  Y0.5845  
G01 X0.4854  Y0.6055  
G01 X0.4800  Y0.6259  
G01 X0.4694  Y0.6441  
G01 X0.4545  Y0.6590  
G01 X0.4363  Y0.6695  
G01 X0.4160  Y0.6750  
G01 X0.2949  Y0.6750  
G01 X0.2751  Y0.6697  
G01 X0.2730  Y0.6687  
G01 X0.2711  Y0.6676  
G01 X0.2700  Y0.6672  
G01 X0.2690  Y0.6667  
G01 X0.2669  Y0.6661  
G01 X0.2648  Y0.6654  
G01 X0.2636  Y0.6653  
G01 X0.2626  Y0.6650  
G01 X0.2603  Y0.6648  
G01 X0.2581  Y0.6645  
G01 X0.2570  Y0.6646  
G01 X0.2559  Y0.6645  
G01 X0.2537  Y0.6648  
G01 X0.2514  Y0.6650  
G01 X0.2504  Y0.6653  
G01 X0.2492  Y0.6654  
G01 X0.2471  Y0.6661  
G01 X0.2450  Y0.6667  
G01 X0.2440  Y0.6672  
G01 X0.2429  Y0.6676  
G01 X0.2410  Y0.6687  
G01 X0.2390  Y0.6697  
G01 X0.2191  Y0.6750  
G01 X0.0980  Y0.6750  
G01 X0.0764  Y0.6692  
G01 X0.0760  Y0.6691  
G01 X0.0739  Y0.6682  
G01 X0.0728  Y0.6680  
G01 X0.0718  Y0.6676  
G01 X0.0695  Y0.6673  
G01 X0.0673  Y0.6669  
G01 X0.0662  Y0.6669  
G01 X0.0651  Y0.6668  
G01 X0.0629  Y0.6669  
G01 X0.0607  Y0.6669  
G01 X0.0596  Y0.6671  
G01 X0.0584  Y0.6672  
G01 X0.0563  Y0.6678  
G01 X0.0541  Y0.6682  
G01 X0.0530  Y0.6686  
G01 X0.0520  Y0.6689  
G01 X0.0500  Y0.6699  
G01 X0.0479  Y0.6708  
G01 X0.0470  Y0.6714  
G01 X0.0460  Y0.6719  
G01 X0.0442  Y0.6732  
G01 X0.0423  Y0.6745  
G01 X0.0415  Y0.6753  
G01 X0.0406  Y0.6760  
G01 X0.0392  Y0.6776  
G01 X0.0376  Y0.6792  
G01 X0.0370  Y0.6802  
G01 X0.0362  Y0.6810  
G01 X0.0351  Y0.6829  
G01 X0.0339  Y0.6848  
G01 X0.0334  Y0.6858  
G01 X0.0329  Y0.6868  
G01 X0.0322  Y0.6889  
G01 X0.0313  Y0.6910  
G01 X0.0311  Y0.6921  
G01 X0.0307  Y0.6931  
G01 X0.0304  Y0.6954  
G01 X0.0300  Y0.6976  
G01 X0.0300  Y0.6987  
G01 X0.0299  Y0.6998  
G01 X0.0300  Y0.7020  
G01 X0.0300  Y1.1437  
G01 X0.0299  Y1.1459  
G01 X0.0300  Y1.1470  
G01 X0.0300  Y1.1481  
G01 X0.0304  Y1.1503  
G01 X0.0307  Y1.1526  
G01 X0.0311  Y1.1536  
G01 X0.0313  Y1.1547  
G01 X0.0322  Y1.1568  
G01 X0.0329  Y1.1589  
G01 X0.0334  Y1.1599  
G01 X0.0339  Y1.1609  
G01 X0.0351  Y1.1628  
G01 X0.0362  Y1.1647  
G01 X0.0370  Y1.1655  
G01 X0.0376  Y1.1665  
G01 X0.0392  Y1.1681  
G01 X0.0406  Y1.1697  
G01 X0.0415  Y1.1704  
G01 X0.0423  Y1.1712  
G01 X0.0442  Y1.1725  
G01 X0.0460  Y1.1738  
G01 X0.0470  Y1.1743  
G01 X0.0479  Y1.1749  
G01 X0.0500  Y1.1758  
G01 X0.0520  Y1.1768  
G01 X0.0530  Y1.1771  
G01 X0.0541  Y1.1775  
G01 X0.0563  Y1.1779  
G01 X0.0584  Y1.1785  
G01 X0.0596  Y1.1786  
G01 X0.0607  Y1.1788  
G01 X0.0629  Y1.1788  
G01 X0.0651  Y1.1789  
G01 X0.0662  Y1.1788  
G01 X0.0673  Y1.1788  
G01 X0.0695  Y1.1784  
G01 X0.0718  Y1.1781  
G01 X0.0728  Y1.1777  
G01 X0.0739  Y1.1775  
G01 X0.0760  Y1.1766  
G01 X0.0781  Y1.1759  
G01 X0.0791  Y1.1754  
G01 X0.0801  Y1.1749  
G01 X0.0820  Y1.1737  
G01 X0.0997  Y1.1635  
G01 X0.1200  Y1.1580  
G01 X0.2411  Y1.1580  
G01 X0.2609  Y1.1633  
G01 X0.2630  Y1.1643  
G01 X0.2649  Y1.1654  
G01 X0.2660  Y1.1658  
G01 X0.2670  Y1.1663  
G01 X0.2691  Y1.1669  
G01 X0.2712  Y1.1676  
G01 X0.2724  Y1.1677  
G01 X0.2734  Y1.1680  
G01 X0.2757  Y1.1682  
G01 X0.2779  Y1.1685  
G01 X0.2790  Y1.1684  
G01 X0.2801  Y1.1685  
G01 X0.2823  Y1.1682  
G01 X0.2846  Y1.1680  
G01 X0.2856  Y1.1677  
G01 X0.2868  Y1.1676  
G01 X0.2889  Y1.1669  
G01 X0.2910  Y1.1663  
G01 X0.2920  Y1.1658  
G01 X0.2931  Y1.1654  
G01 X0.2950  Y1.1643  
G01 X0.2970  Y1.1633  
G01 X0.3169  Y1.1580  
G01 X0.4380  Y1.1580  
G01 X0.4583  Y1.1635  
G01 X0.4765  Y1.1740  
G01 X0.4914  Y1.1889  
G01 X0.5020  Y1.2071  
G01 X0.5074  Y1.2275  
G01 X0.5074  Y1.2485  
G01 X0.5020  Y1.2689  
G01 X0.4914  Y1.2871  
G01 X0.4765  Y1.3020  
G01 X0.4583  Y1.3125  
G01 X0.4380  Y1.3180  
G01 X0.3169  Y1.3180  
G01 X0.2971  Y1.3127  
G01 X0.2950  Y1.3117  
G01 X0.2931  Y1.3106  
G01 X0.2920  Y1.3102  
G01 X0.2910  Y1.3097  
G01 X0.2889  Y1.3091  
G01 X0.2868  Y1.3084  
G01 X0.2856  Y1.3083  
G01 X0.2846  Y1.3080  
G01 X0.2823  Y1.3078  
G01 X0.2801  Y1.3075  
G01 X0.2790  Y1.3076  
G01 X0.2779  Y1.3075  
G01 X0.2757  Y1.3078  
G01 X0.2734  Y1.3080  
G01 X0.2724  Y1.3083  
G01 X0.2712  Y1.3084  
G01 X0.2691  Y1.3091  
G01 X0.2670  Y1.3097  
G01 X0.2660  Y1.3102  
G01 X0.2649  Y1.3106  
G01 X0.2630  Y1.3117  
G01 X0.2610  Y1.3127  
G01 X0.2411  Y1.3180  
G01 X0.1200  Y1.3180  
G01 X0.0997  Y1.3125  
G01 X0.0820  Y1.3023  
G01 X0.0801  Y1.3011  
G01 X0.0791  Y1.3006  
G01 X0.0781  Y1.3001  
G01 X0.0760  Y1.2994  
G01 X0.0739  Y1.2985  
G01 X0.0728  Y1.2983  
G01 X0.0718  Y1.2979  
G01 X0.0695  Y1.2976  
G01 X0.0673  Y1.2972  
G01 X0.0662  Y1.2972  
G01 X0.0651  Y1.2971  
G01 X0.0629  Y1.2972  
G01 X0.0607  Y1.2972  
G01 X0.0596  Y1.2974  
G01 X0.0584  Y1.2975  
G01 X0.0563  Y1.2981  
G01 X0.0541  Y1.2985  
G01 X0.0530  Y1.2989  
G01 X0.0520  Y1.2992  
G01 X0.0500  Y1.3002  
G01 X0.0479  Y1.3011  
G01 X0.0470  Y1.3017  
G01 X0.0460  Y1.3022  
G01 X0.0442  Y1.3035  
G01 X0.0423  Y1.3048  
G01 X0.0415  Y1.3056  
G01 X0.0406  Y1.3063  
G01 X0.0392  Y1.3079  
G01 X0.0376  Y1.3095  
G01 X0.0370  Y1.3105  
G01 X0.0362  Y1.3113  
G01 X0.0351  Y1.3132  
G01 X0.0339  Y1.3151  
G01 X0.0334  Y1.3161  
G01 X0.0329  Y1.3171  
G01 X0.0322  Y1.3192  
G01 X0.0313  Y1.3213  
G01 X0.0311  Y1.3224  
G01 X0.0307  Y1.3234  
G01 X0.0304  Y1.3257  
G01 X0.0300  Y1.3278  
G01 X0.0300  Y1.3290  
G01 X0.0299  Y1.3301  
G01 X0.0300  Y1.3323  
G01 X0.0300  Y2.9393  
G01 X0.0313  Y2.9459  
G01 X0.0339  Y2.9521  
G01 X0.0376  Y2.9577  
G01 X0.0423  Y2.9624  
G01 X0.0479  Y2.9661  
G01 X0.0541  Y2.9687  
G01 X0.0607  Y2.9700  
G01 X5.9253  Y2.9700  
G01 X5.9319  Y2.9687  
G01 X5.9381  Y2.9661  
G01 X5.9437  Y2.9624  
G01 X5.9484  Y2.9577  
G01 X5.9521  Y2.9521  
G01 X5.9547  Y2.9459  
G01 X5.9560  Y2.9393  
G01 X5.9560  Y0.0607  
G01 X5.9547  Y0.0541  
G01 X5.9521  Y0.0479  
G01 X5.9484  Y0.0423  
G01 X5.9437  Y0.0376  
G01 X5.9381  Y0.0339  
G01 X5.9319  Y0.0313  
G01 X5.9253  Y0.0300  
G01 X0.0607  Y0.0300  
G01 X0.0541  Y0.0313  
G01 X0.0479  Y0.0339  
G01 X0.0423  Y0.0376  
G01 X0.0376  Y0.0423  
G00 Z0.1000  
G00 X0.1886  Y0.1700  
G01 Z-0.0070 F10    
G01 X0.2114  Y0.1568  F20    
G01 X0.2368  Y0.1500  
G01 X0.2632  Y0.1500  
G01 X0.2886  Y0.1568  
G01 X0.3114  Y0.1700  
G01 X0.3300  Y0.1886  
G01 X0.3432  Y0.2114  
G01 X0.3500  Y0.2368  
G01 X0.3500  Y0.2632  
G01 X0.3432  Y0.2886  
G01 X0.3300  Y0.3114  
G01 X0.3114  Y0.3300  
G01 X0.2886  Y0.3432  
G01 X0.2632  Y0.3500  
G01 X0.2368  Y0.3500  
G01 X0.2114  Y0.3432  
G01 X0.1886  Y0.3300  
G01 X0.1700  Y0.3114  
G01 X0.1568  Y0.2886  
G01 X0.1500  Y0.2632  
G01 X0.1500  Y0.2368  
G01 X0.1568  Y0.2114  
G01 X0.1700  Y0.1886  
G01 X0.1886  Y0.1700  
G00 Z0.1000  
G00 X0.2136  Y0.5190  
G01 Z-0.0070 F10    
G01 X0.1036  Y0.5190  F20    
G01 X0.0937  Y0.5203  
G01 X0.0841  Y0.5229  
G01 X0.0749  Y0.5267  
G01 X0.0663  Y0.5317  
G01 X0.0584  Y0.5377  
G01 X0.0513  Y0.5448  
G01 X0.0452  Y0.5527  
G01 X0.0403  Y0.5613  
G01 X0.0365  Y0.5705  
G01 X0.0339  Y0.5801  
G01 X0.0326  Y0.5900  
G01 X0.0326  Y0.6000  
G01 X0.0339  Y0.6099  
G01 X0.0365  Y0.6195  
G01 X0.0403  Y0.6287  
G01 X0.0452  Y0.6373  
G01 X0.0513  Y0.6452  
G01 X0.0584  Y0.6523  
G01 X0.0663  Y0.6583  
G01 X0.0749  Y0.6633  
G01 X0.0841  Y0.6671  
G01 X0.0937  Y0.6697  
G01 X0.1036  Y0.6710  
G01 X0.2136  Y0.6710  
G01 X0.2234  Y0.6697  
G01 X0.2331  Y0.6671  
G01 X0.2423  Y0.6633  
G01 X0.2509  Y0.6583  
G01 X0.2570  Y0.6536  
G01 X0.2631  Y0.6583  
G01 X0.2717  Y0.6633  
G01 X0.2809  Y0.6671  
G01 X0.2906  Y0.6697  
G01 X0.3004  Y0.6710  
G01 X0.4104  Y0.6710  
G01 X0.4203  Y0.6697  
G01 X0.4299  Y0.6671  
G01 X0.4391  Y0.6633  
G01 X0.4477  Y0.6583  
G01 X0.4556  Y0.6523  
G01 X0.4627  Y0.6452  
G01 X0.4688  Y0.6373  
G01 X0.4737  Y0.6287  
G01 X0.4775  Y0.6195  
G01 X0.4801  Y0.6099  
G01 X0.4814  Y0.6000  
G01 X0.4814  Y0.5900  
G01 X0.4801  Y0.5801  
G01 X0.4775  Y0.5705  
G01 X0.4737  Y0.5613  
G01 X0.4688  Y0.5527  
G01 X0.4627  Y0.5448  
G01 X0.4556  Y0.5377  
G01 X0.4477  Y0.5317  
G01 X0.4391  Y0.5267  
G01 X0.4299  Y0.5229  
G01 X0.4203  Y0.5203  
G01 X0.4104  Y0.5190  
G01 X0.3004  Y0.5190  
G01 X0.2906  Y0.5203  
G01 X0.2809  Y0.5229  
G01 X0.2717  Y0.5267  
G01 X0.2631  Y0.5317  
G01 X0.2570  Y0.5364  
G01 X0.2509  Y0.5317  
G01 X0.2423  Y0.5267  
G01 X0.2331  Y0.5229  
G01 X0.2234  Y0.5203  
G01 X0.2136  Y0.5190  
G00 Z0.1000  
G00 X0.7300  Y0.4150  
G01 Z-0.0070 F10    
G01 X0.7300  Y0.3670  F20    
G01 X0.7640  Y0.3330  
G01 X0.8120  Y0.3330  
G01 X0.8460  Y0.3670  
G01 X0.8460  Y0.4150  
G01 X0.8120  Y0.4490  
G01 X0.7640  Y0.4490  
G01 X0.7300  Y0.4150  
G00 Z0.1000  
G00 X0.7340  Y0.4134  
G01 Z-0.0070 F10    
G01 X0.7656  Y0.4450  F20    
G01 X0.8104  Y0.4450  
G01 X0.8420  Y0.4134  
G01 X0.8420  Y0.3686  
G01 X0.8104  Y0.3370  
G01 X0.7656  Y0.3370  
G01 X0.7340  Y0.3686  
G01 X0.7340  Y0.4134  
G00 Z0.1000  
G00 X0.7640  Y0.6330  
G01 Z-0.0070 F10    
G01 X0.8120  Y0.6330  F20    
G01 X0.8460  Y0.6670  
G01 X0.8460  Y0.7150  
G01 X0.8120  Y0.7490  
G01 X0.7640  Y0.7490  
G01 X0.7300  Y0.7150  
G01 X0.7300  Y0.6670  
G01 X0.7640  Y0.6330  
G00 Z0.1000  
G00 X0.7656  Y0.6370  
G01 Z-0.0070 F10    
G01 X0.7340  Y0.6686  F20    
G01 X0.7340  Y0.7134  
G01 X0.7656  Y0.7450  
G01 X0.8104  Y0.7450  
G01 X0.8420  Y0.7134  
G01 X0.8420  Y0.6686  
G01 X0.8104  Y0.6370  
G01 X0.7656  Y0.6370  
G00 Z0.1000  
G00 X1.2750  Y0.6221  
G01 Z-0.0070 F10    
G01 X1.2750  Y0.5559  F20    
G01 X1.3186  Y0.5123  
G01 X1.3195  Y0.5116  
G01 X1.3210  Y0.5099  
G01 X1.3225  Y0.5083  
G01 X1.3232  Y0.5074  
G01 X1.3239  Y0.5065  
G01 X1.3250  Y0.5046  
G01 X1.3263  Y0.5028  
G01 X1.3267  Y0.5017  
G01 X1.3273  Y0.5007  
G01 X1.3280  Y0.4986  
G01 X1.3288  Y0.4966  
G01 X1.3290  Y0.4955  
G01 X1.3294  Y0.4944  
G01 X1.3297  Y0.4922  
G01 X1.3301  Y0.4900  
G01 X1.3301  Y0.4889  
G01 X1.3303  Y0.4878  
G01 X1.3301  Y0.4855  
G01 X1.3301  Y0.4833  
G01 X1.3299  Y0.4822  
G01 X1.3298  Y0.4811  
G01 X1.3293  Y0.4789  
G01 X1.3288  Y0.4767  
G01 X1.3284  Y0.4757  
G01 X1.3281  Y0.4746  
G01 X1.3271  Y0.4726  
G01 X1.3263  Y0.4705  
G01 X1.3256  Y0.4696  
G01 X1.3251  Y0.4686  
G01 X1.3238  Y0.4668  
G01 X1.3225  Y0.4650  
G01 X1.3217  Y0.4642  
G01 X1.3211  Y0.4633  
G01 X1.3194  Y0.4618  
G01 X1.3178  Y0.4602  
G01 X1.3169  Y0.4596  
G01 X1.3160  Y0.4589  
G01 X1.3141  Y0.4578  
G01 X1.3122  Y0.4565  
G01 X1.3112  Y0.4561  
G01 X1.3059  Y0.4530  
G01 X1.2910  Y0.4381  
G01 X1.2805  Y0.4199  
G01 X1.2750  Y0.3995  
G01 X1.2750  Y0.3785  
G01 X1.2805  Y0.3581  
G01 X1.2910  Y0.3399  
G01 X1.3059  Y0.3250  
G01 X1.3241  Y0.3145  
G01 X1.3445  Y0.3090  
G01 X1.3655  Y0.3090  
G01 X1.3859  Y0.3145  
G01 X1.4041  Y0.3250  
G01 X1.4190  Y0.3399  
G01 X1.4295  Y0.3581  
G01 X1.4350  Y0.3785  
G01 X1.4350  Y0.3995  
G01 X1.4295  Y0.4199  
G01 X1.4190  Y0.4381  
G01 X1.4041  Y0.4530  
G01 X1.3988  Y0.4561  
G01 X1.3978  Y0.4565  
G01 X1.3959  Y0.4578  
G01 X1.3940  Y0.4589  
G01 X1.3931  Y0.4596  
G01 X1.3922  Y0.4602  
G01 X1.3906  Y0.4618  
G01 X1.3889  Y0.4633  
G01 X1.3883  Y0.4642  
G01 X1.3875  Y0.4650  
G01 X1.3862  Y0.4668  
G01 X1.3849  Y0.4686  
G01 X1.3844  Y0.4696  
G01 X1.3837  Y0.4705  
G01 X1.3829  Y0.4726  
G01 X1.3819  Y0.4746  
G01 X1.3816  Y0.4757  
G01 X1.3812  Y0.4767  
G01 X1.3807  Y0.4789  
G01 X1.3802  Y0.4811  
G01 X1.3801  Y0.4822  
G01 X1.3799  Y0.4833  
G01 X1.3799  Y0.4855  
G01 X1.3797  Y0.4878  
G01 X1.3799  Y0.4889  
G01 X1.3799  Y0.4900  
G01 X1.3803  Y0.4922  
G01 X1.3806  Y0.4944  
G01 X1.3810  Y0.4955  
G01 X1.3812  Y0.4966  
G01 X1.3820  Y0.4986  
G01 X1.3827  Y0.5007  
G01 X1.3833  Y0.5017  
G01 X1.3837  Y0.5028  
G01 X1.3850  Y0.5046  
G01 X1.3861  Y0.5065  
G01 X1.3868  Y0.5074  
G01 X1.3875  Y0.5083  
G01 X1.3890  Y0.5099  
G01 X1.3905  Y0.5116  
G01 X1.3914  Y0.5123  
G01 X1.4350  Y0.5559  
G01 X1.4350  Y0.6221  
G01 X1.3881  Y0.6690  
G01 X1.3219  Y0.6690  
G01 X1.2750  Y0.6221  
G00 Z0.1000  
G00 X1.2790  Y0.6205  
G01 Z-0.0070 F10    
G01 X1.3235  Y0.6650  F20    
G01 X1.3865  Y0.6650  
G01 X1.4310  Y0.6205  
G01 X1.4310  Y0.5575  
G01 X1.3865  Y0.5130  
G01 X1.3235  Y0.5130  
G01 X1.2790  Y0.5575  
G01 X1.2790  Y0.6205  
G00 Z0.1000  
G00 X1.3048  Y0.4463  
G01 Z-0.0070 F10    
G01 X1.3127  Y0.4523  F20    
G01 X1.3213  Y0.4573  
G01 X1.3305  Y0.4611  
G01 X1.3401  Y0.4637  
G01 X1.3500  Y0.4650  
G01 X1.3600  Y0.4650  
G01 X1.3699  Y0.4637  
G01 X1.3795  Y0.4611  
G01 X1.3887  Y0.4573  
G01 X1.3973  Y0.4523  
G01 X1.4052  Y0.4463  
G01 X1.4123  Y0.4392  
G01 X1.4183  Y0.4313  
G01 X1.4233  Y0.4227  
G01 X1.4271  Y0.4135  
G01 X1.4297  Y0.4039  
G01 X1.4310  Y0.3940  
G01 X1.4310  Y0.3840  
G01 X1.4297  Y0.3741  
G01 X1.4271  Y0.3645  
G01 X1.4233  Y0.3553  
G01 X1.4183  Y0.3467  
G01 X1.4123  Y0.3388  
G01 X1.4052  Y0.3317  
G01 X1.3973  Y0.3257  
G01 X1.3887  Y0.3207  
G01 X1.3795  Y0.3169  
G01 X1.3699  Y0.3143  
G01 X1.3600  Y0.3130  
G01 X1.3500  Y0.3130  
G01 X1.3401  Y0.3143  
G01 X1.3305  Y0.3169  
G01 X1.3213  Y0.3207  
G01 X1.3127  Y0.3257  
G01 X1.3048  Y0.3317  
G01 X1.2977  Y0.3388  
G01 X1.2917  Y0.3467  
G01 X1.2867  Y0.3553  
G01 X1.2829  Y0.3645  
G01 X1.2803  Y0.3741  
G01 X1.2790  Y0.3840  
G01 X1.2790  Y0.3940  
G01 X1.2803  Y0.4039  
G01 X1.2829  Y0.4135  
G01 X1.2867  Y0.4227  
G01 X1.2917  Y0.4313  
G01 X1.2977  Y0.4392  
G01 X1.3048  Y0.4463  
G00 Z0.1000  
G00 X1.4880  Y1.0951  
G01 Z-0.0070 F10    
G01 X1.5101  Y1.0860  F20    
G01 X1.5939  Y1.0860  
G01 X1.6160  Y1.0951  
G01 X1.6329  Y1.1120  
G01 X1.6420  Y1.1341  
G01 X1.6420  Y1.1579  
G01 X1.6329  Y1.1799  
G01 X1.6317  Y1.1827  
G01 X1.6303  Y1.1861  
G01 X1.6290  Y1.1927  
G01 X1.6290  Y1.1993  
G01 X1.6303  Y1.2059  
G01 X1.6420  Y1.2341  
G01 X1.6420  Y1.2579  
G01 X1.6329  Y1.2799  
G01 X1.6317  Y1.2827  
G01 X1.6303  Y1.2861  
G01 X1.6290  Y1.2927  
G01 X1.6290  Y1.2993  
G01 X1.6303  Y1.3059  
G01 X1.6420  Y1.3341  
G01 X1.6420  Y1.3579  
G01 X1.6329  Y1.3800  
G01 X1.6160  Y1.3969  
G01 X1.5939  Y1.4060  
G01 X1.5101  Y1.4060  
G01 X1.4880  Y1.3969  
G01 X1.4711  Y1.3800  
G01 X1.4620  Y1.3579  
G01 X1.4620  Y1.3341  
G01 X1.4737  Y1.3059  
G01 X1.4750  Y1.2993  
G01 X1.4750  Y1.2927  
G01 X1.4737  Y1.2861  
G01 X1.4722  Y1.2825  
G01 X1.4711  Y1.2799  
G01 X1.4620  Y1.2579  
G01 X1.4620  Y1.2341  
G01 X1.4737  Y1.2059  
G01 X1.4750  Y1.1993  
G01 X1.4750  Y1.1927  
G01 X1.4737  Y1.1861  
G01 X1.4722  Y1.1825  
G01 X1.4711  Y1.1799  
G01 X1.4620  Y1.1579  
G01 X1.4620  Y1.1341  
G01 X1.4711  Y1.1120  
G01 X1.4880  Y1.0951  
G00 Z0.1000  
G00 X1.4926  Y1.0981  
