(.../EAGLE-7.2.0/ulp/pcb-gcode.ulp)
(Copyright 2005 - 2012 by John Johnson)
(See readme.txt for licensing terms.)
(This file generated from the board:)
(.../disruptor/generator_cd4047_trafo_ct.brd)
(Current profile is .../EAGLE-7.2.0/ulp/profiles/mach.pp  )
(This file generated 7/9/2015 10:51:36 AM)
(Settings from pcb-machine.h)
(spindle on time = 3.0000)
(spindle speed = 5000.0000)
(tool change at 0.0000  0.0000  1.0000  )
(feed rate xy = F0     )
(feed rate z  = F20    )
(Z Axis Settings)
(  High     Up        Down     Drill)
(0.5000  	0.1000  	-0.0070 	-0.0625 )
(Settings from pcb-defaults.h)
(isolate min = 0.0010)
(isolate max = 0.0560)
(isolate step = 0.0050)
(Generated top outlines, top drill, bottom outlines, bottom drill, )
(Unit of measure: inch)
( Tool|       Size       |  Min Sub |  Max Sub |   Count )
( T01 | 0.813mm 0.0320in | 0.0000in | 0.0000in |       0 )
( T02 | 0.914mm 0.0360in | 0.0000in | 0.0000in |       0 )
( T03 | 1.016mm 0.0400in | 0.0000in | 0.0000in |       0 )
( T04 | 1.321mm 0.0520in | 0.0000in | 0.0000in |       0 )
( T05 | 1.400mm 0.0551in | 0.0000in | 0.0000in |       0 )
( T06 | 2.007mm 0.0790in | 0.0000in | 0.0000in |       0 )
( T07 | 3.556mm 0.1400in | 0.0000in | 0.0000in |       0 )
(Inch Mode)
G20
(Absolute Coordinates)
G90
S5000
G00 Z0.5000  
G00 X0.0000  Y0.0000  
M03
G04 P3.000000
M05
G00 Z1.0000  
M06 T01  ; 0.0320  
G01 Z0.0000  F20    
M06 
G00 Z0.1000  
M03
G04 P3.000000
G82 X0.1960  Y1.9890  Z-0.0625 F20    R0.1000  P1.000000
G82 X0.1960  Y2.0890  
G82 X0.1960  Y2.1890  
G82 X0.7920  Y2.1930  
G82 X0.7920  Y2.0930  
G82 X0.7920  Y1.9930  
G82 X0.7920  Y1.8930  
G82 X0.7920  Y1.7930  
G82 X0.7920  Y1.6930  
G82 X0.7920  Y1.5930  
G82 X1.0920  Y1.5930  
G82 X1.0920  Y1.6930  
G82 X1.0920  Y1.7930  
G82 X1.0920  Y1.8930  
G82 X1.0920  Y1.9930  
G82 X1.0920  Y2.0930  
G82 X1.0920  Y2.1930  
G82 X1.3200  Y2.2970  
G82 X1.3200  Y2.6970  
G82 X1.9080  Y2.7970  
G82 X1.9080  Y2.3970  
G82 X2.3310  Y2.3000  
G82 X2.3310  Y2.7000  
G82 X2.9140  Y2.7880  
G82 X2.9140  Y2.3880  
G82 X2.5830  Y1.7080  
G82 X2.1830  Y1.7080  
G82 X1.8970  Y1.4320  
G82 X1.7610  Y1.7050  
G82 X1.3610  Y1.7050  
G82 X1.8970  Y1.0320  
G82 X2.9590  Y1.0190  
G82 X2.9590  Y1.4190  
M05
G00 Z1.0000  
G00 X0.0000  Y0.0000  
M06 T02  ; 0.0360  
G01 Z0.0000  F20    
M06 
G00 Z0.1000  
M03
G04 P3.000000
G82 X0.5020  Y1.9190  Z-0.0625 F20    R0.1000  P1.000000
G82 X0.5020  Y2.2190  
G82 X0.7880  Y0.6910  
G82 X0.7880  Y0.3910  
M05
G00 Z1.0000  
G00 X0.0000  Y0.0000  
M06 T03  ; 0.0400  
G01 Z0.0000  F20    
M06 
G00 Z0.1000  
M03
G04 P3.000000
G82 X1.3550  Y0.3890  Z-0.0625 F20    R0.1000  P1.000000
G82 X1.3550  Y0.5890  
G82 X1.5520  Y1.1460  
G82 X1.5520  Y1.2460  
G82 X1.5520  Y1.3460  
G82 X2.5820  Y1.3440  
G82 X2.5820  Y1.2440  
G82 X2.5820  Y1.1440  
G82 X2.5990  Y2.5000  
G82 X2.5990  Y2.6000  
G82 X2.5990  Y2.7000  
G82 X1.5560  Y2.6990  
G82 X1.5560  Y2.5990  
G82 X1.5560  Y2.4990  
M05
G00 Z1.0000  
G00 X0.0000  Y0.0000  
M06 T04  ; 0.0520  
G01 Z0.0000  F20    
M06 
G00 Z0.1000  
M03
G04 P3.000000
G82 X4.6020  Y2.7770  Z-0.0625 F20    R0.1000  P1.000000
G82 X4.8920  Y2.7660  
M05
G00 Z1.0000  
G00 X0.0000  Y0.0000  
M06 T05  ; 0.0551  
G01 Z0.0000  F20    
M06 
G00 Z0.1000  
M03
G04 P3.000000
G82 X0.1586  Y0.5950  Z-0.0625 F20    R0.1000  P1.000000
G82 X0.3554  Y0.5950  
G82 X0.3774  Y1.2380  
G82 X0.1806  Y1.2380  
G82 X5.6010  Y0.8304  
G82 X5.6010  Y0.6336  
G82 X5.6030  Y2.1326  
G82 X5.6030  Y2.3294  
M05
G00 Z1.0000  
G00 X0.0000  Y0.0000  
M06 T06  ; 0.0790  
G01 Z0.0000  F20    
M06 
G00 Z0.1000  
M03
G04 P3.000000
G82 X4.2240  Y0.4780  Z-0.0625 F20    R0.1000  P1.000000
G82 X4.2240  Y1.7280  
G82 X4.2240  Y2.4780  
M05
G00 Z1.0000  
G00 X0.0000  Y0.0000  
M06 T07  ; 0.1400  
G01 Z0.0000  F20    
M06 
G00 Z0.1000  
M03
G04 P3.000000
G82 X0.2500  Y0.2500  Z-0.0625 F20    R0.1000  P1.000000
G82 X0.2500  Y2.7500  
G82 X5.7360  Y2.7500  
G82 X5.7360  Y0.2500  
T01 
G00 Z0.5000  
M05
M02
