(.../EAGLE-7.2.0/ulp/pcb-gcode.ulp)
(Copyright 2005 - 2012 by John Johnson)
(See readme.txt for licensing terms.)
(This file generated from the board:)
(.../disruptor/generator_cd4047_trafo_ct.brd)
(Current profile is .../EAGLE-7.2.0/ulp/profiles/mach.pp  )
(This file generated 7/9/2015 10:50:58 AM)
(Settings from pcb-machine.h)
(spindle on time = 3.0000)
(  Tool Size)
(0.0400  )
(spindle speed = 5000.0000)
(tool change at 0.0000  0.0000  1.0000  )
(feed rate xy = F20    )
(feed rate z  = F10    )
(Z Axis Settings)
(  High     Up        Down     Drill)
(0.5000  	0.1000  	-0.0070 	-0.0625 )
(Settings from pcb-defaults.h)
(isolate min = 0.0010)
(isolate max = 0.0560)
(isolate step = 0.0050)
(Generated top outlines, top drill, bottom outlines, bottom drill, )
(Unit of measure: inch)
(Inch Mode)
G20
(Absolute Coordinates)
G90
S5000
G00 Z0.5000  
G00 X0.0000  Y0.0000  
M03
G04 P3.000000
G00 Z0.1000  
G00 X-0.0415 Y0.0455  
G01 Z-0.0070 F10    
G01 X-0.0455 Y0.0415  F20    
G01 X-0.0503 Y0.0383  
G01 X-0.0555 Y0.0361  
G01 X-0.0611 Y0.0350  
G01 X-5.9249 Y0.0350  
G01 X-5.9305 Y0.0361  
G01 X-5.9357 Y0.0383  
G01 X-5.9405 Y0.0415  
G01 X-5.9445 Y0.0455  
G01 X-5.9477 Y0.0503  
G01 X-5.9499 Y0.0555  
G01 X-5.9510 Y0.0611  
G01 X-5.9510 Y2.9389  
G01 X-5.9499 Y2.9445  
G01 X-5.9477 Y2.9497  
G01 X-5.9445 Y2.9545  
G01 X-5.9405 Y2.9585  
G01 X-5.9357 Y2.9617  
G01 X-5.9305 Y2.9639  
G01 X-5.9249 Y2.9650  
G01 X-0.0611 Y2.9650  
G01 X-0.0555 Y2.9639  
G01 X-0.0503 Y2.9617  
G01 X-0.0455 Y2.9585  
G01 X-0.0415 Y2.9545  
G01 X-0.0383 Y2.9497  
G01 X-0.0361 Y2.9445  
G01 X-0.0350 Y2.9389  
G01 X-0.0350 Y0.7018  
G01 X-0.0349 Y0.6999  
G01 X-0.0350 Y0.6990  
G01 X-0.0350 Y0.6980  
G01 X-0.0354 Y0.6962  
G01 X-0.0356 Y0.6943  
G01 X-0.0359 Y0.6934  
G01 X-0.0361 Y0.6924  
G01 X-0.0368 Y0.6907  
G01 X-0.0375 Y0.6889  
G01 X-0.0379 Y0.6880  
G01 X-0.0383 Y0.6872  
G01 X-0.0394 Y0.6856  
G01 X-0.0403 Y0.6839  
G01 X-0.0409 Y0.6832  
G01 X-0.0415 Y0.6824  
G01 X-0.0428 Y0.6811  
G01 X-0.0441 Y0.6796  
G01 X-0.0448 Y0.6790  
G01 X-0.0455 Y0.6784  
G01 X-0.0471 Y0.6773  
G01 X-0.0486 Y0.6762  
G01 X-0.0495 Y0.6757  
G01 X-0.0503 Y0.6752  
G01 X-0.0520 Y0.6745  
G01 X-0.0537 Y0.6736  
G01 X-0.0547 Y0.6734  
G01 X-0.0555 Y0.6730  
G01 X-0.0574 Y0.6726  
G01 X-0.0593 Y0.6721  
G01 X-0.0602 Y0.6721  
G01 X-0.0611 Y0.6719  
G01 X-0.0631 Y0.6719  
G01 X-0.0650 Y0.6718  
G01 X-0.0659 Y0.6719  
G01 X-0.0669 Y0.6719  
G01 X-0.0687 Y0.6723  
G01 X-0.0706 Y0.6725  
G01 X-0.0715 Y0.6728  
G01 X-0.0725 Y0.6730  
G01 X-0.0742 Y0.6737  
G01 X-0.0749 Y0.6740  
G01 X-0.0974 Y0.6800  
G01 X-0.1552 Y0.6800  
G01 X-0.1554 Y0.6800  
G01 X-0.1581 Y0.6800  
G01 X-0.1608 Y0.6800  
G01 X-0.1610 Y0.6800  
G01 X-0.4884 Y0.6837  
G01 X-0.4911 Y0.6838  
G01 X-0.4913 Y0.6838  
G01 X-0.4940 Y0.6843  
G01 X-0.4967 Y0.6849  
G01 X-0.4969 Y0.6849  
G01 X-0.4995 Y0.6860  
G01 X-0.5020 Y0.6871  
G01 X-0.5022 Y0.6872  
G01 X-0.5045 Y0.6888  
G01 X-0.5067 Y0.6903  
G01 X-0.5069 Y0.6904  
G01 X-0.5088 Y0.6924  
G01 X-0.8705 Y1.0574  
G01 X-0.8725 Y1.0594  
G01 X-0.8741 Y1.0618  
G01 X-0.8757 Y1.0642  
G01 X-0.8768 Y1.0669  
G01 X-0.8779 Y1.0694  
G01 X-0.8779 Y1.0696  
G01 X-0.8784 Y1.0723  
G01 X-0.8790 Y1.0751  
G01 X-0.8790 Y1.0752  
G01 X-0.8790 Y1.0780  
G01 X-0.8785 Y1.6087  
G01 X-0.8785 Y1.6115  
G01 X-0.8779 Y1.6143  
G01 X-0.8774 Y1.6171  
G01 X-0.8763 Y1.6197  
G01 X-0.8752 Y1.6224  
G01 X-0.8736 Y1.6247  
G01 X-0.8720 Y1.6271  
G01 X-0.8700 Y1.6292  
G01 X-0.8680 Y1.6312  
G01 X-0.8655 Y1.6328  
G01 X-0.8632 Y1.6343  
G01 X-0.8606 Y1.6354  
G01 X-0.8579 Y1.6365  
G01 X-0.8551 Y1.6371  
G01 X-0.8523 Y1.6376  
G01 X-0.8495 Y1.6376  
G01 X-0.8466 Y1.6376  
G01 X-0.8438 Y1.6371  
G01 X-0.8410 Y1.6365  
G01 X-0.8384 Y1.6354  
G01 X-0.8360 Y1.6366  
G01 X-0.8290 Y1.6388  
G01 X-0.8217 Y1.6400  
G01 X-0.8026 Y1.6400  
G01 X-0.8046 Y1.6403  
G01 X-0.8127 Y1.6430  
G01 X-0.8187 Y1.6460  
G01 X-0.8217 Y1.6460  
G01 X-0.8290 Y1.6472  
G01 X-0.8360 Y1.6494  
G01 X-0.8426 Y1.6528  
G01 X-0.8486 Y1.6572  
G01 X-0.8538 Y1.6624  
G01 X-0.8582 Y1.6684  
G01 X-0.8616 Y1.6750  
G01 X-0.8638 Y1.6820  
G01 X-0.8650 Y1.6893  
G01 X-0.8650 Y1.6967  
G01 X-0.8638 Y1.7040  
G01 X-0.8616 Y1.7110  
G01 X-0.8582 Y1.7176  
G01 X-0.8538 Y1.7236  
G01 X-0.8486 Y1.7288  
G01 X-0.8460 Y1.7308  
G01 X-0.8460 Y1.7390  
G01 X-0.8924 Y1.7390  
G01 X-0.8930 Y1.0602  
G01 X-0.5063 Y0.6699  
G01 X-0.1582 Y0.6660  
G01 X-0.1039 Y0.6660  
G01 X-0.0947 Y0.6648  
G01 X-0.0857 Y0.6624  
G01 X-0.0771 Y0.6588  
G01 X-0.0690 Y0.6542  
G01 X-0.0617 Y0.6485  
G01 X-0.0551 Y0.6419  
G01 X-0.0494 Y0.6345  
G01 X-0.0448 Y0.6265  
G01 X-0.0412 Y0.6179  
G01 X-0.0388 Y0.6089  
G01 X-0.0376 Y0.5997  
G01 X-0.0376 Y0.5903  
G01 X-0.0388 Y0.5811  
G01 X-0.0412 Y0.5721  
G01 X-0.0448 Y0.5635  
G01 X-0.0494 Y0.5555  
G01 X-0.0551 Y0.5481  
G01 X-0.0617 Y0.5415  
G01 X-0.0690 Y0.5358  
G01 X-0.0771 Y0.5312  
G01 X-0.0857 Y0.5276  
G01 X-0.0947 Y0.5252  
G01 X-0.1039 Y0.5240  
G01 X-0.1543 Y0.5240  
G01 X-0.1547 Y0.5240  
G01 X-0.1590 Y0.5240  
G01 X-0.2132 Y0.5240  
G01 X-0.2183 Y0.5247  
G01 X-0.2905 Y0.5255  
G01 X-0.2915 Y0.5252  
G01 X-0.3008 Y0.5240  
G01 X-0.4101 Y0.5240  
G01 X-0.4193 Y0.5252  
G01 X-0.4261 Y0.5270  
G01 X-0.5088 Y0.5280  
G01 X-0.5095 Y0.5279  
G01 X-0.5135 Y0.5280  
G01 X-0.5142 Y0.5280  
G01 X-0.7201 Y0.3232  
G01 X-0.7237 Y0.3195  
G01 X-0.7239 Y0.3194  
G01 X-0.7241 Y0.3192  
G01 X-0.7281 Y0.3160  
G01 X-0.7321 Y0.3128  
G01 X-0.7323 Y0.3126  
G01 X-0.7325 Y0.3125  
G01 X-0.7369 Y0.3097  
G01 X-0.7412 Y0.3070  
G01 X-0.7414 Y0.3069  
G01 X-0.7417 Y0.3067  
G01 X-0.7463 Y0.3045  
G01 X-0.7509 Y0.3023  
G01 X-0.7512 Y0.3022  
G01 X-0.7514 Y0.3021  
G01 X-0.7562 Y0.3004  
G01 X-0.7611 Y0.2987  
G01 X-0.7613 Y0.2986  
G01 X-0.7616 Y0.2985  
G01 X-0.7666 Y0.2974  
G01 X-0.7716 Y0.2963  
G01 X-0.7718 Y0.2962  
G01 X-0.7721 Y0.2962  
G01 X-0.7772 Y0.2956  
G01 X-0.7823 Y0.2950  
G01 X-0.7826 Y0.2950  
G01 X-0.7828 Y0.2950  
G01 X-0.7879 Y0.2950  
G01 X-1.3540 Y0.2930  
G01 X-1.3542 Y0.2930  
G01 X-4.0223 Y0.2930  
G01 X-4.0252 Y0.2895  
G01 X-4.0355 Y0.2792  
G01 X-4.0467 Y0.2700  
G01 X-4.0588 Y0.2619  
G01 X-4.0716 Y0.2550  
G01 X-4.0851 Y0.2495  
G01 X-4.0990 Y0.2453  
G01 X-4.1133 Y0.2424  
G01 X-4.1277 Y0.2410  
G01 X-4.1423 Y0.2410  
G01 X-4.1567 Y0.2424  
G01 X-4.1710 Y0.2453  
G01 X-4.1849 Y0.2495  
G01 X-4.1984 Y0.2550  
G01 X-4.2112 Y0.2619  
G01 X-4.2233 Y0.2700  
G01 X-4.2345 Y0.2792  
G01 X-4.3338 Y0.3785  
G01 X-4.3430 Y0.3897  
G01 X-4.3511 Y0.4018  
G01 X-4.3580 Y0.4146  
G01 X-4.3635 Y0.4281  
G01 X-4.3677 Y0.4420  
G01 X-4.3706 Y0.4563  
G01 X-4.3720 Y0.4707  
G01 X-4.3720 Y0.4853  
G01 X-4.3706 Y0.4997  
G01 X-4.3677 Y0.5140  
G01 X-4.3635 Y0.5279  
G01 X-4.3580 Y0.5414  
G01 X-4.3511 Y0.5542  
G01 X-4.3430 Y0.5663  
G01 X-4.3338 Y0.5775  
G01 X-4.3235 Y0.5878  
G01 X-4.3123 Y0.5970  
G01 X-4.3002 Y0.6051  
G01 X-4.2874 Y0.6120  
G01 X-4.2739 Y0.6175  
G01 X-4.2600 Y0.6217  
G01 X-4.2457 Y0.6246  
G01 X-4.2313 Y0.6260  
G01 X-4.2167 Y0.6260  
G01 X-4.2023 Y0.6246  
G01 X-4.1880 Y0.6217  
G01 X-4.1741 Y0.6175  
G01 X-4.1606 Y0.6120  
G01 X-4.1478 Y0.6051  
G01 X-4.1357 Y0.5970  
G01 X-4.1245 Y0.5878  
G01 X-4.0252 Y0.4885  
G01 X-4.0223 Y0.4850  
G01 X-1.3496 Y0.4850  
G01 X-0.8278 Y0.4869  
G01 X-0.6511 Y0.6627  
G01 X-0.9853 Y0.9999  
G01 X-0.9882 Y1.0029  
G01 X-0.9883 Y1.0030  
G01 X-0.9908 Y1.0064  
G01 X-0.9932 Y1.0097  
G01 X-0.9933 Y1.0099  
G01 X-0.9952 Y1.0136  
G01 X-0.9971 Y1.0173  
G01 X-0.9971 Y1.0175  
G01 X-0.9984 Y1.0214  
G01 X-0.9997 Y1.0254  
G01 X-0.9997 Y1.0256  
G01 X-1.0004 Y1.0297  
G01 X-1.0010 Y1.0338  
G01 X-1.0010 Y1.0340  
G01 X-1.0010 Y1.0381  
G01 X-1.0003 Y1.7848  
G01 X-1.0003 Y1.7890  
G01 X-1.0003 Y1.7933  
G01 X-1.0000 Y2.1157  
G01 X-1.0234 Y2.1390  
G01 X-1.0560 Y2.1390  
G01 X-1.0550 Y2.1388  
G01 X-1.0480 Y2.1366  
G01 X-1.0414 Y2.1332  
G01 X-1.0354 Y2.1288  
G01 X-1.0302 Y2.1236  
G01 X-1.0258 Y2.1176  
G01 X-1.0224 Y2.1110  
G01 X-1.0202 Y2.1040  
G01 X-1.0190 Y2.0967  
G01 X-1.0190 Y2.0893  
G01 X-1.0202 Y2.0820  
G01 X-1.0224 Y2.0750  
G01 X-1.0258 Y2.0684  
G01 X-1.0302 Y2.0624  
G01 X-1.0354 Y2.0572  
G01 X-1.0414 Y2.0528  
G01 X-1.0480 Y2.0494  
G01 X-1.0550 Y2.0472  
G01 X-1.0623 Y2.0460  
G01 X-1.1217 Y2.0460  
G01 X-1.1290 Y2.0472  
G01 X-1.1360 Y2.0494  
G01 X-1.1426 Y2.0528  
G01 X-1.1486 Y2.0572  
G01 X-1.1538 Y2.0624  
G01 X-1.1582 Y2.0684  
G01 X-1.1616 Y2.0750  
G01 X-1.1638 Y2.0820  
G01 X-1.1650 Y2.0893  
G01 X-1.1650 Y2.0967  
G01 X-1.1638 Y2.1040  
G01 X-1.1616 Y2.1110  
G01 X-1.1582 Y2.1176  
G01 X-1.1538 Y2.1236  
G01 X-1.1486 Y2.1288  
G01 X-1.1426 Y2.1332  
G01 X-1.1360 Y2.1366  
G01 X-1.1290 Y2.1388  
G01 X-1.1217 Y2.1400  
G01 X-1.1026 Y2.1400  
G01 X-1.1046 Y2.1403  
G01 X-1.1127 Y2.1430  
G01 X-1.1187 Y2.1460  
G01 X-1.1217 Y2.1460  
G01 X-1.1290 Y2.1472  
G01 X-1.1360 Y2.1494  
G01 X-1.1426 Y2.1528  
G01 X-1.1486 Y2.1572  
G01 X-1.1538 Y2.1624  
G01 X-1.1582 Y2.1684  
G01 X-1.1616 Y2.1750  
G01 X-1.1638 Y2.1820  
G01 X-1.1650 Y2.1893  
G01 X-1.1650 Y2.1967  
G01 X-1.1638 Y2.2040  
G01 X-1.1616 Y2.2110  
G01 X-1.1582 Y2.2176  
G01 X-1.1538 Y2.2236  
G01 X-1.1486 Y2.2288  
G01 X-1.1426 Y2.2332  
G01 X-1.1360 Y2.2366  
G01 X-1.1290 Y2.2388  
G01 X-1.1217 Y2.2400  
G01 X-1.1187 Y2.2400  
G01 X-1.1127 Y2.2430  
G01 X-1.1046 Y2.2457  
G01 X-1.0962 Y2.2470  
G01 X-0.9968 Y2.2470  
G01 X-0.9884 Y2.2457  
G01 X-0.9803 Y2.2430  
G01 X-0.9727 Y2.2392  
G01 X-0.9658 Y2.2342  
G01 X-0.9108 Y2.1792  
G01 X-0.9078 Y2.1762  
G01 X-0.9048 Y2.1732  
G01 X-0.9023 Y2.1698  
G01 X-0.8998 Y2.1663  
G01 X-0.8979 Y2.1625  
G01 X-0.8960 Y2.1587  
G01 X-0.8946 Y2.1547  
G01 X-0.8933 Y2.1506  
G01 X-0.8927 Y2.1465  
G01 X-0.8920 Y2.1422  
G01 X-0.8920 Y2.1380  
G01 X-0.8920 Y2.1338  
G01 X-0.8923 Y1.8470  
G01 X-0.8460 Y1.8470  
G01 X-0.8460 Y1.8552  
G01 X-0.8486 Y1.8572  
G01 X-0.8538 Y1.8624  
G01 X-0.8582 Y1.8684  
G01 X-0.8616 Y1.8750  
G01 X-0.8638 Y1.8820  
G01 X-0.8650 Y1.8893  
G01 X-0.8650 Y1.8967  
G01 X-0.8638 Y1.9040  
G01 X-0.8616 Y1.9110  
G01 X-0.8582 Y1.9176  
G01 X-0.8538 Y1.9236  
G01 X-0.8486 Y1.9288  
G01 X-0.8426 Y1.9332  
G01 X-0.8360 Y1.9366  
G01 X-0.8290 Y1.9388  
G01 X-0.8217 Y1.9400  
G01 X-0.8187 Y1.9400  
G01 X-0.8128 Y1.9430  
G01 X-0.8187 Y1.9460  
G01 X-0.8217 Y1.9460  
G01 X-0.8290 Y1.9472  
G01 X-0.8360 Y1.9494  
G01 X-0.8426 Y1.9528  
G01 X-0.8486 Y1.9572  
G01 X-0.8538 Y1.9624  
G01 X-0.8582 Y1.9684  
G01 X-0.8616 Y1.9750  
G01 X-0.8638 Y1.9820  
G01 X-0.8650 Y1.9893  
G01 X-0.8650 Y1.9967  
G01 X-0.8638 Y2.0040  
G01 X-0.8616 Y2.0110  
G01 X-0.8582 Y2.0176  
G01 X-0.8538 Y2.0236  
G01 X-0.8486 Y2.0288  
G01 X-0.8426 Y2.0332  
G01 X-0.8360 Y2.0366  
G01 X-0.8290 Y2.0388  
G01 X-0.8217 Y2.0400  
G01 X-0.8187 Y2.0400  
G01 X-0.8147 Y2.0420  
G01 X-0.8163 Y2.0428  
G01 X-0.8207 Y2.0460  
G01 X-0.8217 Y2.0460  
G01 X-0.8290 Y2.0472  
G01 X-0.8360 Y2.0494  
G01 X-0.8426 Y2.0528  
G01 X-0.8486 Y2.0572  
G01 X-0.8538 Y2.0624  
G01 X-0.8582 Y2.0684  
G01 X-0.8616 Y2.0750  
G01 X-0.8638 Y2.0820  
G01 X-0.8650 Y2.0893  
G01 X-0.8650 Y2.0967  
G01 X-0.8638 Y2.1040  
G01 X-0.8616 Y2.1110  
G01 X-0.8582 Y2.1176  
G01 X-0.8538 Y2.1236  
G01 X-0.8486 Y2.1288  
G01 X-0.8426 Y2.1332  
G01 X-0.8360 Y2.1366  
G01 X-0.8290 Y2.1388  
G01 X-0.8217 Y2.1400  
G01 X-0.8187 Y2.1400  
G01 X-0.8128 Y2.1430  
G01 X-0.8187 Y2.1460  
G01 X-0.8217 Y2.1460  
G01 X-0.8290 Y2.1472  
G01 X-0.8360 Y2.1494  
G01 X-0.8426 Y2.1528  
G01 X-0.8486 Y2.1572  
G01 X-0.8538 Y2.1624  
G01 X-0.8582 Y2.1684  
G01 X-0.8616 Y2.1750  
G01 X-0.8638 Y2.1820  
G01 X-0.8650 Y2.1893  
G01 X-0.8650 Y2.1967  
G01 X-0.8638 Y2.2040  
G01 X-0.8616 Y2.2110  
G01 X-0.8582 Y2.2176  
G01 X-0.8538 Y2.2236  
G01 X-0.8486 Y2.2288  
G01 X-0.8426 Y2.2332  
G01 X-0.8360 Y2.2366  
G01 X-0.8290 Y2.2388  
G01 X-0.8217 Y2.2400  
G01 X-0.8187 Y2.2400  
G01 X-0.8127 Y2.2430  
G01 X-0.8046 Y2.2457  
G01 X-0.7962 Y2.2470  
G01 X-0.5504 Y2.2470  
G01 X-0.5372 Y2.2602  
G01 X-0.5303 Y2.2652  
G01 X-0.5227 Y2.2690  
G01 X-0.5146 Y2.2717  
G01 X-0.5062 Y2.2730  
G01 X-0.4978 Y2.2730  
G01 X-0.4894 Y2.2717  
G01 X-0.4813 Y2.2690  
G01 X-0.4737 Y2.2652  
G01 X-0.4668 Y2.2602  
G01 X-0.4608 Y2.2542  
G01 X-0.4558 Y2.2473  
G01 X-0.4520 Y2.2397  
G01 X-0.4493 Y2.2316  
G01 X-0.4480 Y2.2232  
G01 X-0.4480 Y2.2147  
G01 X-0.4493 Y2.2064  
G01 X-0.4520 Y2.1983  
G01 X-0.4558 Y2.1907  
G01 X-0.4608 Y2.1838  
G01 X-0.4928 Y2.1518  
G01 X-0.4997 Y2.1468  
G01 X-0.5072 Y2.1430  
G01 X-0.2500 Y2.1430  
G01 X-0.2500 Y2.1512  
G01 X-0.2526 Y2.1532  
G01 X-0.2578 Y2.1584  
G01 X-0.2622 Y2.1644  
G01 X-0.2656 Y2.1710  
G01 X-0.2678 Y2.1780  
G01 X-0.2690 Y2.1853  
G01 X-0.2690 Y2.1927  
G01 X-0.2678 Y2.2000  
G01 X-0.2656 Y2.2070  
G01 X-0.2622 Y2.2136  
G01 X-0.2578 Y2.2196  
G01 X-0.2526 Y2.2248  
G01 X-0.2466 Y2.2292  
G01 X-0.2400 Y2.2326  
G01 X-0.2330 Y2.2348  
G01 X-0.2257 Y2.2360  
G01 X-0.2227 Y2.2360  
G01 X-0.2167 Y2.2390  
G01 X-0.2086 Y2.2417  
G01 X-0.2002 Y2.2430  
G01 X-0.1918 Y2.2430  
G01 X-0.1834 Y2.2417  
G01 X-0.1753 Y2.2390  
G01 X-0.1693 Y2.2360  
G01 X-0.1663 Y2.2360  
G01 X-0.1590 Y2.2348  
G01 X-0.1520 Y2.2326  
G01 X-0.1454 Y2.2292  
G01 X-0.1394 Y2.2248  
G01 X-0.1342 Y2.2196  
G01 X-0.1298 Y2.2136  
G01 X-0.1264 Y2.2070  
G01 X-0.1242 Y2.2000  
G01 X-0.1230 Y2.1927  
G01 X-0.1230 Y2.1853  
G01 X-0.1242 Y2.1780  
G01 X-0.1264 Y2.1710  
G01 X-0.1298 Y2.1644  
G01 X-0.1342 Y2.1584  
G01 X-0.1394 Y2.1532  
G01 X-0.1420 Y2.1512  
G01 X-0.1420 Y2.1268  
G01 X-0.1394 Y2.1248  
G01 X-0.1342 Y2.1196  
G01 X-0.1298 Y2.1136  
G01 X-0.1264 Y2.1070  
G01 X-0.1242 Y2.1000  
G01 X-0.1230 Y2.0927  
G01 X-0.1230 Y2.0853  
G01 X-0.1242 Y2.0780  
G01 X-0.1264 Y2.0710  
G01 X-0.1298 Y2.0644  
G01 X-0.1342 Y2.0584  
G01 X-0.1394 Y2.0532  
G01 X-0.1454 Y2.0488  
G01 X-0.1520 Y2.0454  
G01 X-0.1590 Y2.0432  
G01 X-0.1663 Y2.0420  
G01 X-0.1693 Y2.0420  
G01 X-0.1752 Y2.0390  
G01 X-0.1693 Y2.0360  
G01 X-0.1663 Y2.0360  
G01 X-0.1590 Y2.0348  
G01 X-0.1520 Y2.0326  
G01 X-0.1454 Y2.0292  
G01 X-0.1394 Y2.0248  
G01 X-0.1342 Y2.0196  
G01 X-0.1298 Y2.0136  
G01 X-0.1264 Y2.0070  
G01 X-0.1242 Y2.0000  
G01 X-0.1230 Y1.9927  
G01 X-0.1230 Y1.9853  
G01 X-0.1242 Y1.9780  
G01 X-0.1264 Y1.9710  
G01 X-0.1298 Y1.9644  
G01 X-0.1342 Y1.9584  
G01 X-0.1394 Y1.9532  
G01 X-0.1454 Y1.9488  
G01 X-0.1520 Y1.9454  
G01 X-0.1590 Y1.9432  
G01 X-0.1663 Y1.9420  
G01 X-0.1693 Y1.9420  
G01 X-0.1753 Y1.9390  
G01 X-0.1834 Y1.9363  
G01 X-0.1918 Y1.9350  
G01 X-0.4475 Y1.9350  
G01 X-0.4480 Y1.9182  
G01 X-0.4480 Y1.9147  
G01 X-0.4481 Y1.9140  
G01 X-0.4481 Y1.9132  
G01 X-0.4488 Y1.9098  
G01 X-0.4493 Y1.9064  
G01 X-0.4496 Y1.9056  
G01 X-0.4497 Y1.9049  
G01 X-0.4509 Y1.9016  
G01 X-0.4520 Y1.8983  
G01 X-0.4523 Y1.8976  
G01 X-0.4526 Y1.8969  
G01 X-0.4542 Y1.8938  
G01 X-0.4558 Y1.8907  
G01 X-0.4563 Y1.8901  
G01 X-0.4566 Y1.8894  
G01 X-0.4588 Y1.8866  
G01 X-0.4608 Y1.8838  
G01 X-0.4614 Y1.8833  
G01 X-0.4618 Y1.8827  
G01 X-0.4644 Y1.8803  
G01 X-0.4668 Y1.8778  
G01 X-0.4674 Y1.8774  
G01 X-0.4680 Y1.8768  
G01 X-0.4709 Y1.8749  
G01 X-0.4737 Y1.8728  
G01 X-0.4744 Y1.8725  
G01 X-0.4750 Y1.8720  
G01 X-0.4782 Y1.8705  
G01 X-0.4813 Y1.8690  
G01 X-0.4820 Y1.8687  
G01 X-0.4827 Y1.8684  
G01 X-0.4860 Y1.8674  
G01 X-0.4894 Y1.8663  
G01 X-0.4901 Y1.8662  
G01 X-0.4909 Y1.8660  
G01 X-0.4943 Y1.8655  
G01 X-0.4978 Y1.8650  
G01 X-0.4985 Y1.8650  
G01 X-0.4993 Y1.8649  
G01 X-0.5028 Y1.8650  
G01 X-0.5062 Y1.8650  
G01 X-0.5070 Y1.8651  
G01 X-0.5078 Y1.8651  
G01 X-0.5112 Y1.8658  
G01 X-0.5146 Y1.8663  
G01 X-0.5154 Y1.8666  
G01 X-0.5161 Y1.8667  
G01 X-0.5194 Y1.8679  
G01 X-0.5227 Y1.8690  
G01 X-0.5234 Y1.8693  
G01 X-0.5241 Y1.8696  
G01 X-0.5272 Y1.8712  
G01 X-0.5303 Y1.8728  
G01 X-0.5309 Y1.8733  
G01 X-0.5316 Y1.8736  
G01 X-0.5344 Y1.8758  
G01 X-0.5372 Y1.8778  
G01 X-0.5377 Y1.8784  
G01 X-0.5383 Y1.8788  
G01 X-0.5407 Y1.8814  
G01 X-0.5432 Y1.8838  
G01 X-0.5436 Y1.8844  
G01 X-0.5442 Y1.8850  
G01 X-0.5461 Y1.8879  
G01 X-0.5482 Y1.8907  
G01 X-0.5485 Y1.8914  
G01 X-0.5490 Y1.8920  
G01 X-0.5505 Y1.8952  
G01 X-0.5520 Y1.8983  
G01 X-0.5523 Y1.8990  
G01 X-0.5526 Y1.8997  
G01 X-0.5536 Y1.9030  
G01 X-0.5547 Y1.9064  
G01 X-0.5548 Y1.9071  
G01 X-0.5550 Y1.9079  
G01 X-0.5555 Y1.9113  
G01 X-0.5560 Y1.9147  
G01 X-0.5560 Y1.9155  
G01 X-0.5561 Y1.9163  
G01 X-0.5560 Y1.9198  
G01 X-0.5560 Y1.9390  
G01 X-0.7560 Y1.9390  
G01 X-0.7550 Y1.9388  
G01 X-0.7480 Y1.9366  
G01 X-0.7414 Y1.9332  
G01 X-0.7354 Y1.9288  
G01 X-0.7302 Y1.9236  
G01 X-0.7258 Y1.9176  
G01 X-0.7224 Y1.9110  
G01 X-0.7202 Y1.9040  
G01 X-0.7190 Y1.8967  
G01 X-0.7190 Y1.8893  
G01 X-0.7202 Y1.8820  
G01 X-0.7224 Y1.8750  
G01 X-0.7258 Y1.8684  
G01 X-0.7302 Y1.8624  
G01 X-0.7354 Y1.8572  
G01 X-0.7380 Y1.8552  
G01 X-0.7380 Y1.8308  
G01 X-0.7354 Y1.8288  
G01 X-0.7302 Y1.8236  
G01 X-0.7258 Y1.8176  
G01 X-0.7224 Y1.8110  
G01 X-0.7202 Y1.8040  
G01 X-0.7190 Y1.7967  
G01 X-0.7190 Y1.7893  
G01 X-0.7202 Y1.7820  
G01 X-0.7224 Y1.7750  
G01 X-0.7258 Y1.7684  
G01 X-0.7302 Y1.7624  
G01 X-0.7354 Y1.7572  
G01 X-0.7380 Y1.7552  
G01 X-0.7380 Y1.7308  
G01 X-0.7354 Y1.7288  
G01 X-0.7302 Y1.7236  
G01 X-0.7258 Y1.7176  
G01 X-0.7224 Y1.7110  
G01 X-0.7202 Y1.7040  
G01 X-0.7190 Y1.6967  
G01 X-0.7190 Y1.6893  
G01 X-0.7202 Y1.6820  
G01 X-0.7224 Y1.6750  
G01 X-0.7258 Y1.6684  
G01 X-0.7302 Y1.6624  
G01 X-0.7354 Y1.6572  
G01 X-0.7414 Y1.6528  
G01 X-0.7480 Y1.6494  
G01 X-0.7550 Y1.6472  
G01 X-0.7623 Y1.6460  
G01 X-0.7653 Y1.6460  
G01 X-0.7713 Y1.6430  
G01 X-0.7794 Y1.6403  
G01 X-0.7814 Y1.6400  
G01 X-0.7623 Y1.6400  
G01 X-0.7550 Y1.6388  
G01 X-0.7480 Y1.6366  
G01 X-0.7457 Y1.6354  
G01 X-0.7314 Y1.6413  
G01 X-0.7143 Y1.6584  
G01 X-0.7050 Y1.6809  
G01 X-0.7050 Y1.7051  
G01 X-0.7172 Y1.7345  
G01 X-0.7183 Y1.7401  
G01 X-0.7183 Y1.7459  
G01 X-0.7172 Y1.7511  
G01 X-0.7172 Y1.7515  
G01 X-0.7150 Y1.7567  
G01 X-0.7050 Y1.7809  
G01 X-0.7050 Y1.8051  
G01 X-0.7150 Y1.8293  
G01 X-0.7171 Y1.8344  
G01 X-0.7172 Y1.8345  
G01 X-0.7183 Y1.8401  
G01 X-0.7183 Y1.8459  
G01 X-0.7182 Y1.8462  
G01 X-0.7172 Y1.8515  
G01 X-0.7050 Y1.8809  
G01 X-0.7050 Y1.8989  
G01 X-0.7039 Y1.9045  
G01 X-0.7017 Y1.9097  
G01 X-0.6985 Y1.9145  
G01 X-0.6945 Y1.9185  
G01 X-0.6897 Y1.9217  
G01 X-0.6845 Y1.9239  
G01 X-0.6789 Y1.9250  
G01 X-0.5946 Y1.9250  
G01 X-0.5933 Y1.9247  
G01 X-0.5890 Y1.9239  
G01 X-0.5874 Y1.9232  
G01 X-0.5837 Y1.9217  
G01 X-0.5806 Y1.9196  
G01 X-0.5790 Y1.9185  
G01 X-0.5749 Y1.9145  
G01 X-0.5718 Y1.9097  
G01 X-0.5703 Y1.9062  
G01 X-0.5696 Y1.9045  
G01 X-0.5671 Y1.8986  
G01 X-0.5661 Y1.8961  
G01 X-0.5654 Y1.8925  
G01 X-0.5653 Y1.8923  
G01 X-0.5639 Y1.8902  
G01 X-0.5637 Y1.8899  
G01 X-0.5635 Y1.8895  
G01 X-0.5627 Y1.8872  
G01 X-0.5617 Y1.8850  
G01 X-0.5616 Y1.8846  
G01 X-0.5604 Y1.8812  
G01 X-0.5528 Y1.8736  
G01 X-0.5524 Y1.8734  
G01 X-0.5508 Y1.8716  
G01 X-0.5490 Y1.8699  
G01 X-0.5488 Y1.8695  
G01 X-0.5415 Y1.8617  
G01 X-0.5364 Y1.8597  
G01 X-0.5335 Y1.8584  
G01 X-0.5311 Y1.8575  
G01 X-0.5281 Y1.8554  
G01 X-0.5278 Y1.8554  
G01 X-0.5254 Y1.8549  
G01 X-0.5251 Y1.8547  
G01 X-0.5246 Y1.8546  
G01 X-0.5224 Y1.8536  
G01 X-0.5202 Y1.8527  
G01 X-0.5198 Y1.8525  
G01 X-0.5165 Y1.8510  
G01 X-0.5058 Y1.8510  
G01 X-0.5054 Y1.8511  
G01 X-0.5030 Y1.8510  
G01 X-0.5005 Y1.8510  
G01 X-0.5001 Y1.8509  
G01 X-0.4894 Y1.8506  
G01 X-0.4791 Y1.8549  
G01 X-0.4755 Y1.8556  
G01 X-0.4753 Y1.8557  
G01 X-0.4732 Y1.8571  
G01 X-0.4729 Y1.8573  
G01 X-0.4725 Y1.8575  
G01 X-0.4702 Y1.8583  
G01 X-0.4680 Y1.8593  
G01 X-0.4676 Y1.8594  
G01 X-0.4642 Y1.8606  
G01 X-0.4566 Y1.8682  
G01 X-0.4564 Y1.8686  
G01 X-0.4546 Y1.8702  
G01 X-0.4529 Y1.8720  
G01 X-0.4525 Y1.8722  
G01 X-0.4447 Y1.8795  
G01 X-0.4427 Y1.8846  
G01 X-0.4414 Y1.8875  
G01 X-0.4405 Y1.8899  
G01 X-0.4384 Y1.8929  
G01 X-0.4384 Y1.8932  
G01 X-0.4379 Y1.8956  
G01 X-0.4377 Y1.8959  
G01 X-0.4376 Y1.8964  
G01 X-0.4366 Y1.8986  
G01 X-0.4357 Y1.9008  
G01 X-0.4355 Y1.9012  
G01 X-0.4344 Y1.9035  
G01 X-0.4335 Y1.9057  
G01 X-0.4333 Y1.9061  
G01 X-0.4331 Y1.9065  
G01 X-0.4317 Y1.9085  
G01 X-0.4303 Y1.9105  
G01 X-0.4300 Y1.9108  
G01 X-0.4298 Y1.9111  
G01 X-0.4280 Y1.9128  
G01 X-0.4263 Y1.9145  
G01 X-0.4259 Y1.9148  
G01 X-0.4256 Y1.9150  
G01 X-0.4236 Y1.9163  
G01 X-0.4215 Y1.9177  
G01 X-0.4212 Y1.9179  
G01 X-0.4208 Y1.9181  
G01 X-0.4185 Y1.9190  
G01 X-0.4163 Y1.9199  
G01 X-0.4159 Y1.9200  
G01 X-0.4155 Y1.9201  
G01 X-0.4131 Y1.9205  
G01 X-0.4107 Y1.9210  
G01 X-0.4102 Y1.9210  
G01 X-0.4098 Y1.9211  
G01 X-0.4074 Y1.9210  
G01 X-0.1825 Y1.9210  
G01 X-0.1683 Y1.9269  
G01 X-0.1627 Y1.9280  
G01 X-0.1579 Y1.9280  
G01 X-0.1354 Y1.9373  
G01 X-0.1183 Y1.9544  
G01 X-0.1090 Y1.9769  
G01 X-0.1090 Y2.0011  
G01 X-0.1212 Y2.0305  
G01 X-0.1223 Y2.0361  
G01 X-0.1223 Y2.0419  
G01 X-0.1212 Y2.0471  
G01 X-0.1212 Y2.0475  
G01 X-0.1190 Y2.0527  
G01 X-0.1090 Y2.0769  
G01 X-0.1090 Y2.1011  
G01 X-0.1190 Y2.1253  
G01 X-0.1211 Y2.1304  
G01 X-0.1212 Y2.1305  
G01 X-0.1223 Y2.1361  
G01 X-0.1223 Y2.1419  
G01 X-0.1222 Y2.1422  
G01 X-0.1212 Y2.1475  
G01 X-0.1090 Y2.1769  
G01 X-0.1090 Y2.2011  
G01 X-0.1183 Y2.2236  
G01 X-0.1354 Y2.2407  
G01 X-0.1579 Y2.2500  
G01 X-0.1627 Y2.2500  
G01 X-0.1683 Y2.2511  
G01 X-0.1684 Y2.2512  
G01 X-0.1825 Y2.2570  
G01 X-0.2095 Y2.2570  
G01 X-0.2237 Y2.2511  
G01 X-0.2293 Y2.2500  
G01 X-0.2341 Y2.2500  
G01 X-0.2566 Y2.2407  
G01 X-0.2737 Y2.2236  
G01 X-0.2830 Y2.2011  
G01 X-0.2830 Y2.1831  
G01 X-0.2841 Y2.1775  
G01 X-0.2863 Y2.1723  
G01 X-0.2895 Y2.1675  
G01 X-0.2935 Y2.1635  
G01 X-0.2983 Y2.1603  
G01 X-0.3035 Y2.1581  
G01 X-0.3091 Y2.1570  
G01 X-0.4129 Y2.1570  
G01 X-0.4185 Y2.1581  
G01 X-0.4237 Y2.1603  
G01 X-0.4285 Y2.1635  
G01 X-0.4325 Y2.1675  
G01 X-0.4357 Y2.1723  
G01 X-0.4379 Y2.1775  
G01 X-0.4390 Y2.1831  
G01 X-0.4390 Y2.1905  
G01 X-0.4387 Y2.1918  
G01 X-0.4379 Y2.1961  
G01 X-0.4366 Y2.1993  
G01 X-0.4340 Y2.2055  
G01 X-0.4340 Y2.2325  
G01 X-0.4367 Y2.2392  
G01 X-0.4379 Y2.2419  
G01 X-0.4386 Y2.2453  
G01 X-0.4405 Y2.2481  
G01 X-0.4427 Y2.2534  
G01 X-0.4444 Y2.2575  
G01 X-0.4635 Y2.2766  
G01 X-0.4676 Y2.2783  
G01 X-0.4729 Y2.2805  
G01 X-0.4757 Y2.2824  
G01 X-0.4791 Y2.2831  
G01 X-0.4823 Y2.2844  
G01 X-0.4885 Y2.2870  
G01 X-0.5155 Y2.2870  
G01 X-0.5222 Y2.2843  
G01 X-0.5249 Y2.2831  
G01 X-0.5283 Y2.2824  
G01 X-0.5286 Y2.2822  
G01 X-0.5311 Y2.2805  
G01 X-0.5330 Y2.2798  
G01 X-0.5364 Y2.2783  
G01 X-0.5405 Y2.2766  
G01 X-0.5497 Y2.2675  
G01 X-0.5544 Y2.2643  
G01 X-0.5597 Y2.2621  
G01 X-0.5653 Y2.2610  
G01 X-0.8055 Y2.2610  
G01 X-0.8197 Y2.2551  
G01 X-0.8253 Y2.2540  
G01 X-0.8301 Y2.2540  
G01 X-0.8526 Y2.2447  
G01 X-0.8697 Y2.2276  
G01 X-0.8724 Y2.2210  
G01 X-0.8736 Y2.2182  
G01 X-0.8746 Y2.2157  
G01 X-0.8778 Y2.2110  
G01 X-0.8818 Y2.2070  
G01 X-0.8841 Y2.2054  
G01 X-0.8866 Y2.2038  
G01 X-0.8918 Y2.2016  
G01 X-0.8952 Y2.2009  
G01 X-0.8974 Y2.2005  
G01 X-0.9032 Y2.2005  
G01 X-0.9088 Y2.2016  
G01 X-0.9118 Y2.2029  
G01 X-0.9140 Y2.2038  
G01 X-0.9188 Y2.2070  
G01 X-0.9228 Y2.2110  
G01 X-0.9625 Y2.2506  
G01 X-0.9875 Y2.2610  
G01 X-1.1055 Y2.2610  
G01 X-1.1197 Y2.2551  
G01 X-1.1253 Y2.2540  
G01 X-1.1301 Y2.2540  
G01 X-1.1526 Y2.2447  
G01 X-1.1697 Y2.2276  
G01 X-1.1790 Y2.2051  
G01 X-1.1790 Y2.1809  
G01 X-1.1690 Y2.1567  
G01 X-1.1669 Y2.1516  
G01 X-1.1668 Y2.1515  
G01 X-1.1657 Y2.1459  
G01 X-1.1657 Y2.1401  
G01 X-1.1658 Y2.1398  
G01 X-1.1668 Y2.1345  
G01 X-1.1790 Y2.1051  
G01 X-1.1790 Y2.0809  
G01 X-1.1697 Y2.0584  
G01 X-1.1526 Y2.0413  
G01 X-1.1383 Y2.0354  
G01 X-1.1360 Y2.0366  
G01 X-1.1290 Y2.0388  
G01 X-1.1217 Y2.0400  
G01 X-1.0623 Y2.0400  
G01 X-1.0550 Y2.0388  
G01 X-1.0480 Y2.0366  
G01 X-1.0431 Y2.0341  
G01 X-1.0403 Y2.0341  
G01 X-1.0374 Y2.0335  
G01 X-1.0347 Y2.0329  
G01 X-1.0320 Y2.0318  
G01 X-1.0294 Y2.0308  
G01 X-1.0270 Y2.0291  
G01 X-1.0246 Y2.0276  
G01 X-1.0226 Y2.0256  
G01 X-1.0206 Y2.0235  
G01 X-1.0190 Y2.0211  
G01 X-1.0174 Y2.0188  
G01 X-1.0163 Y2.0161  
G01 X-1.0152 Y2.0135  
G01 X-1.0147 Y2.0107  
G01 X-1.0141 Y2.0079  
G01 X-1.0141 Y2.0050  
G01 X-1.0141 Y2.0022  
G01 X-1.0141 Y1.9809  
G01 X-1.0141 Y1.9781  
G01 X-1.0147 Y1.9753  
G01 X-1.0153 Y1.9725  
G01 X-1.0163 Y1.9699  
G01 X-1.0174 Y1.9672  
G01 X-1.0190 Y1.9648  
G01 X-1.0206 Y1.9625  
G01 X-1.0227 Y1.9604  
G01 X-1.0247 Y1.9584  
G01 X-1.0271 Y1.9568  
G01 X-1.0294 Y1.9552  
G01 X-1.0320 Y1.9542  
G01 X-1.0347 Y1.9531  
G01 X-1.0375 Y1.9525  
G01 X-1.0403 Y1.9519  
G01 X-1.0430 Y1.9519  
G01 X-1.0480 Y1.9494  
G01 X-1.0550 Y1.9472  
G01 X-1.0623 Y1.9460  
G01 X-1.0814 Y1.9460  
G01 X-1.0794 Y1.9457  
G01 X-1.0713 Y1.9430  
G01 X-1.0653 Y1.9400  
G01 X-1.0623 Y1.9400  
G01 X-1.0550 Y1.9388  
G01 X-1.0480 Y1.9366  
G01 X-1.0414 Y1.9332  
G01 X-1.0354 Y1.9288  
G01 X-1.0302 Y1.9236  
G01 X-1.0258 Y1.9176  
G01 X-1.0224 Y1.9110  
G01 X-1.0202 Y1.9040  
G01 X-1.0190 Y1.8967  
G01 X-1.0190 Y1.8893  
G01 X-1.0202 Y1.8820  
G01 X-1.0224 Y1.8750  
G01 X-1.0258 Y1.8684  
G01 X-1.0302 Y1.8624  
G01 X-1.0354 Y1.8572  
G01 X-1.0414 Y1.8528  
G01 X-1.0480 Y1.8494  
G01 X-1.0550 Y1.8472  
G01 X-1.0623 Y1.8460  
G01 X-1.0653 Y1.8460  
G01 X-1.0713 Y1.8430  
G01 X-1.0792 Y1.8404  
G01 X-1.0781 Y1.8400  
G01 X-1.0623 Y1.8400  
G01 X-1.0550 Y1.8388  
G01 X-1.0480 Y1.8366  
G01 X-1.0414 Y1.8332  
G01 X-1.0354 Y1.8288  
G01 X-1.0302 Y1.8236  
G01 X-1.0258 Y1.8176  
G01 X-1.0224 Y1.8110  
G01 X-1.0202 Y1.8040  
G01 X-1.0190 Y1.7967  
G01 X-1.0190 Y1.7893  
G01 X-1.0202 Y1.7820  
G01 X-1.0224 Y1.7750  
G01 X-1.0258 Y1.7684  
G01 X-1.0302 Y1.7624  
G01 X-1.0354 Y1.7572  
G01 X-1.0414 Y1.7528  
G01 X-1.0480 Y1.7494  
G01 X-1.0550 Y1.7472  
G01 X-1.0623 Y1.7460  
G01 X-1.0781 Y1.7460  
G01 X-1.0805 Y1.7452  
G01 X-1.0881 Y1.7440  
G01 X-1.2527 Y1.7440  
G01 X-1.3236 Y1.6731  
G01 X-1.3291 Y1.6676  
G01 X-1.3353 Y1.6631  
G01 X-1.3376 Y1.6619  
G01 X-1.3415 Y1.6580  
G01 X-1.3471 Y1.6580  
G01 X-1.3495 Y1.6572  
G01 X-1.3571 Y1.6560  
G01 X-1.3649 Y1.6560  
G01 X-1.3725 Y1.6572  
G01 X-1.3749 Y1.6580  
G01 X-1.3805 Y1.6580  
G01 X-1.3844 Y1.6619  
G01 X-1.3867 Y1.6631  
G01 X-1.3929 Y1.6676  
G01 X-1.3984 Y1.6731  
G01 X-1.4029 Y1.6793  
G01 X-1.4041 Y1.6816  
G01 X-1.4080 Y1.6855  
G01 X-1.4080 Y1.6911  
G01 X-1.4088 Y1.6935  
G01 X-1.4100 Y1.7011  
G01 X-1.4100 Y1.7109  
G01 X-1.4088 Y1.7185  
G01 X-1.4080 Y1.7209  
G01 X-1.4080 Y1.7245  
G01 X-1.4062 Y1.7263  
G01 X-1.4029 Y1.7327  
G01 X-1.3984 Y1.7389  
G01 X-1.3973 Y1.7400  
G01 X-1.7197 Y1.7400  
G01 X-1.7148 Y1.7333  
G01 X-1.7110 Y1.7257  
G01 X-1.7083 Y1.7176  
G01 X-1.7070 Y1.7092  
G01 X-1.7070 Y1.7007  
G01 X-1.7083 Y1.6924  
G01 X-1.7110 Y1.6843  
G01 X-1.7148 Y1.6767  
G01 X-1.7198 Y1.6698  
G01 X-1.7258 Y1.6638  
G01 X-1.7327 Y1.6588  
G01 X-1.7403 Y1.6550  
G01 X-1.7484 Y1.6523  
G01 X-1.7568 Y1.6510  
G01 X-1.8086 Y1.6510  
G01 X-1.8390 Y1.6206  
G01 X-1.8390 Y1.4860  
G01 X-1.6338 Y1.4860  
G01 X-1.6254 Y1.4847  
G01 X-1.6173 Y1.4820  
G01 X-1.6097 Y1.4782  
G01 X-1.6028 Y1.4732  
G01 X-1.5968 Y1.4672  
G01 X-1.5266 Y1.3970  
G01 X-1.5180 Y1.3970  
G01 X-1.5101 Y1.3957  
G01 X-1.5024 Y1.3933  
G01 X-1.4953 Y1.3896  
G01 X-1.4888 Y1.3849  
G01 X-1.4831 Y1.3792  
G01 X-1.4784 Y1.3727  
G01 X-1.4747 Y1.3656  
G01 X-1.4723 Y1.3579  
G01 X-1.4710 Y1.3500  
G01 X-1.4710 Y1.3420  
G01 X-1.4723 Y1.3341  
G01 X-1.4747 Y1.3264  
G01 X-1.4784 Y1.3193  
G01 X-1.4831 Y1.3128  
G01 X-1.4888 Y1.3071  
G01 X-1.4953 Y1.3024  
G01 X-1.5024 Y1.2987  
G01 X-1.5039 Y1.2983  
G01 X-1.4985 Y1.2929  
G01 X-1.4964 Y1.2902  
G01 X-1.4953 Y1.2896  
G01 X-1.4888 Y1.2849  
G01 X-1.4831 Y1.2792  
G01 X-1.4784 Y1.2727  
G01 X-1.4747 Y1.2656  
G01 X-1.4723 Y1.2579  
G01 X-1.4710 Y1.2500  
G01 X-1.4710 Y1.2420  
G01 X-1.4723 Y1.2341  
G01 X-1.4747 Y1.2264  
G01 X-1.4784 Y1.2193  
G01 X-1.4831 Y1.2128  
G01 X-1.4888 Y1.2071  
G01 X-1.4953 Y1.2024  
G01 X-1.4964 Y1.2018  
G01 X-1.4985 Y1.1991  
G01 X-1.5039 Y1.1937  
G01 X-1.5024 Y1.1933  
G01 X-1.4953 Y1.1896  
G01 X-1.4912 Y1.1866  
G01 X-1.4902 Y1.1876  
G01 X-1.4854 Y1.1908  
G01 X-1.4852 Y1.1909  
G01 X-1.4669 Y1.2092  
G01 X-1.4570 Y1.2331  
G01 X-1.4570 Y1.2589  
G01 X-1.4689 Y1.2875  
G01 X-1.4700 Y1.2931  
G01 X-1.4700 Y1.2989  
G01 X-1.4698 Y1.2999  
G01 X-1.4689 Y1.3045  
G01 X-1.4667 Y1.3097  
G01 X-1.4570 Y1.3331  
G01 X-1.4570 Y1.3589  
G01 X-1.4669 Y1.3828  
G01 X-1.4852 Y1.4011  
G01 X-1.5091 Y1.4110  
G01 X-1.5117 Y1.4110  
G01 X-1.5173 Y1.4121  
G01 X-1.5226 Y1.4143  
G01 X-1.5273 Y1.4175  
G01 X-1.5313 Y1.4215  
G01 X-1.5995 Y1.4896  
G01 X-1.6245 Y1.5000  
G01 X-1.7989 Y1.5000  
G01 X-1.8045 Y1.5011  
G01 X-1.8097 Y1.5033  
G01 X-1.8145 Y1.5065  
G01 X-1.8185 Y1.5105  
G01 X-1.8217 Y1.5153  
G01 X-1.8239 Y1.5205  
G01 X-1.8250 Y1.5261  
G01 X-1.8250 Y1.6057  
G01 X-1.8239 Y1.6113  
G01 X-1.8217 Y1.6166  
G01 X-1.8185 Y1.6213  
G01 X-1.8145 Y1.6253  
G01 X-1.8093 Y1.6305  
G01 X-1.8046 Y1.6337  
G01 X-1.7993 Y1.6359  
G01 X-1.7937 Y1.6370  
G01 X-1.7475 Y1.6370  
G01 X-1.7333 Y1.6429  
G01 X-1.7314 Y1.6437  
G01 X-1.7225 Y1.6474  
G01 X-1.7034 Y1.6665  
G01 X-1.6997 Y1.6754  
G01 X-1.6989 Y1.6773  
G01 X-1.6988 Y1.6774  
G01 X-1.6930 Y1.6915  
G01 X-1.6930 Y1.6999  
G01 X-1.6919 Y1.7055  
G01 X-1.6897 Y1.7107  
G01 X-1.6865 Y1.7155  
G01 X-1.6825 Y1.7195  
G01 X-1.6777 Y1.7227  
G01 X-1.6725 Y1.7249  
G01 X-1.6669 Y1.7260  
G01 X-1.4501 Y1.7260  
G01 X-1.4445 Y1.7249  
G01 X-1.4393 Y1.7227  
G01 X-1.4345 Y1.7195  
G01 X-1.4305 Y1.7155  
G01 X-1.4273 Y1.7107  
G01 X-1.4251 Y1.7055  
G01 X-1.4240 Y1.6999  
G01 X-1.4240 Y1.6925  
G01 X-1.4231 Y1.6903  
G01 X-1.4220 Y1.6848  
G01 X-1.4220 Y1.6797  
G01 X-1.4203 Y1.6780  
G01 X-1.4185 Y1.6762  
G01 X-1.4175 Y1.6747  
G01 X-1.4153 Y1.6715  
G01 X-1.4144 Y1.6693  
G01 X-1.3967 Y1.6516  
G01 X-1.3945 Y1.6507  
G01 X-1.3914 Y1.6486  
G01 X-1.3898 Y1.6475  
G01 X-1.3881 Y1.6458  
G01 X-1.3863 Y1.6440  
G01 X-1.3813 Y1.6440  
G01 X-1.3757 Y1.6429  
G01 X-1.3735 Y1.6420  
G01 X-1.3485 Y1.6420  
G01 X-1.3463 Y1.6429  
G01 X-1.3408 Y1.6440  
G01 X-1.3357 Y1.6440  
G01 X-1.3340 Y1.6457  
G01 X-1.3322 Y1.6475  
G01 X-1.3307 Y1.6485  
G01 X-1.3275 Y1.6507  
G01 X-1.3253 Y1.6516  
G01 X-1.3015 Y1.6754  
G01 X-1.2534 Y1.7235  
G01 X-1.2486 Y1.7267  
G01 X-1.2434 Y1.7289  
G01 X-1.2377 Y1.7300  
G01 X-1.1470 Y1.7300  
G01 X-1.1426 Y1.7332  
G01 X-1.1360 Y1.7366  
G01 X-1.1290 Y1.7388  
G01 X-1.1217 Y1.7400  
G01 X-1.0623 Y1.7400  
G01 X-1.0550 Y1.7388  
G01 X-1.0480 Y1.7366  
G01 X-1.0428 Y1.7339  
G01 X-1.0405 Y1.7339  
G01 X-1.0377 Y1.7334  
G01 X-1.0349 Y1.7328  
G01 X-1.0323 Y1.7317  
G01 X-1.0297 Y1.7306  
G01 X-1.0273 Y1.7290  
G01 X-1.0249 Y1.7275  
G01 X-1.0229 Y1.7254  
G01 X-1.0209 Y1.7234  
G01 X-1.0193 Y1.7210  
G01 X-1.0177 Y1.7187  
G01 X-1.0166 Y1.7161  
G01 X-1.0155 Y1.7134  
G01 X-1.0150 Y1.7106  
G01 X-1.0144 Y1.7078  
G01 X-1.0144 Y1.7049  
G01 X-1.0144 Y1.7021  
G01 X-1.0150 Y1.0410  
G01 X-1.0150 Y1.0382  
G01 X-1.0150 Y1.0354  
G01 X-1.0151 Y1.0247  
G01 X-1.0110 Y1.0148  
G01 X-1.0099 Y1.0121  
G01 X-1.0088 Y1.0096  
G01 X-1.0048 Y0.9996  
G01 X-0.9972 Y0.9921  
G01 X-0.9952 Y0.9901  
G01 X-0.9932 Y0.9881  
G01 X-0.6913 Y0.6833  
G01 X-0.6893 Y0.6813  
G01 X-0.6877 Y0.6789  
G01 X-0.6861 Y0.6766  
G01 X-0.6850 Y0.6739  
G01 X-0.6840 Y0.6713  
G01 X-0.6834 Y0.6684  
G01 X-0.6829 Y0.6657  
G01 X-0.6829 Y0.6628  
G01 X-0.6829 Y0.6600  
G01 X-0.6834 Y0.6571  
G01 X-0.6840 Y0.6544  
G01 X-0.6851 Y0.6517  
G01 X-0.6862 Y0.6491  
G01 X-0.6878 Y0.6467  
G01 X-0.6894 Y0.6443  
G01 X-0.6914 Y0.6423  
G01 X-0.8251 Y0.5093  
G01 X-0.8270 Y0.5073  
G01 X-0.8272 Y0.5072  
G01 X-0.8295 Y0.5057  
G01 X-0.8318 Y0.5041  
G01 X-0.8319 Y0.5041  
G01 X-0.8345 Y0.5030  
G01 X-0.8370 Y0.5019  
G01 X-0.8372 Y0.5019  
G01 X-0.8399 Y0.5014  
G01 X-0.8426 Y0.5008  
G01 X-0.8428 Y0.5008  
G01 X-0.8456 Y0.5008  
G01 X-1.3464 Y0.4990  
G01 X-1.3492 Y0.4990  
G01 X-1.3520 Y0.4990  
G01 X-4.0067 Y0.4990  
G01 X-4.0123 Y0.5001  
G01 X-4.0176 Y0.5023  
G01 X-4.0224 Y0.5055  
G01 X-4.0264 Y0.5095  
G01 X-4.1245 Y0.6076  
G01 X-4.1615 Y0.6290  
G01 X-4.2027 Y0.6400  
G01 X-4.2453 Y0.6400  
G01 X-4.2865 Y0.6290  
G01 X-4.3235 Y0.6076  
G01 X-4.3536 Y0.5775  
G01 X-4.3750 Y0.5405  
G01 X-4.3860 Y0.4993  
G01 X-4.3860 Y0.4567  
G01 X-4.3750 Y0.4155  
G01 X-4.3536 Y0.3785  
G01 X-4.2345 Y0.2594  
G01 X-4.1975 Y0.2380  
G01 X-4.1563 Y0.2270  
G01 X-4.1137 Y0.2270  
G01 X-4.0725 Y0.2380  
G01 X-4.0355 Y0.2594  
G01 X-4.0224 Y0.2725  
G01 X-4.0176 Y0.2757  
G01 X-4.0123 Y0.2779  
G01 X-4.0067 Y0.2790  
G01 X-1.3690 Y0.2790  
G01 X-1.3681 Y0.2791  
G01 X-1.3661 Y0.2790  
G01 X-1.3642 Y0.2790  
G01 X-1.3639 Y0.2789  
G01 X-1.3517 Y0.2790  
G01 X-1.3488 Y0.2790  
G01 X-1.3460 Y0.2790  
G01 X-1.3397 Y0.2790  
G01 X-1.3395 Y0.2790  
G01 X-1.3375 Y0.2790  
G01 X-1.3356 Y0.2792  
G01 X-1.3347 Y0.2791  
G01 X-0.7908 Y0.2810  
G01 X-0.7879 Y0.2810  
G01 X-0.7852 Y0.2810  
G01 X-0.7734 Y0.2810  
G01 X-0.7622 Y0.2840  
G01 X-0.7595 Y0.2848  
G01 X-0.7568 Y0.2855  
G01 X-0.7455 Y0.2885  
G01 X-0.7354 Y0.2943  
G01 X-0.7329 Y0.2958  
G01 X-0.7305 Y0.2972  
G01 X-0.7204 Y0.3030  
G01 X-0.7122 Y0.3112  
G01 X-0.7102 Y0.3133  
G01 X-0.7082 Y0.3152  
G01 X-0.5191 Y0.5035  
G01 X-0.5190 Y0.5036  
G01 X-0.5171 Y0.5055  
G01 X-0.5151 Y0.5074  
G01 X-0.5150 Y0.5075  
G01 X-0.5126 Y0.5090  
G01 X-0.5104 Y0.5106  
G01 X-0.5102 Y0.5106  
G01 X-0.5101 Y0.5107  
G01 X-0.5076 Y0.5117  
G01 X-0.5051 Y0.5127  
G01 X-0.5050 Y0.5128  
G01 X-0.5048 Y0.5128  
G01 X-0.5021 Y0.5133  
G01 X-0.4995 Y0.5138  
G01 X-0.4993 Y0.5138  
G01 X-0.4992 Y0.5138  
G01 X-0.4965 Y0.5138  
G01 X-0.4938 Y0.5138  
G01 X-0.4936 Y0.5138  
G01 X-0.4337 Y0.5131  
G01 X-0.4329 Y0.5132  
G01 X-0.4308 Y0.5131  
G01 X-0.4288 Y0.5131  
G01 X-0.4280 Y0.5129  
G01 X-0.4272 Y0.5128  
G01 X-0.4252 Y0.5123  
G01 X-0.4232 Y0.5119  
G01 X-0.4225 Y0.5116  
G01 X-0.4166 Y0.5100  
G01 X-0.2943 Y0.5100  
G01 X-0.2932 Y0.5104  
G01 X-0.2915 Y0.5107  
G01 X-0.2898 Y0.5112  
G01 X-0.2887 Y0.5112  
G01 X-0.2876 Y0.5115  
G01 X-0.2859 Y0.5114  
G01 X-0.2841 Y0.5115  
G01 X-0.2830 Y0.5114  
G01 X-0.2282 Y0.5108  
G01 X-0.2274 Y0.5109  
G01 X-0.2253 Y0.5107  
G01 X-0.2232 Y0.5107  
G01 X-0.2225 Y0.5106  
G01 X-0.2217 Y0.5105  
G01 X-0.2198 Y0.5100  
G01 X-0.1619 Y0.5100  
G01 X-0.1617 Y0.5100  
G01 X-0.1590 Y0.5100  
G01 X-0.1564 Y0.5100  
G01 X-0.1562 Y0.5100  
G01 X-0.1477 Y0.5099  
G01 X-0.1471 Y0.5100  
G01 X-0.1450 Y0.5100  
G01 X-0.1429 Y0.5101  
G01 X-0.1422 Y0.5100  
G01 X-0.0974 Y0.5100  
G01 X-0.0749 Y0.5160  
G01 X-0.0742 Y0.5163  
G01 X-0.0725 Y0.5170  
G01 X-0.0715 Y0.5172  
G01 X-0.0706 Y0.5175  
G01 X-0.0687 Y0.5177  
G01 X-0.0669 Y0.5181  
G01 X-0.0659 Y0.5181  
G01 X-0.0650 Y0.5182  
G01 X-0.0631 Y0.5181  
G01 X-0.0611 Y0.5181  
G01 X-0.0602 Y0.5179  
G01 X-0.0593 Y0.5179  
G01 X-0.0574 Y0.5174  
G01 X-0.0555 Y0.5170  
G01 X-0.0547 Y0.5166  
G01 X-0.0537 Y0.5164  
G01 X-0.0520 Y0.5155  
G01 X-0.0503 Y0.5148  
G01 X-0.0495 Y0.5143  
G01 X-0.0486 Y0.5138  
G01 X-0.0471 Y0.5127  
G01 X-0.0455 Y0.5116  
G01 X-0.0448 Y0.5110  
G01 X-0.0441 Y0.5104  
G01 X-0.0428 Y0.5089  
G01 X-0.0415 Y0.5076  
G01 X-0.0409 Y0.5068  
G01 X-0.0403 Y0.5061  
G01 X-0.0394 Y0.5044  
G01 X-0.0383 Y0.5028  
G01 X-0.0379 Y0.5020  
G01 X-0.0375 Y0.5011  
G01 X-0.0368 Y0.4993  
G01 X-0.0361 Y0.4976  
G01 X-0.0359 Y0.4966  
G01 X-0.0356 Y0.4957  
G01 X-0.0354 Y0.4938  
G01 X-0.0350 Y0.4920  
G01 X-0.0350 Y0.4910  
G01 X-0.0349 Y0.4901  
G01 X-0.0350 Y0.4882  
G01 X-0.0350 Y0.0611  
G01 X-0.0361 Y0.0555  
G01 X-0.0383 Y0.0503  
G01 X-0.0415 Y0.0455  
G00 Z0.1000  
G00 X-0.1855 Y0.1660  
G01 Z-0.0070 F10    
G01 X-0.1660 Y0.1855  F20    
G01 X-0.1522 Y0.2095  
G01 X-0.1450 Y0.2362  
G01 X-0.1450 Y0.2638  
G01 X-0.1522 Y0.2905  
G01 X-0.1660 Y0.3145  
G01 X-0.1855 Y0.3340  
G01 X-0.2095 Y0.3478  
G01 X-0.2362 Y0.3550  
G01 X-0.2638 Y0.3550  
G01 X-0.2905 Y0.3478  
G01 X-0.3145 Y0.3340  
G01 X-0.3340 Y0.3145  
G01 X-0.3478 Y0.2905  
G01 X-0.3550 Y0.2638  
G01 X-0.3550 Y0.2362  
G01 X-0.3478 Y0.2095  
G01 X-0.3340 Y0.1855  
G01 X-0.3145 Y0.1660  
G01 X-0.2905 Y0.1522  
G01 X-0.2638 Y0.1450  
G01 X-0.2362 Y0.1450  
G01 X-0.2095 Y0.1522  
G01 X-0.1855 Y0.1660  
G00 Z0.1000  
G00 X-0.1855 Y2.6660  
G01 Z-0.0070 F10    
G01 X-0.1660 Y2.6855  F20    
G01 X-0.1522 Y2.7095  
G01 X-0.1450 Y2.7362  
G01 X-0.1450 Y2.7638  
G01 X-0.1522 Y2.7905  
G01 X-0.1660 Y2.8145  
G01 X-0.1855 Y2.8340  
G01 X-0.2095 Y2.8478  
G01 X-0.2362 Y2.8550  
G01 X-0.2638 Y2.8550  
G01 X-0.2905 Y2.8478  
G01 X-0.3145 Y2.8340  
G01 X-0.3340 Y2.8145  
G01 X-0.3478 Y2.7905  
G01 X-0.3550 Y2.7638  
G01 X-0.3550 Y2.7362  
G01 X-0.3478 Y2.7095  
G01 X-0.3340 Y2.6855  
G01 X-0.3145 Y2.6660  
G01 X-0.2905 Y2.6522  
G01 X-0.2638 Y2.6450  
G01 X-0.2362 Y2.6450  
G01 X-0.2095 Y2.6522  
G01 X-0.1855 Y2.6660  
G00 Z0.1000  
G00 X-1.2578 Y2.6694  
G01 Z-0.0070 F10    
G01 X-1.2578 Y2.6694  F20    
G01 X-1.2576 Y2.6700  
G01 X-1.2565 Y2.6727  
G01 X-1.2557 Y2.6745  
G01 X-1.2521 Y2.6832  
G01 X-1.2519 Y2.7102  
G01 X-1.2565 Y2.7214  
G01 X-1.2568 Y2.7222  
G01 X-1.2579 Y2.7247  
G01 X-1.2586 Y2.7266  
G01 X-1.2622 Y2.7353  
G01 X-1.2812 Y2.7545  
G01 X-1.2924 Y2.7592  
G01 X-1.2930 Y2.7594  
G01 X-1.2957 Y2.7605  
G01 X-1.2975 Y2.7613  
G01 X-1.3062 Y2.7649  
G01 X-1.5341 Y2.7659  
G01 X-1.5369 Y2.7659  
G01 X-1.5371 Y2.7659  
G01 X-1.5398 Y2.7665  
G01 X-1.5424 Y2.7670  
G01 X-1.7727 Y2.7670  
G01 X-1.7783 Y2.7681  
G01 X-1.7836 Y2.7703  
G01 X-1.7883 Y2.7735  
G01 X-1.7923 Y2.7775  
G01 X-1.8695 Y2.8546  
G01 X-1.8784 Y2.8583  
G01 X-1.8803 Y2.8591  
G01 X-1.8804 Y2.8592  
G01 X-1.8945 Y2.8650  
G01 X-1.9215 Y2.8650  
G01 X-1.9357 Y2.8591  
G01 X-1.9376 Y2.8583  
G01 X-1.9465 Y2.8546  
G01 X-1.9656 Y2.8355  
G01 X-1.9693 Y2.8266  
G01 X-1.9701 Y2.8247  
G01 X-1.9702 Y2.8246  
G01 X-1.9760 Y2.8105  
G01 X-1.9760 Y2.7835  
G01 X-1.9701 Y2.7693  
G01 X-1.9693 Y2.7674  
G01 X-1.9656 Y2.7585  
G01 X-1.9357 Y2.7285  
G01 X-1.9317 Y2.7245  
G01 X-1.9285 Y2.7198  
G01 X-1.9263 Y2.7145  
G01 X-1.9252 Y2.7089  
G01 X-1.9252 Y2.7031  
G01 X-1.9262 Y2.6979  
G01 X-1.9263 Y2.6975  
G01 X-1.9285 Y2.6923  
G01 X-1.9317 Y2.6875  
G01 X-1.9357 Y2.6835  
G01 X-1.9404 Y2.6803  
G01 X-1.9457 Y2.6781  
G01 X-1.9513 Y2.6770  
G01 X-2.2419 Y2.6770  
G01 X-2.2475 Y2.6781  
G01 X-2.2527 Y2.6803  
G01 X-2.2575 Y2.6835  
G01 X-2.2615 Y2.6875  
G01 X-2.2647 Y2.6923  
G01 X-2.2669 Y2.6975  
G01 X-2.2680 Y2.7031  
G01 X-2.2680 Y2.7125  
G01 X-2.2689 Y2.7147  
G01 X-2.2700 Y2.7202  
G01 X-2.2700 Y2.7253  
G01 X-2.2717 Y2.7270  
G01 X-2.2735 Y2.7288  
G01 X-2.2745 Y2.7303  
G01 X-2.2767 Y2.7335  
G01 X-2.2776 Y2.7357  
G01 X-2.2953 Y2.7534  
G01 X-2.2975 Y2.7543  
G01 X-2.3006 Y2.7564  
G01 X-2.3022 Y2.7575  
G01 X-2.3039 Y2.7592  
G01 X-2.3057 Y2.7610  
G01 X-2.3107 Y2.7610  
G01 X-2.3163 Y2.7621  
G01 X-2.3185 Y2.7630  
G01 X-2.5483 Y2.7630  
G01 X-2.5539 Y2.7641  
G01 X-2.5561 Y2.7650  
G01 X-2.6422 Y2.7650  
G01 X-2.6438 Y2.7647  
G01 X-2.6473 Y2.7640  
G01 X-2.7877 Y2.7640  
G01 X-2.7934 Y2.7651  
G01 X-2.7986 Y2.7673  
G01 X-2.8034 Y2.7705  
G01 X-2.8074 Y2.7745  
G01 X-2.8743 Y2.8414  
G01 X-2.8780 Y2.8429  
G01 X-2.8829 Y2.8450  
G01 X-2.8833 Y2.8451  
G01 X-2.8880 Y2.8483  
G01 X-2.8887 Y2.8490  
G01 X-2.8897 Y2.8490  
G01 X-2.8953 Y2.8501  
G01 X-2.8975 Y2.8510  
G01 X-2.9265 Y2.8510  
G01 X-2.9287 Y2.8501  
G01 X-2.9342 Y2.8490  
G01 X-2.9393 Y2.8490  
G01 X-2.9420 Y2.8463  
G01 X-2.9428 Y2.8455  
G01 X-2.9466 Y2.8430  
G01 X-2.9475 Y2.8423  
G01 X-2.9497 Y2.8414  
G01 X-2.9674 Y2.8237  
G01 X-2.9683 Y2.8215  
G01 X-2.9704 Y2.8184  
G01 X-2.9715 Y2.8168  
G01 X-2.9732 Y2.8151  
G01 X-2.9750 Y2.8133  
G01 X-2.9750 Y2.8083  
G01 X-2.9761 Y2.8027  
G01 X-2.9770 Y2.8005  
G01 X-2.9770 Y2.7755  
G01 X-2.9761 Y2.7733  
G01 X-2.9750 Y2.7678  
G01 X-2.9750 Y2.7627  
G01 X-2.9733 Y2.7610  
G01 X-2.9715 Y2.7592  
G01 X-2.9705 Y2.7577  
G01 X-2.9683 Y2.7545  
G01 X-2.9674 Y2.7523  
G01 X-2.9497 Y2.7346  
G01 X-2.9475 Y2.7337  
G01 X-2.9428 Y2.7305  
G01 X-2.9408 Y2.7285  
G01 X-2.9388 Y2.7265  
G01 X-2.9368 Y2.7245  
G01 X-2.9336 Y2.7197  
G01 X-2.9314 Y2.7145  
G01 X-2.9303 Y2.7089  
G01 X-2.9303 Y2.7031  
G01 X-2.9314 Y2.6975  
G01 X-2.9336 Y2.6923  
G01 X-2.9368 Y2.6875  
G01 X-2.9408 Y2.6835  
G01 X-2.9455 Y2.6803  
G01 X-2.9508 Y2.6781  
G01 X-2.9564 Y2.6770  
G01 X-4.0633 Y2.6770  
G01 X-4.0643 Y2.6769  
G01 X-4.0662 Y2.6770  
G01 X-4.0681 Y2.6770  
G01 X-4.0690 Y2.6772  
G01 X-4.0700 Y2.6772  
G01 X-4.0718 Y2.6777  
G01 X-4.0737 Y2.6781  
G01 X-4.0746 Y2.6785  
G01 X-4.0755 Y2.6787  
G01 X-4.0772 Y2.6796  
G01 X-4.0790 Y2.6803  
G01 X-4.0798 Y2.6808  
G01 X-4.0806 Y2.6813  
G01 X-4.0821 Y2.6824  
G01 X-4.0837 Y2.6835  
G01 X-4.0844 Y2.6841  
G01 X-4.0851 Y2.6847  
G01 X-4.0864 Y2.6862  
G01 X-4.0878 Y2.6875  
G01 X-4.0883 Y2.6883  
G01 X-4.0889 Y2.6890  
G01 X-4.0899 Y2.6907  
G01 X-4.0909 Y2.6923  
G01 X-4.0913 Y2.6931  
G01 X-4.0944 Y2.6985  
G01 X-4.1245 Y2.7286  
G01 X-4.1615 Y2.7500  
G01 X-4.2027 Y2.7610  
G01 X-4.2453 Y2.7610  
G01 X-4.2865 Y2.7500  
G01 X-4.3235 Y2.7286  
G01 X-4.3536 Y2.6985  
G01 X-4.3750 Y2.6615  
G01 X-4.3860 Y2.6203  
G01 X-4.3860 Y2.4567  
G01 X-4.3750 Y2.4155  
G01 X-4.3536 Y2.3785  
G01 X-4.3235 Y2.3484  
G01 X-4.2865 Y2.3270  
G01 X-4.2453 Y2.3160  
G01 X-4.2027 Y2.3160  
G01 X-4.1615 Y2.3270  
G01 X-4.1245 Y2.3484  
G01 X-4.0944 Y2.3785  
G01 X-4.0730 Y2.4155  
G01 X-4.0620 Y2.4567  
G01 X-4.0620 Y2.4949  
G01 X-4.0609 Y2.5005  
G01 X-4.0587 Y2.5057  
G01 X-4.0555 Y2.5105  
G01 X-4.0515 Y2.5145  
G01 X-4.0467 Y2.5177  
G01 X-4.0415 Y2.5199  
G01 X-4.0359 Y2.5210  
G01 X-2.6755 Y2.5210  
G01 X-2.6726 Y2.5267  
G01 X-2.6679 Y2.5332  
G01 X-2.6661 Y2.5350  
G01 X-4.0760 Y2.5350  
G01 X-4.0760 Y2.4707  
G01 X-4.0774 Y2.4563  
G01 X-4.0803 Y2.4420  
G01 X-4.0845 Y2.4281  
G01 X-4.0900 Y2.4146  
G01 X-4.0969 Y2.4018  
G01 X-4.1050 Y2.3897  
G01 X-4.1142 Y2.3785  
G01 X-4.1245 Y2.3682  
G01 X-4.1357 Y2.3590  
G01 X-4.1478 Y2.3509  
G01 X-4.1606 Y2.3440  
G01 X-4.1741 Y2.3385  
G01 X-4.1880 Y2.3343  
G01 X-4.2023 Y2.3314  
G01 X-4.2167 Y2.3300  
G01 X-4.2313 Y2.3300  
G01 X-4.2457 Y2.3314  
G01 X-4.2600 Y2.3343  
G01 X-4.2739 Y2.3385  
G01 X-4.2874 Y2.3440  
G01 X-4.3002 Y2.3509  
G01 X-4.3123 Y2.3590  
G01 X-4.3235 Y2.3682  
G01 X-4.3338 Y2.3785  
G01 X-4.3430 Y2.3897  
G01 X-4.3511 Y2.4018  
G01 X-4.3580 Y2.4146  
G01 X-4.3635 Y2.4281  
G01 X-4.3677 Y2.4420  
G01 X-4.3706 Y2.4563  
G01 X-4.3720 Y2.4707  
G01 X-4.3720 Y2.6063  
G01 X-4.3706 Y2.6207  
G01 X-4.3677 Y2.6350  
G01 X-4.3635 Y2.6489  
G01 X-4.3580 Y2.6624  
G01 X-4.3511 Y2.6752  
G01 X-4.3430 Y2.6873  
G01 X-4.3338 Y2.6985  
G01 X-4.3235 Y2.7088  
G01 X-4.3123 Y2.7180  
G01 X-4.3002 Y2.7261  
G01 X-4.2874 Y2.7330  
G01 X-4.2739 Y2.7385  
G01 X-4.2600 Y2.7427  
G01 X-4.2457 Y2.7456  
G01 X-4.2313 Y2.7470  
G01 X-4.2167 Y2.7470  
G01 X-4.2023 Y2.7456  
G01 X-4.1880 Y2.7427  
G01 X-4.1741 Y2.7385  
G01 X-4.1606 Y2.7330  
G01 X-4.1478 Y2.7261  
G01 X-4.1357 Y2.7180  
G01 X-4.1245 Y2.7088  
G01 X-4.1142 Y2.6985  
G01 X-4.1050 Y2.6873  
G01 X-4.0969 Y2.6752  
G01 X-4.0904 Y2.6630  
G01 X-2.8541 Y2.6630  
G01 X-2.8549 Y2.6636  
G01 X-2.8604 Y2.6691  
G01 X-2.9323 Y2.7410  
G01 X-2.9335 Y2.7410  
G01 X-2.9374 Y2.7449  
G01 X-2.9397 Y2.7461  
G01 X-2.9459 Y2.7506  
G01 X-2.9514 Y2.7561  
G01 X-2.9559 Y2.7623  
G01 X-2.9571 Y2.7646  
G01 X-2.9610 Y2.7685  
G01 X-2.9610 Y2.7741  
G01 X-2.9618 Y2.7765  
G01 X-2.9630 Y2.7841  
G01 X-2.9630 Y2.7919  
G01 X-2.9618 Y2.7995  
G01 X-2.9610 Y2.8019  
G01 X-2.9610 Y2.8075  
G01 X-2.9571 Y2.8114  
G01 X-2.9559 Y2.8137  
G01 X-2.9514 Y2.8199  
G01 X-2.9459 Y2.8254  
G01 X-2.9397 Y2.8299  
G01 X-2.9374 Y2.8311  
G01 X-2.9335 Y2.8350  
G01 X-2.9279 Y2.8350  
G01 X-2.9255 Y2.8358  
G01 X-2.9179 Y2.8370  
G01 X-2.9061 Y2.8370  
G01 X-2.8985 Y2.8358  
G01 X-2.8961 Y2.8350  
G01 X-2.8945 Y2.8350  
G01 X-2.8938 Y2.8343  
G01 X-2.8912 Y2.8334  
G01 X-2.8843 Y2.8299  
G01 X-2.8781 Y2.8254  
G01 X-2.8027 Y2.7500  
G01 X-2.6393 Y2.7500  
G01 X-2.6330 Y2.7510  
G01 X-2.5650 Y2.7510  
G01 X-2.5571 Y2.7497  
G01 X-2.5548 Y2.7490  
G01 X-2.3271 Y2.7490  
G01 X-2.3195 Y2.7478  
G01 X-2.3171 Y2.7470  
G01 X-2.3115 Y2.7470  
G01 X-2.3076 Y2.7431  
G01 X-2.3053 Y2.7419  
G01 X-2.2991 Y2.7374  
G01 X-2.2936 Y2.7319  
G01 X-2.2891 Y2.7257  
G01 X-2.2879 Y2.7234  
G01 X-2.2840 Y2.7195  
G01 X-2.2840 Y2.7139  
G01 X-2.2832 Y2.7115  
G01 X-2.2820 Y2.7039  
G01 X-2.2820 Y2.6961  
G01 X-2.2832 Y2.6885  
G01 X-2.2840 Y2.6861  
G01 X-2.2840 Y2.6805  
G01 X-2.2879 Y2.6766  
G01 X-2.2891 Y2.6743  
G01 X-2.2936 Y2.6681  
G01 X-2.2987 Y2.6630  
G01 X-1.8504 Y2.6630  
G01 X-1.9492 Y2.7618  
G01 X-1.9542 Y2.7687  
G01 X-1.9580 Y2.7763  
G01 X-1.9607 Y2.7844  
G01 X-1.9620 Y2.7927  
G01 X-1.9620 Y2.8012  
G01 X-1.9607 Y2.8096  
G01 X-1.9580 Y2.8177  
G01 X-1.9542 Y2.8253  
G01 X-1.9492 Y2.8322  
G01 X-1.9432 Y2.8382  
G01 X-1.9363 Y2.8432  
G01 X-1.9287 Y2.8470  
G01 X-1.9206 Y2.8497  
G01 X-1.9122 Y2.8510  
G01 X-1.9038 Y2.8510  
G01 X-1.8954 Y2.8497  
G01 X-1.8873 Y2.8470  
G01 X-1.8797 Y2.8432  
G01 X-1.8728 Y2.8382  
G01 X-1.7876 Y2.7530  
G01 X-1.5517 Y2.7530  
G01 X-1.5452 Y2.7520  
G01 X-1.3155 Y2.7510  
G01 X-1.3071 Y2.7496  
G01 X-1.2991 Y2.7470  
G01 X-1.2915 Y2.7431  
G01 X-1.2846 Y2.7380  
G01 X-1.2787 Y2.7320  
G01 X-1.2737 Y2.7251  
G01 X-1.2699 Y2.7175  
G01 X-1.2673 Y2.7094  
G01 X-1.2660 Y2.7010  
G01 X-1.2660 Y2.6925  
G01 X-1.2674 Y2.6841  
G01 X-1.2700 Y2.6761  
G01 X-1.2739 Y2.6685  
G01 X-1.2790 Y2.6616  
G01 X-1.2850 Y2.6557  
G01 X-1.2919 Y2.6507  
G01 X-1.2995 Y2.6469  
G01 X-1.3076 Y2.6443  
G01 X-1.3160 Y2.6430  
G01 X-1.5015 Y2.6438  
G01 X-1.4993 Y2.6426  
G01 X-1.4928 Y2.6379  
G01 X-1.4871 Y2.6322  
G01 X-1.4824 Y2.6257  
G01 X-1.4787 Y2.6186  
G01 X-1.4763 Y2.6109  
G01 X-1.4750 Y2.6030  
G01 X-1.4750 Y2.5950  
G01 X-1.4763 Y2.5871  
G01 X-1.4787 Y2.5794  
G01 X-1.4824 Y2.5723  
G01 X-1.4871 Y2.5658  
G01 X-1.4928 Y2.5601  
G01 X-1.4993 Y2.5554  
G01 X-1.5064 Y2.5517  
G01 X-1.5141 Y2.5493  
G01 X-1.5157 Y2.5490  
G01 X-1.5141 Y2.5487  
G01 X-1.5064 Y2.5463  
G01 X-1.4993 Y2.5426  
G01 X-1.4967 Y2.5408  
G01 X-1.4892 Y2.5439  
G01 X-1.4709 Y2.5622  
G01 X-1.4610 Y2.5861  
G01 X-1.4610 Y2.5977  
G01 X-1.4610 Y2.6005  
G01 X-1.4610 Y2.6033  
G01 X-1.4610 Y2.6035  
G01 X-1.4604 Y2.6062  
G01 X-1.4599 Y2.6089  
G01 X-1.4598 Y2.6091  
G01 X-1.4588 Y2.6116  
G01 X-1.4577 Y2.6142  
G01 X-1.4576 Y2.6143  
G01 X-1.4561 Y2.6166  
G01 X-1.4545 Y2.6190  
G01 X-1.4525 Y2.6210  
G01 X-1.4505 Y2.6230  
G01 X-1.4481 Y2.6246  
G01 X-1.4457 Y2.6262  
G01 X-1.4456 Y2.6262  
G01 X-1.4430 Y2.6273  
G01 X-1.4405 Y2.6284  
G01 X-1.4403 Y2.6284  
G01 X-1.4376 Y2.6289  
G01 X-1.4349 Y2.6295  
G01 X-1.4347 Y2.6295  
G01 X-1.4319 Y2.6295  
G01 X-1.4291 Y2.6295  
G01 X-1.3068 Y2.6289  
G01 X-1.2956 Y2.6335  
G01 X-1.2948 Y2.6338  
G01 X-1.2923 Y2.6349  
G01 X-1.2904 Y2.6356  
G01 X-1.2817 Y2.6392  
G01 X-1.2625 Y2.6582  
G01 X-1.2578 Y2.6694  
G00 Z0.1000  
G00 X-1.2624 Y2.3355  
G01 Z-0.0070 F10    
G01 X-1.2815 Y2.3546  F20    
G01 X-1.2904 Y2.3583  
G01 X-1.2923 Y2.3591  
G01 X-1.2924 Y2.3592  
G01 X-1.3065 Y2.3650  
G01 X-1.3335 Y2.3650  
G01 X-1.3357 Y2.3641  
G01 X-1.3412 Y2.3630  
G01 X-1.8656 Y2.3630  
G01 X-1.8728 Y2.3558  
G01 X-1.8797 Y2.3508  
G01 X-1.8833 Y2.3490  
G01 X-1.3347 Y2.3490  
G01 X-1.3326 Y2.3497  
G01 X-1.3242 Y2.3510  
G01 X-1.3157 Y2.3510  
G01 X-1.3074 Y2.3497  
G01 X-1.2993 Y2.3470  
G01 X-1.2917 Y2.3432  
G01 X-1.2848 Y2.3382  
G01 X-1.2788 Y2.3322  
G01 X-1.2738 Y2.3253  
G01 X-1.2700 Y2.3177  
G01 X-1.2673 Y2.3096  
G01 X-1.2660 Y2.3012  
G01 X-1.2660 Y2.0514  
G01 X-1.1616 Y1.9470  
G01 X-1.1280 Y1.9470  
G01 X-1.1290 Y1.9472  
G01 X-1.1360 Y1.9494  
G01 X-1.1426 Y1.9528  
G01 X-1.1486 Y1.9572  
G01 X-1.1538 Y1.9624  
G01 X-1.1542 Y1.9629  
G01 X-1.1576 Y1.9643  
G01 X-1.1623 Y1.9675  
G01 X-1.1663 Y1.9715  
G01 X-1.2455 Y2.0507  
G01 X-1.2487 Y2.0554  
G01 X-1.2509 Y2.0607  
G01 X-1.2520 Y2.0663  
G01 X-1.2520 Y2.3105  
G01 X-1.2579 Y2.3247  
G01 X-1.2587 Y2.3266  
G01 X-1.2624 Y2.3355  
G00 Z0.1000  
G00 X-1.3740 Y2.2510  
G01 Z-0.0070 F10    
G01 X-2.3349 Y2.2510  F20    
G01 X-2.3425 Y2.2522  
G01 X-2.3449 Y2.2530  
G01 X-2.3505 Y2.2530  
G01 X-2.3544 Y2.2569  
G01 X-2.3567 Y2.2581  
G01 X-2.3629 Y2.2626  
G01 X-2.3684 Y2.2681  
G01 X-2.3729 Y2.2743  
G01 X-2.3741 Y2.2766  
G01 X-2.3780 Y2.2805  
G01 X-2.3780 Y2.2861  
G01 X-2.3788 Y2.2885  
G01 X-2.3800 Y2.2961  
G01 X-2.3800 Y2.3039  
G01 X-2.3788 Y2.3115  
G01 X-2.3780 Y2.3139  
G01 X-2.3780 Y2.3195  
G01 X-2.3741 Y2.3234  
G01 X-2.3729 Y2.3257  
G01 X-2.3684 Y2.3319  
G01 X-2.3629 Y2.3374  
G01 X-2.3567 Y2.3419  
G01 X-2.3544 Y2.3431  
G01 X-2.3505 Y2.3470  
G01 X-2.3449 Y2.3470  
G01 X-2.3425 Y2.3478  
G01 X-2.3349 Y2.3490  
G01 X-1.9327 Y2.3490  
G01 X-1.9363 Y2.3508  
G01 X-1.9432 Y2.3558  
G01 X-1.9492 Y2.3618  
G01 X-1.9500 Y2.3630  
G01 X-2.3435 Y2.3630  
G01 X-2.3457 Y2.3621  
G01 X-2.3512 Y2.3610  
G01 X-2.3563 Y2.3610  
G01 X-2.3580 Y2.3593  
G01 X-2.3598 Y2.3575  
G01 X-2.3613 Y2.3565  
G01 X-2.3645 Y2.3543  
G01 X-2.3667 Y2.3534  
G01 X-2.3844 Y2.3357  
G01 X-2.3853 Y2.3335  
G01 X-2.3874 Y2.3304  
G01 X-2.3885 Y2.3288  
G01 X-2.3902 Y2.3271  
G01 X-2.3920 Y2.3253  
G01 X-2.3920 Y2.3203  
G01 X-2.3931 Y2.3147  
G01 X-2.3940 Y2.3125  
G01 X-2.3940 Y2.2875  
G01 X-2.3931 Y2.2853  
G01 X-2.3920 Y2.2798  
G01 X-2.3920 Y2.2747  
G01 X-2.3903 Y2.2730  
G01 X-2.3885 Y2.2712  
G01 X-2.3875 Y2.2697  
G01 X-2.3853 Y2.2665  
G01 X-2.3844 Y2.2643  
G01 X-2.3667 Y2.2466  
G01 X-2.3645 Y2.2457  
G01 X-2.3614 Y2.2436  
G01 X-2.3598 Y2.2425  
G01 X-2.3581 Y2.2408  
G01 X-2.3563 Y2.2390  
G01 X-2.3513 Y2.2390  
G01 X-2.3457 Y2.2379  
G01 X-2.3435 Y2.2370  
G01 X-1.4141 Y2.2370  
G01 X-1.4085 Y2.2359  
G01 X-1.4033 Y2.2337  
G01 X-1.3985 Y2.2305  
G01 X-1.3945 Y2.2265  
G01 X-1.3913 Y2.2217  
G01 X-1.3891 Y2.2165  
G01 X-1.3880 Y2.2109  
G01 X-1.3880 Y2.0155  
G01 X-1.3776 Y1.9905  
G01 X-1.3554 Y1.9682  
G01 X-1.2907 Y1.9035  
G01 X-1.2877 Y1.9006  
G01 X-1.2867 Y1.8995  
G01 X-1.2835 Y1.8947  
G01 X-1.2813 Y1.8895  
G01 X-1.2802 Y1.8839  
G01 X-1.2802 Y1.8781  
G01 X-1.2812 Y1.8729  
G01 X-1.2813 Y1.8725  
G01 X-1.2835 Y1.8673  
G01 X-1.2867 Y1.8625  
G01 X-1.2907 Y1.8585  
G01 X-1.2954 Y1.8553  
G01 X-1.3007 Y1.8531  
G01 X-1.3063 Y1.8520  
G01 X-2.1145 Y1.8520  
G01 X-2.1377 Y1.8424  
G01 X-2.2364 Y1.7437  
G01 X-2.2373 Y1.7415  
G01 X-2.2405 Y1.7368  
G01 X-2.2432 Y1.7341  
G01 X-2.2440 Y1.7333  
G01 X-2.2440 Y1.7283  
G01 X-2.2451 Y1.7227  
G01 X-2.2460 Y1.7205  
G01 X-2.2460 Y1.6955  
G01 X-2.2451 Y1.6933  
G01 X-2.2440 Y1.6878  
G01 X-2.2440 Y1.6827  
G01 X-2.2423 Y1.6810  
G01 X-2.2405 Y1.6792  
G01 X-2.2395 Y1.6777  
G01 X-2.2373 Y1.6745  
G01 X-2.2364 Y1.6723  
G01 X-2.2187 Y1.6546  
G01 X-2.2165 Y1.6537  
G01 X-2.2134 Y1.6516  
G01 X-2.2118 Y1.6505  
G01 X-2.2101 Y1.6488  
G01 X-2.2083 Y1.6470  
G01 X-2.2033 Y1.6470  
G01 X-2.1977 Y1.6459  
G01 X-2.1955 Y1.6450  
G01 X-2.1705 Y1.6450  
G01 X-2.1683 Y1.6459  
G01 X-2.1628 Y1.6470  
G01 X-2.1577 Y1.6470  
G01 X-2.1560 Y1.6487  
G01 X-2.1542 Y1.6505  
G01 X-2.1527 Y1.6515  
G01 X-2.1495 Y1.6537  
G01 X-2.1473 Y1.6546  
G01 X-2.0824 Y1.7195  
G01 X-2.0776 Y1.7227  
G01 X-2.0724 Y1.7249  
G01 X-2.0667 Y1.7260  
G01 X-1.9728 Y1.7260  
G01 X-1.9725 Y1.7259  
G01 X-1.9672 Y1.7249  
G01 X-1.9620 Y1.7228  
G01 X-1.9619 Y1.7227  
G01 X-1.9571 Y1.7195  
G01 X-1.9531 Y1.7155  
G01 X-1.9499 Y1.7107  
G01 X-1.9478 Y1.7055  
G01 X-1.9466 Y1.6999  
G01 X-1.9466 Y1.6941  
G01 X-1.9467 Y1.6938  
G01 X-1.9477 Y1.6885  
G01 X-1.9610 Y1.6565  
G01 X-1.9610 Y1.4581  
G01 X-1.9621 Y1.4525  
G01 X-1.9622 Y1.4523  
G01 X-1.9650 Y1.4455  
G01 X-1.9650 Y1.4185  
G01 X-1.9591 Y1.4043  
G01 X-1.9583 Y1.4024  
G01 X-1.9546 Y1.3935  
G01 X-1.9437 Y1.3825  
G01 X-1.9398 Y1.3787  
G01 X-1.9397 Y1.3785  
G01 X-1.9386 Y1.3770  
G01 X-1.9365 Y1.3737  
G01 X-1.9343 Y1.3685  
G01 X-1.9332 Y1.3629  
G01 X-1.9332 Y1.3571  
G01 X-1.9342 Y1.3519  
G01 X-1.9343 Y1.3515  
G01 X-1.9365 Y1.3463  
G01 X-1.9376 Y1.3446  
G01 X-1.9397 Y1.3415  
G01 X-1.9436 Y1.3375  
G01 X-1.9452 Y1.3365  
G01 X-1.9484 Y1.3343  
G01 X-1.9537 Y1.3321  
G01 X-1.9593 Y1.3310  
G01 X-2.4609 Y1.3310  
G01 X-2.4665 Y1.3321  
G01 X-2.4717 Y1.3343  
G01 X-2.4765 Y1.3375  
G01 X-2.4805 Y1.3415  
G01 X-2.4837 Y1.3463  
G01 X-2.4859 Y1.3515  
G01 X-2.4869 Y1.3567  
G01 X-2.4969 Y1.3808  
G01 X-2.5135 Y1.3974  
G01 X-2.5167 Y1.4022  
G01 X-2.5189 Y1.4075  
G01 X-2.5200 Y1.4131  
G01 X-2.5200 Y1.7205  
G01 X-2.5209 Y1.7227  
G01 X-2.5220 Y1.7282  
G01 X-2.5220 Y1.7333  
G01 X-2.5237 Y1.7350  
G01 X-2.5255 Y1.7368  
G01 X-2.5265 Y1.7383  
G01 X-2.5287 Y1.7415  
G01 X-2.5296 Y1.7437  
G01 X-2.5473 Y1.7614  
G01 X-2.5495 Y1.7623  
G01 X-2.5526 Y1.7644  
G01 X-2.5542 Y1.7655  
G01 X-2.5559 Y1.7672  
G01 X-2.5577 Y1.7690  
G01 X-2.5627 Y1.7690  
G01 X-2.5683 Y1.7701  
G01 X-2.5705 Y1.7710  
G01 X-2.5955 Y1.7710  
G01 X-2.5977 Y1.7701  
G01 X-2.6032 Y1.7690  
G01 X-2.6083 Y1.7690  
G01 X-2.6100 Y1.7673  
G01 X-2.6118 Y1.7655  
G01 X-2.6133 Y1.7645  
G01 X-2.6165 Y1.7623  
G01 X-2.6187 Y1.7614  
G01 X-2.6364 Y1.7437  
G01 X-2.6373 Y1.7415  
G01 X-2.6394 Y1.7384  
G01 X-2.6405 Y1.7368  
G01 X-2.6422 Y1.7351  
G01 X-2.6440 Y1.7333  
G01 X-2.6440 Y1.7283  
G01 X-2.6451 Y1.7227  
G01 X-2.6460 Y1.7205  
G01 X-2.6460 Y1.5081  
G01 X-2.6471 Y1.5025  
G01 X-2.6493 Y1.4973  
G01 X-2.6525 Y1.4925  
G01 X-2.6565 Y1.4885  
G01 X-2.6613 Y1.4853  
G01 X-2.6665 Y1.4831  
G01 X-2.6721 Y1.4820  
G01 X-2.9715 Y1.4820  
G01 X-2.9737 Y1.4811  
G01 X-2.9792 Y1.4800  
G01 X-2.9843 Y1.4800  
G01 X-2.9860 Y1.4783  
G01 X-2.9878 Y1.4765  
G01 X-2.9893 Y1.4755  
G01 X-2.9925 Y1.4733  
G01 X-2.9947 Y1.4724  
G01 X-3.0124 Y1.4547  
G01 X-3.0133 Y1.4525  
G01 X-3.0154 Y1.4494  
G01 X-3.0165 Y1.4478  
G01 X-3.0182 Y1.4461  
G01 X-3.0200 Y1.4443  
G01 X-3.0200 Y1.4393  
G01 X-3.0211 Y1.4337  
G01 X-3.0220 Y1.4315  
G01 X-3.0220 Y1.4065  
G01 X-3.0211 Y1.4043  
G01 X-3.0200 Y1.3988  
G01 X-3.0200 Y1.3937  
G01 X-3.0183 Y1.3920  
G01 X-3.0165 Y1.3902  
G01 X-3.0155 Y1.3887  
G01 X-3.0133 Y1.3855  
G01 X-3.0124 Y1.3833  
G01 X-3.0096 Y1.3805  
G01 X-3.0058 Y1.3767  
G01 X-3.0056 Y1.3765  
G01 X-3.0046 Y1.3750  
G01 X-3.0024 Y1.3717  
G01 X-3.0008 Y1.3679  
G01 X-3.0002 Y1.3665  
G01 X-2.9994 Y1.3623  
G01 X-2.9991 Y1.3609  
G01 X-2.9991 Y1.3551  
G01 X-3.0002 Y1.3495  
G01 X-3.0011 Y1.3474  
G01 X-3.0024 Y1.3443  
G01 X-3.0056 Y1.3395  
G01 X-3.0096 Y1.3355  
G01 X-3.0111 Y1.3345  
G01 X-3.0144 Y1.3323  
G01 X-3.0182 Y1.3307  
G01 X-3.0196 Y1.3301  
G01 X-3.0238 Y1.3293  
G01 X-3.0253 Y1.3290  
G01 X-4.0176 Y1.3290  
G01 X-4.0232 Y1.3301  
G01 X-4.0285 Y1.3323  
G01 X-4.0332 Y1.3354  
G01 X-4.0373 Y1.3395  
G01 X-4.0641 Y1.3663  
G01 X-4.0655 Y1.3675  
G01 X-4.0661 Y1.3683  
G01 X-4.0668 Y1.3690  
G01 X-4.0678 Y1.3705  
G01 X-4.0690 Y1.3721  
G01 X-4.0694 Y1.3729  
G01 X-4.0699 Y1.3737  
G01 X-4.0707 Y1.3755  
G01 X-4.0715 Y1.3772  
G01 X-4.0717 Y1.3781  
G01 X-4.0721 Y1.3790  
G01 X-4.0725 Y1.3809  
G01 X-4.0730 Y1.3827  
G01 X-4.0730 Y1.3837  
G01 X-4.0732 Y1.3846  
G01 X-4.0732 Y1.3865  
G01 X-4.0734 Y1.3884  
G01 X-4.0732 Y1.3893  
G01 X-4.0732 Y1.3903  
G01 X-4.0729 Y1.3922  
G01 X-4.0726 Y1.3941  
G01 X-4.0723 Y1.3950  
G01 X-4.0721 Y1.3959  
G01 X-4.0714 Y1.3977  
G01 X-4.0708 Y1.3995  
G01 X-4.0703 Y1.4003  
G01 X-4.0699 Y1.4012  
G01 X-4.0690 Y1.4025  
G01 X-4.0580 Y1.4437  
G01 X-4.0580 Y1.4863  
G01 X-4.0605 Y1.4957  
G01 X-4.0609 Y1.4966  
G01 X-4.0613 Y1.4985  
G01 X-4.0618 Y1.5003  
G01 X-4.0618 Y1.5013  
G01 X-4.0620 Y1.5022  
G01 X-4.0620 Y1.5041  
G01 X-4.0621 Y1.5060  
G01 X-4.0620 Y1.5070  
G01 X-4.0620 Y1.7493  
G01 X-4.0730 Y1.7905  
G01 X-4.0944 Y1.8275  
G01 X-4.1245 Y1.8576  
G01 X-4.1615 Y1.8790  
G01 X-4.2027 Y1.8900  
G01 X-4.2453 Y1.8900  
G01 X-4.2865 Y1.8790  
G01 X-4.3235 Y1.8576  
G01 X-4.3536 Y1.8275  
G01 X-4.3750 Y1.7905  
G01 X-4.3860 Y1.7493  
G01 X-4.3860 Y1.4477  
G01 X-4.3750 Y1.4065  
G01 X-4.3536 Y1.3695  
G01 X-4.3195 Y1.3354  
G01 X-4.2825 Y1.3140  
G01 X-4.2496 Y1.3052  
G01 X-4.2477 Y1.3048  
G01 X-4.2468 Y1.3045  
G01 X-4.2459 Y1.3042  
G01 X-4.2442 Y1.3034  
G01 X-4.2424 Y1.3027  
G01 X-4.2416 Y1.3021  
G01 X-4.2408 Y1.3017  
G01 X-4.2393 Y1.3005  
G01 X-4.2377 Y1.2995  
G01 X-4.2370 Y1.2988  
G01 X-4.2363 Y1.2982  
G01 X-4.2350 Y1.2968  
G01 X-4.1142 Y1.1760  
G01 X-4.0948 Y1.1648  
G01 X-4.0732 Y1.1590  
G01 X-2.6608 Y1.1590  
G01 X-2.6593 Y1.1636  
G01 X-2.6556 Y1.1707  
G01 X-2.6540 Y1.1730  
G01 X-4.0667 Y1.1730  
G01 X-4.0759 Y1.1742  
G01 X-4.0849 Y1.1766  
G01 X-4.0935 Y1.1802  
G01 X-4.1015 Y1.1848  
G01 X-4.1089 Y1.1905  
G01 X-4.2363 Y1.3179  
G01 X-4.2417 Y1.3184  
G01 X-4.2560 Y1.3213  
G01 X-4.2699 Y1.3255  
G01 X-4.2834 Y1.3310  
G01 X-4.2962 Y1.3379  
G01 X-4.3083 Y1.3460  
G01 X-4.3195 Y1.3552  
G01 X-4.3338 Y1.3695  
G01 X-4.3430 Y1.3807  
G01 X-4.3511 Y1.3928  
G01 X-4.3580 Y1.4056  
G01 X-4.3635 Y1.4191  
G01 X-4.3677 Y1.4330  
G01 X-4.3706 Y1.4473  
G01 X-4.3720 Y1.4617  
G01 X-4.3720 Y1.7353  
G01 X-4.3706 Y1.7497  
G01 X-4.3677 Y1.7640  
G01 X-4.3635 Y1.7779  
G01 X-4.3580 Y1.7914  
G01 X-4.3511 Y1.8042  
G01 X-4.3430 Y1.8163  
G01 X-4.3338 Y1.8275  
G01 X-4.3235 Y1.8378  
G01 X-4.3123 Y1.8470  
G01 X-4.3002 Y1.8551  
G01 X-4.2874 Y1.8620  
G01 X-4.2739 Y1.8675  
G01 X-4.2600 Y1.8717  
G01 X-4.2457 Y1.8746  
G01 X-4.2313 Y1.8760  
G01 X-4.2167 Y1.8760  
G01 X-4.2023 Y1.8746  
G01 X-4.1880 Y1.8717  
G01 X-4.1741 Y1.8675  
G01 X-4.1606 Y1.8620  
G01 X-4.1478 Y1.8551  
G01 X-4.1357 Y1.8470  
G01 X-4.1245 Y1.8378  
G01 X-4.1142 Y1.8275  
G01 X-4.1050 Y1.8163  
G01 X-4.0969 Y1.8042  
G01 X-4.0900 Y1.7914  
G01 X-4.0845 Y1.7779  
G01 X-4.0803 Y1.7640  
G01 X-4.0774 Y1.7497  
G01 X-4.0760 Y1.7353  
G01 X-4.0760 Y1.4997  
G01 X-4.0734 Y1.4867  
G01 X-4.0720 Y1.4723  
G01 X-4.0720 Y1.4577  
G01 X-4.0734 Y1.4433  
G01 X-4.0763 Y1.4290  
G01 X-4.0805 Y1.4151  
G01 X-4.0860 Y1.4016  
G01 X-4.0929 Y1.3888  
G01 X-4.0983 Y1.3807  
G01 X-4.0326 Y1.3150  
G01 X-2.6540 Y1.3150  
G01 X-2.6556 Y1.3173  
G01 X-2.6593 Y1.3244  
G01 X-2.6617 Y1.3321  
G01 X-2.6630 Y1.3400  
G01 X-2.6630 Y1.3480  
G01 X-2.6617 Y1.3559  
G01 X-2.6593 Y1.3636  
G01 X-2.6560 Y1.3700  
G01 X-2.9629 Y1.3700  
G01 X-2.9705 Y1.3712  
G01 X-2.9729 Y1.3720  
G01 X-2.9785 Y1.3720  
G01 X-2.9824 Y1.3759  
G01 X-2.9847 Y1.3771  
G01 X-2.9909 Y1.3816  
G01 X-2.9964 Y1.3871  
G01 X-3.0009 Y1.3933  
G01 X-3.0021 Y1.3956  
G01 X-3.0060 Y1.3995  
G01 X-3.0060 Y1.4051  
G01 X-3.0068 Y1.4075  
G01 X-3.0080 Y1.4151  
G01 X-3.0080 Y1.4229  
G01 X-3.0068 Y1.4305  
G01 X-3.0060 Y1.4329  
G01 X-3.0060 Y1.4385  
G01 X-3.0021 Y1.4424  
G01 X-3.0009 Y1.4447  
G01 X-2.9964 Y1.4509  
G01 X-2.9909 Y1.4564  
G01 X-2.9847 Y1.4609  
G01 X-2.9824 Y1.4621  
G01 X-2.9785 Y1.4660  
G01 X-2.9729 Y1.4660  
G01 X-2.9705 Y1.4668  
G01 X-2.9629 Y1.4680  
G01 X-2.6320 Y1.4680  
G01 X-2.6320 Y1.7119  
G01 X-2.6308 Y1.7195  
G01 X-2.6300 Y1.7219  
G01 X-2.6300 Y1.7275  
G01 X-2.6261 Y1.7314  
G01 X-2.6249 Y1.7337  
G01 X-2.6204 Y1.7399  
G01 X-2.6149 Y1.7454  
G01 X-2.6087 Y1.7499  
G01 X-2.6064 Y1.7511  
G01 X-2.6025 Y1.7550  
G01 X-2.5969 Y1.7550  
G01 X-2.5945 Y1.7558  
G01 X-2.5869 Y1.7570  
G01 X-2.5791 Y1.7570  
G01 X-2.5715 Y1.7558  
G01 X-2.5691 Y1.7550  
G01 X-2.5635 Y1.7550  
G01 X-2.5596 Y1.7511  
G01 X-2.5573 Y1.7499  
G01 X-2.5511 Y1.7454  
G01 X-2.5456 Y1.7399  
G01 X-2.5411 Y1.7337  
G01 X-2.5399 Y1.7314  
G01 X-2.5360 Y1.7275  
G01 X-2.5360 Y1.7219  
G01 X-2.5352 Y1.7195  
G01 X-2.5340 Y1.7119  
G01 X-2.5340 Y1.3918  
G01 X-2.5324 Y1.3913  
G01 X-2.5253 Y1.3876  
G01 X-2.5188 Y1.3829  
G01 X-2.5131 Y1.3772  
G01 X-2.5084 Y1.3707  
G01 X-2.5047 Y1.3636  
G01 X-2.5023 Y1.3559  
G01 X-2.5010 Y1.3480  
G01 X-2.5010 Y1.3400  
G01 X-2.5023 Y1.3321  
G01 X-2.5047 Y1.3244  
G01 X-2.5084 Y1.3173  
G01 X-2.5086 Y1.3170  
G01 X-1.6240 Y1.3170  
G01 X-1.6256 Y1.3193  
G01 X-1.6293 Y1.3264  
G01 X-1.6317 Y1.3341  
G01 X-1.6330 Y1.3420  
G01 X-1.6330 Y1.3500  
G01 X-1.6329 Y1.3505  
G01 X-1.6604 Y1.3780  
G01 X-1.9012 Y1.3780  
G01 X-1.9096 Y1.3793  
G01 X-1.9177 Y1.3820  
G01 X-1.9253 Y1.3858  
G01 X-1.9322 Y1.3908  
G01 X-1.9382 Y1.3968  
G01 X-1.9432 Y1.4037  
G01 X-1.9470 Y1.4113  
G01 X-1.9497 Y1.4194  
G01 X-1.9510 Y1.4278  
G01 X-1.9510 Y1.4362  
G01 X-1.9497 Y1.4446  
G01 X-1.9470 Y1.4527  
G01 X-1.9470 Y1.6472  
G01 X-1.9457 Y1.6556  
G01 X-1.9430 Y1.6637  
G01 X-1.9392 Y1.6713  
G01 X-1.9342 Y1.6782  
G01 X-1.9282 Y1.6842  
G01 X-1.8724 Y1.7400  
G01 X-2.0817 Y1.7400  
G01 X-2.1511 Y1.6706  
G01 X-2.1573 Y1.6661  
G01 X-2.1596 Y1.6649  
G01 X-2.1635 Y1.6610  
G01 X-2.1691 Y1.6610  
G01 X-2.1715 Y1.6602  
G01 X-2.1791 Y1.6590  
G01 X-2.1869 Y1.6590  
G01 X-2.1945 Y1.6602  
G01 X-2.1969 Y1.6610  
G01 X-2.2025 Y1.6610  
G01 X-2.2064 Y1.6649  
G01 X-2.2087 Y1.6661  
G01 X-2.2149 Y1.6706  
G01 X-2.2204 Y1.6761  
G01 X-2.2249 Y1.6823  
G01 X-2.2261 Y1.6846  
G01 X-2.2300 Y1.6885  
G01 X-2.2300 Y1.6941  
G01 X-2.2308 Y1.6965  
G01 X-2.2320 Y1.7041  
G01 X-2.2320 Y1.7119  
G01 X-2.2308 Y1.7195  
G01 X-2.2300 Y1.7219  
G01 X-2.2300 Y1.7275  
G01 X-2.2261 Y1.7314  
G01 X-2.2249 Y1.7337  
G01 X-2.2204 Y1.7399  
G01 X-2.1339 Y1.8264  
G01 X-2.1277 Y1.8309  
G01 X-2.1208 Y1.8344  
G01 X-2.1135 Y1.8368  
G01 X-2.1059 Y1.8380  
G01 X-1.2926 Y1.8380  
G01 X-1.2918 Y1.8384  
G01 X-1.2845 Y1.8408  
G01 X-1.2769 Y1.8420  
G01 X-1.2018 Y1.8420  
G01 X-1.2047 Y1.8430  
G01 X-1.2123 Y1.8468  
G01 X-1.2192 Y1.8518  
G01 X-1.3552 Y1.9878  
G01 X-1.3612 Y1.9938  
G01 X-1.3662 Y2.0007  
G01 X-1.3700 Y2.0083  
G01 X-1.3727 Y2.0164  
G01 X-1.3740 Y2.0248  
G01 X-1.3740 Y2.2510  
G00 Z0.1000  
G00 X-1.8464 Y2.5350  
G01 Z-0.0070 F10    
G01 X-2.5319 Y2.5350  F20    
G01 X-2.5301 Y2.5332  
G01 X-2.5254 Y2.5267  
G01 X-2.5225 Y2.5210  
G01 X-1.8604 Y2.5210  
G01 X-1.8464 Y2.5350  
G00 Z0.1000  
G00 X-1.8444 Y1.1610  
G01 Z-0.0070 F10    
G01 X-1.8304 Y1.1750  F20    
G01 X-2.5115 Y1.1750  
G01 X-2.5084 Y1.1707  
G01 X-2.5047 Y1.1636  
G01 X-2.5039 Y1.1610  
G01 X-1.8444 Y1.1610  
G00 Z0.1000  
G00 X-5.0148 Y1.2320  
G01 Z-0.0070 F10    
G01 X-4.9943 Y1.2525  F20    
G01 X-4.5340 Y1.7128  
G01 X-4.5228 Y1.7322  
G01 X-4.5170 Y1.7538  
G01 X-4.5170 Y2.7882  
G01 X-4.5228 Y2.8098  
G01 X-4.5236 Y2.8113  
G01 X-4.5247 Y2.8129  
G01 X-4.5251 Y2.8137  
G01 X-4.5255 Y2.8146  
G01 X-4.5262 Y2.8164  
G01 X-4.5269 Y2.8181  
G01 X-4.5271 Y2.8191  
G01 X-4.5274 Y2.8200  
G01 X-4.5276 Y2.8219  
G01 X-4.5280 Y2.8237  
G01 X-4.5280 Y2.8247  
G01 X-4.5281 Y2.8256  
G01 X-4.5281 Y2.8261  
G01 X-4.5330 Y2.8446  
G01 X-4.5428 Y2.8614  
G01 X-4.5566 Y2.8752  
G01 X-4.5734 Y2.8850  
G01 X-4.5923 Y2.8900  
G01 X-4.6117 Y2.8900  
G01 X-4.6306 Y2.8850  
G01 X-4.6474 Y2.8752  
G01 X-4.6612 Y2.8614  
G01 X-4.6710 Y2.8446  
G01 X-4.6759 Y2.8261  
G01 X-4.6759 Y2.8256  
G01 X-4.6760 Y2.8247  
G01 X-4.6760 Y2.8237  
G01 X-4.6764 Y2.8219  
G01 X-4.6766 Y2.8200  
G01 X-4.6769 Y2.8191  
G01 X-4.6771 Y2.8181  
G01 X-4.6778 Y2.8164  
G01 X-4.6785 Y2.8146  
G01 X-4.6789 Y2.8137  
G01 X-4.6793 Y2.8129  
G01 X-4.6804 Y2.8113  
G01 X-4.6812 Y2.8098  
G01 X-4.6870 Y2.7882  
G01 X-4.6870 Y1.8094  
G01 X-4.6881 Y1.8038  
G01 X-4.6903 Y1.7985  
G01 X-4.6935 Y1.7937  
G01 X-4.6975 Y1.7897  
G01 X-5.0957 Y1.3915  
G01 X-5.1005 Y1.3883  
G01 X-5.1058 Y1.3861  
G01 X-5.1114 Y1.3850  
G01 X-5.4432 Y1.3850  
G01 X-5.4648 Y1.3792  
G01 X-5.4842 Y1.3680  
G01 X-5.5007 Y1.3515  
G01 X-5.5014 Y1.3508  
G01 X-5.5021 Y1.3500  
G01 X-5.5034 Y1.3488  
G01 X-5.6555 Y1.1967  
G01 X-5.6720 Y1.1802  
G01 X-5.6832 Y1.1608  
G01 X-5.6890 Y1.1392  
G01 X-5.6890 Y0.6254  
G01 X-5.6875 Y0.6197  
G01 X-5.6871 Y0.6188  
G01 X-5.6867 Y0.6170  
G01 X-5.6862 Y0.6151  
G01 X-5.6862 Y0.6142  
G01 X-5.6860 Y0.6132  
G01 X-5.6860 Y0.6113  
G01 X-5.6859 Y0.6094  
G01 X-5.6860 Y0.6085  
G01 X-5.6860 Y0.5724  
G01 X-5.6802 Y0.5508  
G01 X-5.6690 Y0.5314  
G01 X-5.6532 Y0.5156  
G01 X-5.6338 Y0.5044  
G01 X-5.6122 Y0.4986  
G01 X-5.5898 Y0.4986  
G01 X-5.5682 Y0.5044  
G01 X-5.5488 Y0.5156  
G01 X-5.5330 Y0.5314  
G01 X-5.5218 Y0.5508  
G01 X-5.5160 Y0.5724  
G01 X-5.5160 Y0.6948  
G01 X-5.5175 Y0.7004  
G01 X-5.5179 Y0.7013  
G01 X-5.5183 Y0.7032  
G01 X-5.5188 Y0.7050  
G01 X-5.5188 Y0.7060  
G01 X-5.5190 Y0.7069  
G01 X-5.5190 Y0.7088  
G01 X-5.5191 Y0.7107  
G01 X-5.5190 Y0.7117  
G01 X-5.5190 Y0.7523  
G01 X-5.5191 Y0.7533  
G01 X-5.5190 Y0.7552  
G01 X-5.5190 Y0.7571  
G01 X-5.5188 Y0.7580  
G01 X-5.5188 Y0.7590  
G01 X-5.5183 Y0.7608  
G01 X-5.5179 Y0.7627  
G01 X-5.5175 Y0.7636  
G01 X-5.5160 Y0.7692  
G01 X-5.5160 Y0.8916  
G01 X-5.5175 Y0.8973  
G01 X-5.5179 Y0.8982  
G01 X-5.5183 Y0.9000  
G01 X-5.5188 Y0.9019  
G01 X-5.5188 Y0.9028  
G01 X-5.5190 Y0.9038  
G01 X-5.5190 Y0.9057  
G01 X-5.5191 Y0.9076  
G01 X-5.5190 Y0.9085  
G01 X-5.5190 Y1.0836  
G01 X-5.5179 Y1.0892  
G01 X-5.5157 Y1.0945  
G01 X-5.5125 Y1.0993  
G01 X-5.4033 Y1.2085  
G01 X-5.3985 Y1.2117  
G01 X-5.3932 Y1.2139  
G01 X-5.3876 Y1.2150  
G01 X-5.0558 Y1.2150  
G01 X-5.0342 Y1.2208  
G01 X-5.0148 Y1.2320  
G00 Z0.1000  
G00 X-5.0201 Y1.2465  
G01 Z-0.0070 F10    
G01 X-5.0275 Y1.2408  F20    
G01 X-5.0355 Y1.2362  
G01 X-5.0441 Y1.2326  
G01 X-5.0531 Y1.2302  
G01 X-5.0623 Y1.2290  
G01 X-5.4026 Y1.2290  
G01 X-5.5330 Y1.0986  
G01 X-5.5330 Y0.9010  
G01 X-5.5312 Y0.8943  
G01 X-5.5300 Y0.8851  
G01 X-5.5300 Y0.7758  
G01 X-5.5312 Y0.7665  
G01 X-5.5330 Y0.7599  
G01 X-5.5330 Y0.7041  
G01 X-5.5312 Y0.6975  
G01 X-5.5300 Y0.6882  
G01 X-5.5300 Y0.5789  
G01 X-5.5312 Y0.5697  
G01 X-5.5336 Y0.5607  
G01 X-5.5372 Y0.5521  
G01 X-5.5418 Y0.5440  
G01 X-5.5475 Y0.5367  
G01 X-5.5541 Y0.5301  
G01 X-5.5615 Y0.5244  
G01 X-5.5695 Y0.5198  
G01 X-5.5781 Y0.5162  
G01 X-5.5871 Y0.5138  
G01 X-5.5963 Y0.5126  
G01 X-5.6057 Y0.5126  
G01 X-5.6149 Y0.5138  
G01 X-5.6239 Y0.5162  
G01 X-5.6325 Y0.5198  
G01 X-5.6405 Y0.5244  
G01 X-5.6479 Y0.5301  
G01 X-5.6545 Y0.5367  
G01 X-5.6602 Y0.5440  
G01 X-5.6648 Y0.5521  
G01 X-5.6684 Y0.5607  
G01 X-5.6708 Y0.5697  
G01 X-5.6720 Y0.5789  
G01 X-5.6720 Y0.6160  
G01 X-5.6738 Y0.6227  
G01 X-5.6750 Y0.6319  
G01 X-5.6750 Y1.1327  
G01 X-5.6738 Y1.1419  
G01 X-5.6714 Y1.1509  
G01 X-5.6678 Y1.1595  
G01 X-5.6632 Y1.1675  
G01 X-5.6575 Y1.1749  
G01 X-5.6509 Y1.1815  
G01 X-5.4789 Y1.3535  
G01 X-5.4715 Y1.3592  
G01 X-5.4635 Y1.3638  
G01 X-5.4549 Y1.3674  
G01 X-5.4459 Y1.3698  
G01 X-5.4367 Y1.3710  
G01 X-5.0964 Y1.3710  
G01 X-4.6730 Y1.7944  
G01 X-4.6730 Y2.7817  
G01 X-4.6718 Y2.7909  
G01 X-4.6694 Y2.7999  
G01 X-4.6658 Y2.8085  
G01 X-4.6620 Y2.8151  
G01 X-4.6620 Y2.8207  
G01 X-4.6605 Y2.8300  
G01 X-4.6576 Y2.8390  
G01 X-4.6533 Y2.8474  
G01 X-4.6478 Y2.8551  
G01 X-4.6411 Y2.8618  
G01 X-4.6334 Y2.8673  
G01 X-4.6250 Y2.8716  
G01 X-4.6160 Y2.8745  
G01 X-4.6067 Y2.8760  
G01 X-4.5973 Y2.8760  
G01 X-4.5879 Y2.8745  
G01 X-4.5790 Y2.8716  
G01 X-4.5706 Y2.8673  
G01 X-4.5629 Y2.8618  
G01 X-4.5562 Y2.8551  
G01 X-4.5507 Y2.8474  
G01 X-4.5464 Y2.8390  
G01 X-4.5435 Y2.8300  
G01 X-4.5420 Y2.8207  
G01 X-4.5420 Y2.8151  
G01 X-4.5382 Y2.8085  
G01 X-4.5346 Y2.7999  
G01 X-4.5322 Y2.7909  
G01 X-4.5310 Y2.7817  
G01 X-4.5310 Y1.7603  
G01 X-4.5322 Y1.7511  
G01 X-4.5346 Y1.7421  
G01 X-4.5382 Y1.7335  
G01 X-4.5428 Y1.7255  
G01 X-4.5485 Y1.7181  
G01 X-5.0135 Y1.2531  
G01 X-5.0201 Y1.2465  
G00 Z0.1000  
G00 X-5.0558 Y2.2860  
G01 Z-0.0070 F10    
G01 X-4.8375 Y2.5043  F20    
G01 X-4.8210 Y2.5208  
G01 X-4.8098 Y2.5402  
G01 X-4.8040 Y2.5618  
G01 X-4.8040 Y2.8042  
G01 X-4.8098 Y2.8258  
G01 X-4.8210 Y2.8452  
G01 X-4.8368 Y2.8610  
G01 X-4.8562 Y2.8722  
G01 X-4.8785 Y2.8782  
G01 X-4.8795 Y2.8782  
G01 X-4.8813 Y2.8787  
G01 X-4.8826 Y2.8790  
G01 X-4.9017 Y2.8790  
G01 X-4.9206 Y2.8740  
G01 X-4.9373 Y2.8643  
G01 X-4.9378 Y2.8638  
G01 X-4.9392 Y2.8625  
G01 X-4.9400 Y2.8619  
G01 X-4.9407 Y2.8613  
G01 X-4.9412 Y2.8610  
G01 X-4.9570 Y2.8452  
G01 X-4.9682 Y2.8258  
G01 X-4.9740 Y2.8042  
G01 X-4.9740 Y2.6174  
G01 X-4.9751 Y2.6118  
G01 X-4.9773 Y2.6065  
G01 X-4.9805 Y2.6017  
G01 X-4.9845 Y2.5977  
G01 X-5.1367 Y2.4455  
G01 X-5.1415 Y2.4423  
G01 X-5.1468 Y2.4401  
G01 X-5.1524 Y2.4390  
G01 X-5.5275 Y2.4390  
G01 X-5.5303 Y2.4390  
G01 X-5.5332 Y2.4390  
G01 X-5.5388 Y2.4401  
G01 X-5.5441 Y2.4423  
G01 X-5.5465 Y2.4439  
G01 X-5.5488 Y2.4455  
G01 X-5.5508 Y2.4474  
G01 X-5.5702 Y2.4586  
G01 X-5.5918 Y2.4644  
G01 X-5.6142 Y2.4644  
G01 X-5.6358 Y2.4586  
G01 X-5.6552 Y2.4474  
G01 X-5.6710 Y2.4316  
G01 X-5.6822 Y2.4122  
G01 X-5.6880 Y2.3906  
G01 X-5.6880 Y2.3746  
G01 X-5.6879 Y2.3737  
G01 X-5.6880 Y2.3718  
G01 X-5.6880 Y2.3699  
G01 X-5.6882 Y2.3689  
G01 X-5.6882 Y2.3680  
G01 X-5.6887 Y2.3662  
G01 X-5.6890 Y2.3649  
G01 X-5.6890 Y2.3431  
G01 X-5.6887 Y2.3418  
G01 X-5.6882 Y2.3400  
G01 X-5.6882 Y2.3391  
G01 X-5.6880 Y2.3381  
G01 X-5.6880 Y2.3362  
G01 X-5.6879 Y2.3343  
G01 X-5.6880 Y2.3334  
G01 X-5.6880 Y2.0714  
G01 X-5.6822 Y2.0498  
G01 X-5.6710 Y2.0304  
G01 X-5.6552 Y2.0146  
G01 X-5.6358 Y2.0034  
G01 X-5.6142 Y1.9976  
G01 X-5.5918 Y1.9976  
G01 X-5.5702 Y2.0034  
G01 X-5.5508 Y2.0146  
G01 X-5.5350 Y2.0304  
G01 X-5.5238 Y2.0498  
G01 X-5.5180 Y2.0714  
G01 X-5.5180 Y2.2429  
G01 X-5.5169 Y2.2485  
G01 X-5.5147 Y2.2537  
G01 X-5.5115 Y2.2585  
G01 X-5.5075 Y2.2625  
G01 X-5.5027 Y2.2657  
G01 X-5.4975 Y2.2679  
G01 X-5.4919 Y2.2690  
G01 X-5.0968 Y2.2690  
G01 X-5.0752 Y2.2748  
G01 X-5.0558 Y2.2860  
G00 Z0.1000  
G00 X-5.0611 Y2.3005  
G01 Z-0.0070 F10    
G01 X-5.0685 Y2.2948  F20    
G01 X-5.0765 Y2.2902  
G01 X-5.0851 Y2.2866  
G01 X-5.0941 Y2.2842  
G01 X-5.1033 Y2.2830  
G01 X-5.5320 Y2.2830  
G01 X-5.5320 Y2.0779  
G01 X-5.5332 Y2.0687  
G01 X-5.5356 Y2.0597  
G01 X-5.5392 Y2.0511  
G01 X-5.5438 Y2.0430  
G01 X-5.5495 Y2.0357  
G01 X-5.5561 Y2.0291  
G01 X-5.5635 Y2.0234  
G01 X-5.5715 Y2.0188  
G01 X-5.5801 Y2.0152  
G01 X-5.5891 Y2.0128  
G01 X-5.5983 Y2.0116  
G01 X-5.6077 Y2.0116  
G01 X-5.6169 Y2.0128  
G01 X-5.6259 Y2.0152  
G01 X-5.6345 Y2.0188  
G01 X-5.6425 Y2.0234  
G01 X-5.6499 Y2.0291  
G01 X-5.6565 Y2.0357  
G01 X-5.6622 Y2.0430  
G01 X-5.6668 Y2.0511  
G01 X-5.6704 Y2.0597  
G01 X-5.6728 Y2.0687  
G01 X-5.6740 Y2.0779  
G01 X-5.6740 Y2.3418  
G01 X-5.6750 Y2.3493  
G01 X-5.6750 Y2.3587  
G01 X-5.6740 Y2.3662  
G01 X-5.6740 Y2.3841  
G01 X-5.6728 Y2.3933  
G01 X-5.6704 Y2.4023  
G01 X-5.6668 Y2.4109  
G01 X-5.6622 Y2.4190  
G01 X-5.6565 Y2.4263  
G01 X-5.6499 Y2.4329  
G01 X-5.6425 Y2.4386  
G01 X-5.6345 Y2.4432  
G01 X-5.6259 Y2.4468  
G01 X-5.6169 Y2.4492  
G01 X-5.6077 Y2.4504  
G01 X-5.5983 Y2.4504  
G01 X-5.5891 Y2.4492  
G01 X-5.5801 Y2.4468  
G01 X-5.5715 Y2.4432  
G01 X-5.5635 Y2.4386  
G01 X-5.5561 Y2.4329  
G01 X-5.5495 Y2.4263  
G01 X-5.5485 Y2.4250  
G01 X-5.1374 Y2.4250  
G01 X-4.9600 Y2.6024  
G01 X-4.9600 Y2.7977  
G01 X-4.9588 Y2.8069  
G01 X-4.9564 Y2.8159  
G01 X-4.9528 Y2.8245  
G01 X-4.9482 Y2.8325  
G01 X-4.9425 Y2.8399  
G01 X-4.9359 Y2.8465  
G01 X-4.9335 Y2.8483  
G01 X-4.9311 Y2.8508  
G01 X-4.9234 Y2.8563  
G01 X-4.9150 Y2.8606  
G01 X-4.9060 Y2.8635  
G01 X-4.8967 Y2.8650  
G01 X-4.8873 Y2.8650  
G01 X-4.8779 Y2.8635  
G01 X-4.8761 Y2.8629  
G01 X-4.8751 Y2.8628  
G01 X-4.8661 Y2.8604  
G01 X-4.8575 Y2.8568  
G01 X-4.8495 Y2.8522  
G01 X-4.8421 Y2.8465  
G01 X-4.8355 Y2.8399  
G01 X-4.8298 Y2.8325  
G01 X-4.8252 Y2.8245  
G01 X-4.8216 Y2.8159  
G01 X-4.8192 Y2.8069  
G01 X-4.8180 Y2.7977  
G01 X-4.8180 Y2.5683  
G01 X-4.8192 Y2.5591  
G01 X-4.8216 Y2.5501  
G01 X-4.8252 Y2.5415  
G01 X-4.8298 Y2.5335  
G01 X-4.8355 Y2.5261  
G01 X-5.0611 Y2.3005  
G00 Z0.1000  
G00 X-5.6715 Y2.6660  
G01 Z-0.0070 F10    
G01 X-5.6520 Y2.6855  F20    
G01 X-5.6382 Y2.7095  
G01 X-5.6310 Y2.7362  
G01 X-5.6310 Y2.7638  
G01 X-5.6382 Y2.7905  
G01 X-5.6520 Y2.8145  
G01 X-5.6715 Y2.8340  
G01 X-5.6955 Y2.8478  
G01 X-5.7222 Y2.8550  
G01 X-5.7498 Y2.8550  
G01 X-5.7765 Y2.8478  
G01 X-5.8005 Y2.8340  
G01 X-5.8200 Y2.8145  
G01 X-5.8338 Y2.7905  
G01 X-5.8410 Y2.7638  
G01 X-5.8410 Y2.7362  
G01 X-5.8338 Y2.7095  
G01 X-5.8200 Y2.6855  
G01 X-5.8005 Y2.6660  
G01 X-5.7765 Y2.6522  
G01 X-5.7498 Y2.6450  
G01 X-5.7222 Y2.6450  
G01 X-5.6955 Y2.6522  
G01 X-5.6715 Y2.6660  
G00 Z0.1000  
G00 X-5.6715 Y0.3340  
G01 Z-0.0070 F10    
G01 X-5.6955 Y0.3478  F20    
G01 X-5.7222 Y0.3550  
G01 X-5.7498 Y0.3550  
G01 X-5.7765 Y0.3478  
G01 X-5.8005 Y0.3340  
G01 X-5.8200 Y0.3145  
G01 X-5.8338 Y0.2905  
G01 X-5.8410 Y0.2638  
G01 X-5.8410 Y0.2362  
G01 X-5.8338 Y0.2095  
G01 X-5.8200 Y0.1855  
G01 X-5.8005 Y0.1660  
G01 X-5.7765 Y0.1522  
G01 X-5.7498 Y0.1450  
G01 X-5.7222 Y0.1450  
G01 X-5.6955 Y0.1522  
G01 X-5.6715 Y0.1660  
G01 X-5.6520 Y0.1855  
G01 X-5.6382 Y0.2095  
G01 X-5.6310 Y0.2362  
G01 X-5.6310 Y0.2638  
G01 X-5.6382 Y0.2905  
G01 X-5.6520 Y0.3145  
G01 X-5.6715 Y0.3340  
G00 Z0.1000  
G00 X-0.0376 Y0.0423  
G01 Z-0.0070 F10    
G01 X-0.0423 Y0.0376  F20    
G01 X-0.0479 Y0.0339  
G01 X-0.0541 Y0.0313  
G01 X-0.0607 Y0.0300  
G01 X-5.9253 Y0.0300  
G01 X-5.9319 Y0.0313  
G01 X-5.9381 Y0.0339  
G01 X-5.9437 Y0.0376  
G01 X-5.9484 Y0.0423  
G01 X-5.9521 Y0.0479  
G01 X-5.9547 Y0.0541  
G01 X-5.9560 Y0.0607  
G01 X-5.9560 Y2.9393  
G01 X-5.9547 Y2.9459  
G01 X-5.9521 Y2.9521  
G01 X-5.9484 Y2.9577  
G01 X-5.9437 Y2.9624  
G01 X-5.9381 Y2.9661  
G01 X-5.9319 Y2.9687  
G01 X-5.9253 Y2.9700  
G01 X-0.0607 Y2.9700  
G01 X-0.0541 Y2.9687  
G01 X-0.0479 Y2.9661  
G01 X-0.0423 Y2.9624  
G01 X-0.0376 Y2.9577  
G01 X-0.0339 Y2.9521  
G01 X-0.0313 Y2.9459  
G01 X-0.0300 Y2.9393  
G01 X-0.0300 Y0.7020  
G01 X-0.0299 Y0.6998  
G01 X-0.0300 Y0.6987  
G01 X-0.0300 Y0.6976  
G01 X-0.0304 Y0.6954  
G01 X-0.0307 Y0.6931  
G01 X-0.0311 Y0.6921  
G01 X-0.0313 Y0.6910  
G01 X-0.0322 Y0.6889  
G01 X-0.0329 Y0.6868  
G01 X-0.0334 Y0.6858  
G01 X-0.0339 Y0.6848  
G01 X-0.0351 Y0.6829  
G01 X-0.0362 Y0.6810  
G01 X-0.0370 Y0.6802  
G01 X-0.0376 Y0.6792  
G01 X-0.0392 Y0.6776  
G01 X-0.0406 Y0.6760  
G01 X-0.0415 Y0.6753  
G01 X-0.0423 Y0.6745  
G01 X-0.0442 Y0.6732  
G01 X-0.0460 Y0.6719  
G01 X-0.0470 Y0.6714  
G01 X-0.0479 Y0.6708  
G01 X-0.0500 Y0.6699  
G01 X-0.0520 Y0.6689  
G01 X-0.0530 Y0.6686  
G01 X-0.0541 Y0.6682  
G01 X-0.0563 Y0.6678  
G01 X-0.0584 Y0.6672  
G01 X-0.0596 Y0.6671  
G01 X-0.0607 Y0.6669  
G01 X-0.0629 Y0.6669  
G01 X-0.0651 Y0.6668  
G01 X-0.0662 Y0.6669  
G01 X-0.0673 Y0.6669  
G01 X-0.0695 Y0.6673  
G01 X-0.0718 Y0.6676  
G01 X-0.0728 Y0.6680  
G01 X-0.0739 Y0.6682  
G01 X-0.0760 Y0.6691  
G01 X-0.0764 Y0.6692  
G01 X-0.0980 Y0.6750  
G01 X-0.1548 Y0.6750  
G01 X-0.1550 Y0.6750  
G01 X-0.1581 Y0.6750  
G01 X-0.1613 Y0.6750  
G01 X-0.1615 Y0.6750  
G01 X-0.4884 Y0.6787  
G01 X-0.4916 Y0.6788  
G01 X-0.4918 Y0.6788  
G01 X-0.4919 Y0.6788  
G01 X-0.4950 Y0.6794  
G01 X-0.4982 Y0.6801  
G01 X-0.4983 Y0.6801  
G01 X-0.4984 Y0.6802  
G01 X-0.5014 Y0.6814  
G01 X-0.5044 Y0.6827  
G01 X-0.5046 Y0.6828  
G01 X-0.5073 Y0.6846  
G01 X-0.5099 Y0.6864  
G01 X-0.5101 Y0.6866  
G01 X-0.5124 Y0.6889  
G01 X-0.8741 Y1.0539  
G01 X-0.8764 Y1.0562  
G01 X-0.8783 Y1.0591  
G01 X-0.8801 Y1.0618  
G01 X-0.8802 Y1.0619  
G01 X-0.8814 Y1.0650  
G01 X-0.8827 Y1.0680  
G01 X-0.8827 Y1.0681  
G01 X-0.8833 Y1.0713  
G01 X-0.8840 Y1.0746  
G01 X-0.8840 Y1.0747  
G01 X-0.8840 Y1.0780  
G01 X-0.8835 Y1.6086  
G01 X-0.8835 Y1.6120  
G01 X-0.8828 Y1.6153  
G01 X-0.8822 Y1.6185  
G01 X-0.8809 Y1.6217  
G01 X-0.8796 Y1.6247  
G01 X-0.8777 Y1.6276  
G01 X-0.8759 Y1.6303  
G01 X-0.8735 Y1.6327  
G01 X-0.8712 Y1.6350  
G01 X-0.8683 Y1.6369  
G01 X-0.8656 Y1.6388  
G01 X-0.8625 Y1.6400  
G01 X-0.8594 Y1.6413  
G01 X-0.8561 Y1.6420  
G01 X-0.8528 Y1.6426  
G01 X-0.8494 Y1.6426  
G01 X-0.8461 Y1.6426  
G01 X-0.8428 Y1.6420  
G01 X-0.8396 Y1.6413  
G01 X-0.8385 Y1.6409  
G01 X-0.8380 Y1.6412  
G01 X-0.8324 Y1.6430  
G01 X-0.8380 Y1.6448  
G01 X-0.8453 Y1.6485  
G01 X-0.8519 Y1.6533  
G01 X-0.8577 Y1.6591  
G01 X-0.8625 Y1.6657  
G01 X-0.8662 Y1.6730  
G01 X-0.8687 Y1.6808  
G01 X-0.8700 Y1.6889  
G01 X-0.8700 Y1.6971  
G01 X-0.8687 Y1.7052  
G01 X-0.8662 Y1.7130  
G01 X-0.8625 Y1.7203  
G01 X-0.8577 Y1.7269  
G01 X-0.8519 Y1.7327  
G01 X-0.8510 Y1.7333  
G01 X-0.8510 Y1.7340  
G01 X-0.8874 Y1.7340  
G01 X-0.8880 Y1.0623  
G01 X-0.5042 Y0.6749  
G01 X-0.1581 Y0.6710  
G01 X-0.1036 Y0.6710  
G01 X-0.0937 Y0.6697  
G01 X-0.0841 Y0.6671  
G01 X-0.0749 Y0.6633  
G01 X-0.0663 Y0.6583  
G01 X-0.0584 Y0.6523  
G01 X-0.0513 Y0.6452  
G01 X-0.0452 Y0.6373  
G01 X-0.0403 Y0.6287  
G01 X-0.0365 Y0.6195  
G01 X-0.0339 Y0.6099  
G01 X-0.0326 Y0.6000  
G01 X-0.0326 Y0.5900  
G01 X-0.0339 Y0.5801  
G01 X-0.0365 Y0.5705  
G01 X-0.0403 Y0.5613  
G01 X-0.0452 Y0.5527  
G01 X-0.0513 Y0.5448  
G01 X-0.0584 Y0.5377  
G01 X-0.0663 Y0.5317  
G01 X-0.0749 Y0.5267  
G01 X-0.0841 Y0.5229  
G01 X-0.0937 Y0.5203  
G01 X-0.1036 Y0.5190  
G01 X-0.1540 Y0.5190  
G01 X-0.1545 Y0.5189  
G01 X-0.1590 Y0.5190  
G01 X-0.2136 Y0.5190  
G01 X-0.2187 Y0.5197  
G01 X-0.2899 Y0.5205  
G01 X-0.2906 Y0.5203  
G01 X-0.3004 Y0.5190  
G01 X-0.4104 Y0.5190  
G01 X-0.4203 Y0.5203  
G01 X-0.4267 Y0.5220  
G01 X-0.5086 Y0.5230  
G01 X-0.5094 Y0.5229  
G01 X-0.5122 Y0.5230  
G01 X-0.7165 Y0.3196  
G01 X-0.7203 Y0.3158  
G01 X-0.7206 Y0.3156  
G01 X-0.7208 Y0.3154  
G01 X-0.7250 Y0.3121  
G01 X-0.7292 Y0.3087  
G01 X-0.7294 Y0.3085  
G01 X-0.7297 Y0.3084  
G01 X-0.7342 Y0.3055  
G01 X-0.7388 Y0.3026  
G01 X-0.7390 Y0.3025  
G01 X-0.7393 Y0.3023  
G01 X-0.7441 Y0.3000  
G01 X-0.7490 Y0.2977  
G01 X-0.7492 Y0.2976  
G01 X-0.7495 Y0.2974  
G01 X-0.7546 Y0.2957  
G01 X-0.7596 Y0.2939  
G01 X-0.7599 Y0.2938  
G01 X-0.7602 Y0.2937  
G01 X-0.7655 Y0.2925  
G01 X-0.7707 Y0.2913  
G01 X-0.7710 Y0.2913  
G01 X-0.7713 Y0.2912  
G01 X-0.7766 Y0.2906  
G01 X-0.7820 Y0.2900  
G01 X-0.7823 Y0.2900  
G01 X-0.7826 Y0.2900  
G01 X-0.7879 Y0.2900  
G01 X-1.3543 Y0.2880  
G01 X-1.3545 Y0.2880  
G01 X-4.0200 Y0.2880  
G01 X-4.0215 Y0.2861  
G01 X-4.0321 Y0.2755  
G01 X-4.0437 Y0.2660  
G01 X-4.0562 Y0.2576  
G01 X-4.0695 Y0.2505  
G01 X-4.0834 Y0.2448  
G01 X-4.0978 Y0.2404  
G01 X-4.1125 Y0.2375  
G01 X-4.1275 Y0.2360  
G01 X-4.1425 Y0.2360  
G01 X-4.1575 Y0.2375  
G01 X-4.1722 Y0.2404  
G01 X-4.1866 Y0.2448  
G01 X-4.2005 Y0.2505  
G01 X-4.2138 Y0.2576  
G01 X-4.2263 Y0.2660  
G01 X-4.2379 Y0.2755  
G01 X-4.3375 Y0.3751  
G01 X-4.3470 Y0.3867  
G01 X-4.3554 Y0.3992  
G01 X-4.3625 Y0.4125  
G01 X-4.3682 Y0.4264  
G01 X-4.3726 Y0.4408  
G01 X-4.3755 Y0.4555  
G01 X-4.3770 Y0.4705  
G01 X-4.3770 Y0.4855  
G01 X-4.3755 Y0.5005  
G01 X-4.3726 Y0.5152  
G01 X-4.3682 Y0.5296  
G01 X-4.3625 Y0.5435  
G01 X-4.3554 Y0.5568  
G01 X-4.3470 Y0.5693  
G01 X-4.3375 Y0.5809  
G01 X-4.3269 Y0.5915  
G01 X-4.3153 Y0.6010  
G01 X-4.3028 Y0.6094  
G01 X-4.2895 Y0.6165  
G01 X-4.2756 Y0.6222  
G01 X-4.2612 Y0.6266  
G01 X-4.2465 Y0.6295  
G01 X-4.2315 Y0.6310  
G01 X-4.2165 Y0.6310  
G01 X-4.2015 Y0.6295  
G01 X-4.1868 Y0.6266  
G01 X-4.1724 Y0.6222  
G01 X-4.1585 Y0.6165  
G01 X-4.1452 Y0.6094  
G01 X-4.1327 Y0.6010  
G01 X-4.1211 Y0.5915  
G01 X-4.0215 Y0.4919  
G01 X-4.0200 Y0.4900  
G01 X-1.3493 Y0.4900  
G01 X-0.8298 Y0.4919  
G01 X-0.6582 Y0.6627  
G01 X-0.9888 Y0.9964  
G01 X-0.9920 Y0.9996  
G01 X-0.9922 Y0.9998  
G01 X-0.9948 Y1.0034  
G01 X-0.9975 Y1.0071  
G01 X-0.9976 Y1.0073  
G01 X-0.9996 Y1.0114  
G01 X-1.0017 Y1.0154  
G01 X-1.0017 Y1.0155  
G01 X-1.0032 Y1.0199  
G01 X-1.0046 Y1.0242  
G01 X-1.0046 Y1.0243  
G01 X-1.0046 Y1.0244  
G01 X-1.0053 Y1.0289  
G01 X-1.0060 Y1.0334  
G01 X-1.0060 Y1.0335  
G01 X-1.0060 Y1.0336  
G01 X-1.0060 Y1.0382  
G01 X-1.0053 Y1.7844  
G01 X-1.0053 Y1.7890  
G01 X-1.0053 Y1.7937  
G01 X-1.0050 Y2.1136  
G01 X-1.0254 Y2.1340  
G01 X-1.0340 Y2.1340  
G01 X-1.0321 Y2.1327  
G01 X-1.0263 Y2.1269  
G01 X-1.0215 Y2.1203  
G01 X-1.0178 Y2.1130  
G01 X-1.0153 Y2.1052  
G01 X-1.0140 Y2.0971  
G01 X-1.0140 Y2.0889  
G01 X-1.0153 Y2.0808  
G01 X-1.0178 Y2.0730  
G01 X-1.0215 Y2.0657  
G01 X-1.0263 Y2.0591  
G01 X-1.0321 Y2.0533  
G01 X-1.0387 Y2.0485  
G01 X-1.0460 Y2.0448  
G01 X-1.0516 Y2.0430  
G01 X-1.0460 Y2.0412  
G01 X-1.0419 Y2.0391  
G01 X-1.0398 Y2.0391  
G01 X-1.0365 Y2.0384  
G01 X-1.0332 Y2.0378  
G01 X-1.0301 Y2.0365  
G01 X-1.0270 Y2.0352  
G01 X-1.0242 Y2.0333  
G01 X-1.0214 Y2.0315  
G01 X-1.0191 Y2.0291  
G01 X-1.0167 Y2.0267  
G01 X-1.0148 Y2.0239  
G01 X-1.0130 Y2.0212  
G01 X-1.0117 Y2.0180  
G01 X-1.0104 Y2.0150  
G01 X-1.0098 Y2.0117  
G01 X-1.0091 Y2.0084  
G01 X-1.0091 Y2.0050  
G01 X-1.0091 Y2.0017  
G01 X-1.0091 Y1.9809  
G01 X-1.0091 Y1.9776  
G01 X-1.0098 Y1.9743  
G01 X-1.0104 Y1.9710  
G01 X-1.0117 Y1.9679  
G01 X-1.0130 Y1.9648  
G01 X-1.0149 Y1.9620  
G01 X-1.0167 Y1.9593  
G01 X-1.0191 Y1.9569  
G01 X-1.0215 Y1.9545  
G01 X-1.0243 Y1.9526  
G01 X-1.0270 Y1.9508  
G01 X-1.0302 Y1.9495  
G01 X-1.0332 Y1.9483  
G01 X-1.0366 Y1.9476  
G01 X-1.0398 Y1.9469  
G01 X-1.0418 Y1.9469  
G01 X-1.0460 Y1.9448  
G01 X-1.0516 Y1.9430  
G01 X-1.0460 Y1.9412  
G01 X-1.0387 Y1.9375  
G01 X-1.0321 Y1.9327  
G01 X-1.0263 Y1.9269  
G01 X-1.0215 Y1.9203  
G01 X-1.0178 Y1.9130  
G01 X-1.0153 Y1.9052  
G01 X-1.0140 Y1.8971  
G01 X-1.0140 Y1.8889  
G01 X-1.0153 Y1.8808  
G01 X-1.0178 Y1.8730  
G01 X-1.0215 Y1.8657  
G01 X-1.0263 Y1.8591  
G01 X-1.0321 Y1.8533  
G01 X-1.0387 Y1.8485  
G01 X-1.0460 Y1.8448  
G01 X-1.0516 Y1.8430  
G01 X-1.0460 Y1.8412  
G01 X-1.0387 Y1.8375  
G01 X-1.0321 Y1.8327  
G01 X-1.0263 Y1.8269  
G01 X-1.0215 Y1.8203  
G01 X-1.0178 Y1.8130  
G01 X-1.0153 Y1.8052  
G01 X-1.0140 Y1.7971  
G01 X-1.0140 Y1.7889  
G01 X-1.0153 Y1.7808  
G01 X-1.0178 Y1.7730  
G01 X-1.0215 Y1.7657  
G01 X-1.0263 Y1.7591  
G01 X-1.0321 Y1.7533  
G01 X-1.0387 Y1.7485  
G01 X-1.0460 Y1.7448  
G01 X-1.0516 Y1.7430  
G01 X-1.0460 Y1.7412  
G01 X-1.0416 Y1.7389  
G01 X-1.0400 Y1.7389  
G01 X-1.0367 Y1.7383  
G01 X-1.0335 Y1.7376  
G01 X-1.0303 Y1.7363  
G01 X-1.0273 Y1.7351  
G01 X-1.0244 Y1.7332  
G01 X-1.0217 Y1.7314  
G01 X-1.0193 Y1.7289  
G01 X-1.0170 Y1.7266  
G01 X-1.0151 Y1.7238  
G01 X-1.0133 Y1.7211  
G01 X-1.0120 Y1.7180  
G01 X-1.0107 Y1.7149  
G01 X-1.0100 Y1.7116  
G01 X-1.0094 Y1.7083  
G01 X-1.0094 Y1.7049  
G01 X-1.0094 Y1.7016  
G01 X-1.0100 Y1.0415  
G01 X-1.0100 Y1.0382  
G01 X-1.0100 Y1.0349  
G01 X-1.0101 Y1.0256  
G01 X-1.0065 Y1.0171  
G01 X-1.0053 Y1.0141  
G01 X-1.0040 Y1.0110  
G01 X-1.0005 Y1.0024  
G01 X-0.9940 Y0.9959  
G01 X-0.9917 Y0.9936  
G01 X-0.9894 Y0.9913  
G01 X-0.6877 Y0.6869  
G01 X-0.6854 Y0.6845  
G01 X-0.6835 Y0.6817  
G01 X-0.6817 Y0.6789  
G01 X-0.6804 Y0.6758  
G01 X-0.6791 Y0.6727  
G01 X-0.6785 Y0.6694  
G01 X-0.6779 Y0.6662  
G01 X-0.6779 Y0.6628  
G01 X-0.6779 Y0.6595  
G01 X-0.6785 Y0.6561  
G01 X-0.6792 Y0.6529  
G01 X-0.6805 Y0.6498  
G01 X-0.6818 Y0.6467  
G01 X-0.6836 Y0.6439  
G01 X-0.6855 Y0.6412  
G01 X-0.6879 Y0.6388  
G01 X-0.8215 Y0.5058  
G01 X-0.8238 Y0.5035  
G01 X-0.8240 Y0.5033  
G01 X-0.8267 Y0.5015  
G01 X-0.8294 Y0.4997  
G01 X-0.8296 Y0.4996  
G01 X-0.8326 Y0.4984  
G01 X-0.8356 Y0.4971  
G01 X-0.8357 Y0.4971  
G01 X-0.8389 Y0.4965  
G01 X-0.8421 Y0.4958  
G01 X-0.8422 Y0.4958  
G01 X-0.8423 Y0.4958  
G01 X-0.8456 Y0.4958  
G01 X-1.3459 Y0.4940  
G01 X-1.3492 Y0.4940  
G01 X-1.3525 Y0.4940  
G01 X-4.0072 Y0.4940  
G01 X-4.0138 Y0.4953  
G01 X-4.0200 Y0.4979  
G01 X-4.0256 Y0.5016  
G01 X-4.0303 Y0.5063  
G01 X-4.1276 Y0.6036  
G01 X-4.1634 Y0.6243  
G01 X-4.2033 Y0.6350  
G01 X-4.2447 Y0.6350  
G01 X-4.2846 Y0.6243  
G01 X-4.3204 Y0.6036  
G01 X-4.3496 Y0.5744  
G01 X-4.3703 Y0.5386  
G01 X-4.3810 Y0.4987  
G01 X-4.3810 Y0.4573  
G01 X-4.3703 Y0.4174  
G01 X-4.3496 Y0.3816  
G01 X-4.2314 Y0.2634  
G01 X-4.1956 Y0.2427  
G01 X-4.1557 Y0.2320  
G01 X-4.1143 Y0.2320  
G01 X-4.0744 Y0.2427  
G01 X-4.0386 Y0.2634  
G01 X-4.0256 Y0.2764  
G01 X-4.0200 Y0.2801  
G01 X-4.0138 Y0.2827  
G01 X-4.0072 Y0.2840  
G01 X-1.3693 Y0.2840  
G01 X-1.3683 Y0.2841  
G01 X-1.3660 Y0.2840  
G01 X-1.3637 Y0.2840  
G01 X-1.3634 Y0.2839  
G01 X-1.3522 Y0.2840  
G01 X-1.3488 Y0.2840  
G01 X-1.3455 Y0.2840  
G01 X-1.3402 Y0.2840  
G01 X-1.3400 Y0.2840  
G01 X-1.3377 Y0.2840  
G01 X-1.3354 Y0.2842  
G01 X-1.3344 Y0.2841  
G01 X-0.7913 Y0.2860  
G01 X-0.7912 Y0.2860  
G01 X-0.7879 Y0.2860  
G01 X-0.7847 Y0.2860  
G01 X-0.7741 Y0.2860  
G01 X-0.7640 Y0.2887  
G01 X-0.7608 Y0.2896  
G01 X-0.7576 Y0.2904  
G01 X-0.7575 Y0.2905  
G01 X-0.7474 Y0.2931  
G01 X-0.7383 Y0.2984  
G01 X-0.7354 Y0.3001  
G01 X-0.7326 Y0.3017  
G01 X-0.7235 Y0.3070  
G01 X-0.7161 Y0.3144  
G01 X-0.7137 Y0.3168  
G01 X-0.7114 Y0.3191  
G01 X-0.5229 Y0.5067  
G01 X-0.5229 Y0.5068  
G01 X-0.5206 Y0.5090  
G01 X-0.5183 Y0.5113  
G01 X-0.5182 Y0.5114  
G01 X-0.5181 Y0.5115  
G01 X-0.5154 Y0.5132  
G01 X-0.5127 Y0.5150  
G01 X-0.5126 Y0.5150  
G01 X-0.5125 Y0.5151  
G01 X-0.5095 Y0.5163  
G01 X-0.5065 Y0.5175  
G01 X-0.5064 Y0.5176  
G01 X-0.5062 Y0.5176  
G01 X-0.5031 Y0.5182  
G01 X-0.5000 Y0.5188  
G01 X-0.4998 Y0.5188  
G01 X-0.4997 Y0.5189  
G01 X-0.4965 Y0.5188  
G01 X-0.4933 Y0.5188  
G01 X-0.4931 Y0.5188  
G01 X-0.4340 Y0.5181  
G01 X-0.4331 Y0.5182  
G01 X-0.4306 Y0.5181  
G01 X-0.4282 Y0.5180  
G01 X-0.4273 Y0.5179  
G01 X-0.4264 Y0.5178  
G01 X-0.4240 Y0.5172  
G01 X-0.4217 Y0.5167  
G01 X-0.4208 Y0.5163  
G01 X-0.4160 Y0.5150  
G01 X-0.2952 Y0.5150  
G01 X-0.2946 Y0.5152  
G01 X-0.2926 Y0.5156  
G01 X-0.2907 Y0.5161  
G01 X-0.2894 Y0.5162  
G01 X-0.2881 Y0.5165  
G01 X-0.2860 Y0.5164  
G01 X-0.2840 Y0.5166  
G01 X-0.2827 Y0.5164  
G01 X-0.2285 Y0.5158  
G01 X-0.2275 Y0.5159  
G01 X-0.2251 Y0.5157  
G01 X-0.2227 Y0.5157  
G01 X-0.2218 Y0.5155  
G01 X-0.2209 Y0.5155  
G01 X-0.2191 Y0.5150  
G01 X-0.1624 Y0.5150  
G01 X-0.1622 Y0.5150  
G01 X-0.1590 Y0.5150  
G01 X-0.1559 Y0.5150  
G01 X-0.1557 Y0.5150  
G01 X-0.1482 Y0.5149  
G01 X-0.1476 Y0.5150  
G01 X-0.1451 Y0.5150  
G01 X-0.1427 Y0.5151  
G01 X-0.1418 Y0.5150  
G01 X-0.0980 Y0.5150  
G01 X-0.0764 Y0.5208  
G01 X-0.0760 Y0.5209  
G01 X-0.0739 Y0.5218  
G01 X-0.0728 Y0.5220  
G01 X-0.0718 Y0.5224  
G01 X-0.0695 Y0.5227  
G01 X-0.0673 Y0.5231  
G01 X-0.0662 Y0.5231  
G01 X-0.0651 Y0.5232  
G01 X-0.0629 Y0.5231  
G01 X-0.0607 Y0.5231  
G01 X-0.0596 Y0.5229  
G01 X-0.0584 Y0.5228  
G01 X-0.0563 Y0.5222  
G01 X-0.0541 Y0.5218  
G01 X-0.0530 Y0.5214  
G01 X-0.0520 Y0.5211  
G01 X-0.0500 Y0.5201  
G01 X-0.0479 Y0.5192  
G01 X-0.0470 Y0.5186  
G01 X-0.0460 Y0.5181  
G01 X-0.0442 Y0.5168  
G01 X-0.0423 Y0.5155  
G01 X-0.0415 Y0.5147  
G01 X-0.0406 Y0.5140  
G01 X-0.0392 Y0.5124  
G01 X-0.0376 Y0.5108  
G01 X-0.0370 Y0.5098  
G01 X-0.0362 Y0.5090  
G01 X-0.0351 Y0.5071  
G01 X-0.0339 Y0.5052  
G01 X-0.0334 Y0.5042  
G01 X-0.0329 Y0.5032  
G01 X-0.0322 Y0.5011  
G01 X-0.0313 Y0.4990  
G01 X-0.0311 Y0.4979  
G01 X-0.0307 Y0.4969  
G01 X-0.0304 Y0.4946  
G01 X-0.0300 Y0.4924  
G01 X-0.0300 Y0.4913  
G01 X-0.0299 Y0.4902  
G01 X-0.0300 Y0.4880  
G01 X-0.0300 Y0.0607  
G01 X-0.0313 Y0.0541  
G01 X-0.0339 Y0.0479  
G01 X-0.0376 Y0.0423  
G00 Z0.1000  
G00 X-0.1886 Y0.1700  
G01 Z-0.0070 F10    
G01 X-0.1700 Y0.1886  F20    
G01 X-0.1568 Y0.2114  
G01 X-0.1500 Y0.2368  
G01 X-0.1500 Y0.2632  
G01 X-0.1568 Y0.2886  
G01 X-0.1700 Y0.3114  
G01 X-0.1886 Y0.3300  
G01 X-0.2114 Y0.3432  
G01 X-0.2368 Y0.3500  
G01 X-0.2632 Y0.3500  
G01 X-0.2886 Y0.3432  
G01 X-0.3114 Y0.3300  
G01 X-0.3300 Y0.3114  
G01 X-0.3432 Y0.2886  
G01 X-0.3500 Y0.2632  
G01 X-0.3500 Y0.2368  
G01 X-0.3432 Y0.2114  
G01 X-0.3300 Y0.1886  
G01 X-0.3114 Y0.1700  
G01 X-0.2886 Y0.1568  
G01 X-0.2632 Y0.1500  
G01 X-0.2368 Y0.1500  
G01 X-0.2114 Y0.1568  
G01 X-0.1886 Y0.1700  
G00 Z0.1000  
G00 X-0.1835 Y1.9260  
G01 Z-0.0070 F10    
G01 X-0.1697 Y1.9317  F20    
G01 X-0.1632 Y1.9330  
G01 X-0.1589 Y1.9330  
G01 X-0.1383 Y1.9415  
G01 X-0.1225 Y1.9573  
G01 X-0.1140 Y1.9779  
G01 X-0.1140 Y2.0001  
G01 X-0.1260 Y2.0291  
G01 X-0.1273 Y2.0357  
G01 X-0.1273 Y2.0423  
G01 X-0.1272 Y2.0427  
G01 X-0.1260 Y2.0489  
G01 X-0.1140 Y2.0779  
G01 X-0.1140 Y2.1001  
G01 X-0.1260 Y2.1291  
G01 X-0.1273 Y2.1357  
G01 X-0.1273 Y2.1423  
G01 X-0.1261 Y2.1485  
G01 X-0.1260 Y2.1489  
G01 X-0.1259 Y2.1492  
G01 X-0.1140 Y2.1779  
G01 X-0.1140 Y2.2001  
G01 X-0.1225 Y2.2207  
G01 X-0.1383 Y2.2365  
G01 X-0.1589 Y2.2450  
G01 X-0.1632 Y2.2450  
G01 X-0.1697 Y2.2463  
G01 X-0.1700 Y2.2464  
G01 X-0.1835 Y2.2520  
G01 X-0.2085 Y2.2520  
G01 X-0.2223 Y2.2463  
G01 X-0.2288 Y2.2450  
G01 X-0.2331 Y2.2450  
G01 X-0.2537 Y2.2365  
G01 X-0.2695 Y2.2207  
G01 X-0.2780 Y2.2001  
G01 X-0.2780 Y2.1827  
G01 X-0.2793 Y2.1761  
G01 X-0.2819 Y2.1699  
G01 X-0.2856 Y2.1643  
G01 X-0.2903 Y2.1596  
G01 X-0.2959 Y2.1559  
G01 X-0.3021 Y2.1533  
G01 X-0.3087 Y2.1520  
G01 X-0.4133 Y2.1520  
G01 X-0.4199 Y2.1533  
G01 X-0.4261 Y2.1559  
G01 X-0.4317 Y2.1596  
G01 X-0.4364 Y2.1643  
G01 X-0.4401 Y2.1699  
G01 X-0.4427 Y2.1761  
G01 X-0.4440 Y2.1827  
G01 X-0.4440 Y2.1910  
G01 X-0.4427 Y2.1976  
G01 X-0.4390 Y2.2065  
G01 X-0.4390 Y2.2315  
G01 X-0.4427 Y2.2404  
G01 X-0.4433 Y2.2433  
G01 X-0.4436 Y2.2438  
G01 X-0.4449 Y2.2458  
G01 X-0.4462 Y2.2490  
G01 X-0.4475 Y2.2520  
G01 X-0.4486 Y2.2547  
G01 X-0.4663 Y2.2724  
G01 X-0.4690 Y2.2735  
G01 X-0.4720 Y2.2747  
G01 X-0.4752 Y2.2761  
G01 X-0.4771 Y2.2773  
G01 X-0.4777 Y2.2777  
G01 X-0.4806 Y2.2783  
G01 X-0.4895 Y2.2820  
G01 X-0.5145 Y2.2820  
G01 X-0.5234 Y2.2783  
G01 X-0.5263 Y2.2777  
G01 X-0.5288 Y2.2761  
G01 X-0.5335 Y2.2742  
G01 X-0.5350 Y2.2735  
G01 X-0.5377 Y2.2724  
G01 X-0.5465 Y2.2636  
G01 X-0.5521 Y2.2599  
G01 X-0.5583 Y2.2573  
G01 X-0.5648 Y2.2560  
G01 X-0.8045 Y2.2560  
G01 X-0.8183 Y2.2503  
G01 X-0.8248 Y2.2490  
G01 X-0.8291 Y2.2490  
G01 X-0.8497 Y2.2405  
G01 X-0.8655 Y2.2247  
G01 X-0.8676 Y2.2196  
G01 X-0.8684 Y2.2176  
G01 X-0.8702 Y2.2134  
G01 X-0.8739 Y2.2078  
G01 X-0.8762 Y2.2055  
G01 X-0.8786 Y2.2031  
G01 X-0.8842 Y2.1994  
G01 X-0.8866 Y2.1984  
G01 X-0.8904 Y2.1968  
G01 X-0.8936 Y2.1961  
G01 X-0.8970 Y2.1955  
G01 X-0.9037 Y2.1955  
G01 X-0.9069 Y2.1961  
G01 X-0.9102 Y2.1968  
G01 X-0.9164 Y2.1994  
G01 X-0.9220 Y2.2031  
G01 X-0.9259 Y2.2070  
G01 X-0.9267 Y2.2078  
G01 X-0.9653 Y2.2464  
G01 X-0.9885 Y2.2560  
G01 X-1.1045 Y2.2560  
G01 X-1.1183 Y2.2503  
G01 X-1.1248 Y2.2490  
G01 X-1.1291 Y2.2490  
G01 X-1.1497 Y2.2405  
G01 X-1.1655 Y2.2247  
G01 X-1.1740 Y2.2041  
G01 X-1.1740 Y2.1819  
G01 X-1.1620 Y2.1529  
G01 X-1.1607 Y2.1463  
G01 X-1.1607 Y2.1397  
G01 X-1.1619 Y2.1335  
G01 X-1.1620 Y2.1331  
G01 X-1.1621 Y2.1328  
G01 X-1.1740 Y2.1041  
G01 X-1.1740 Y2.0819  
G01 X-1.1655 Y2.0613  
G01 X-1.1497 Y2.0455  
G01 X-1.1385 Y2.0409  
G01 X-1.1380 Y2.0412  
G01 X-1.1324 Y2.0430  
G01 X-1.1380 Y2.0448  
G01 X-1.1453 Y2.0485  
G01 X-1.1519 Y2.0533  
G01 X-1.1577 Y2.0591  
G01 X-1.1625 Y2.0657  
G01 X-1.1662 Y2.0730  
G01 X-1.1687 Y2.0808  
G01 X-1.1700 Y2.0889  
G01 X-1.1700 Y2.0971  
G01 X-1.1687 Y2.1052  
G01 X-1.1662 Y2.1130  
G01 X-1.1625 Y2.1203  
G01 X-1.1577 Y2.1269  
G01 X-1.1519 Y2.1327  
G01 X-1.1453 Y2.1375  
G01 X-1.1380 Y2.1412  
G01 X-1.1324 Y2.1430  
G01 X-1.1380 Y2.1448  
G01 X-1.1453 Y2.1485  
G01 X-1.1519 Y2.1533  
G01 X-1.1577 Y2.1591  
G01 X-1.1625 Y2.1657  
G01 X-1.1662 Y2.1730  
G01 X-1.1687 Y2.1808  
G01 X-1.1700 Y2.1889  
G01 X-1.1700 Y2.1971  
G01 X-1.1687 Y2.2052  
G01 X-1.1662 Y2.2130  
G01 X-1.1625 Y2.2203  
G01 X-1.1577 Y2.2269  
G01 X-1.1519 Y2.2327  
G01 X-1.1453 Y2.2375  
G01 X-1.1380 Y2.2412  
G01 X-1.1302 Y2.2437  
G01 X-1.1221 Y2.2450  
G01 X-1.1199 Y2.2450  
G01 X-1.1146 Y2.2477  
G01 X-1.1058 Y2.2505  
G01 X-1.0966 Y2.2520  
G01 X-0.9964 Y2.2520  
G01 X-0.9872 Y2.2505  
G01 X-0.9784 Y2.2477  
G01 X-0.9701 Y2.2435  
G01 X-0.9626 Y2.2380  
G01 X-0.9075 Y2.1830  
G01 X-0.9043 Y2.1797  
G01 X-0.9010 Y2.1764  
G01 X-0.8983 Y2.1727  
G01 X-0.8955 Y2.1689  
G01 X-0.8934 Y2.1648  
G01 X-0.8913 Y2.1606  
G01 X-0.8899 Y2.1561  
G01 X-0.8885 Y2.1518  
G01 X-0.8877 Y2.1472  
G01 X-0.8870 Y2.1426  
G01 X-0.8870 Y2.1380  
G01 X-0.8870 Y2.1334  
G01 X-0.8873 Y1.8520  
G01 X-0.8510 Y1.8520  
G01 X-0.8510 Y1.8527  
G01 X-0.8519 Y1.8533  
G01 X-0.8577 Y1.8591  
G01 X-0.8625 Y1.8657  
G01 X-0.8662 Y1.8730  
G01 X-0.8687 Y1.8808  
G01 X-0.8700 Y1.8889  
G01 X-0.8700 Y1.8971  
G01 X-0.8687 Y1.9052  
G01 X-0.8662 Y1.9130  
G01 X-0.8625 Y1.9203  
G01 X-0.8577 Y1.9269  
G01 X-0.8519 Y1.9327  
G01 X-0.8453 Y1.9375  
G01 X-0.8380 Y1.9412  
G01 X-0.8324 Y1.9430  
G01 X-0.8380 Y1.9448  
G01 X-0.8453 Y1.9485  
G01 X-0.8519 Y1.9533  
G01 X-0.8577 Y1.9591  
G01 X-0.8625 Y1.9657  
G01 X-0.8662 Y1.9730  
G01 X-0.8687 Y1.9808  
G01 X-0.8700 Y1.9889  
G01 X-0.8700 Y1.9971  
G01 X-0.8687 Y2.0052  
G01 X-0.8662 Y2.0130  
G01 X-0.8625 Y2.0203  
G01 X-0.8577 Y2.0269  
G01 X-0.8519 Y2.0327  
G01 X-0.8453 Y2.0375  
G01 X-0.8380 Y2.0412  
G01 X-0.8324 Y2.0430  
G01 X-0.8380 Y2.0448  
G01 X-0.8453 Y2.0485  
G01 X-0.8519 Y2.0533  
G01 X-0.8577 Y2.0591  
G01 X-0.8625 Y2.0657  
G01 X-0.8662 Y2.0730  
G01 X-0.8687 Y2.0808  
G01 X-0.8700 Y2.0889  
G01 X-0.8700 Y2.0971  
G01 X-0.8687 Y2.1052  
G01 X-0.8662 Y2.1130  
G01 X-0.8625 Y2.1203  
G01 X-0.8577 Y2.1269  
G01 X-0.8519 Y2.1327  
G01 X-0.8453 Y2.1375  
G01 X-0.8380 Y2.1412  
G01 X-0.8324 Y2.1430  
G01 X-0.8380 Y2.1448  
G01 X-0.8453 Y2.1485  
G01 X-0.8519 Y2.1533  
G01 X-0.8577 Y2.1591  
G01 X-0.8625 Y2.1657  
G01 X-0.8662 Y2.1730  
G01 X-0.8687 Y2.1808  
G01 X-0.8700 Y2.1889  
G01 X-0.8700 Y2.1971  
G01 X-0.8687 Y2.2052  
G01 X-0.8662 Y2.2130  
G01 X-0.8625 Y2.2203  
G01 X-0.8577 Y2.2269  
G01 X-0.8519 Y2.2327  
G01 X-0.8453 Y2.2375  
G01 X-0.8380 Y2.2412  
G01 X-0.8302 Y2.2437  
G01 X-0.8221 Y2.2450  
G01 X-0.8199 Y2.2450  
G01 X-0.8146 Y2.2477  
G01 X-0.8058 Y2.2505  
G01 X-0.7966 Y2.2520  
G01 X-0.5524 Y2.2520  
G01 X-0.5404 Y2.2640  
G01 X-0.5329 Y2.2695  
G01 X-0.5246 Y2.2737  
G01 X-0.5158 Y2.2765  
G01 X-0.5066 Y2.2780  
G01 X-0.4974 Y2.2780  
G01 X-0.4882 Y2.2765  
G01 X-0.4794 Y2.2737  
G01 X-0.4711 Y2.2695  
G01 X-0.4636 Y2.2640  
G01 X-0.4570 Y2.2574  
G01 X-0.4515 Y2.2499  
G01 X-0.4473 Y2.2416  
G01 X-0.4445 Y2.2328  
G01 X-0.4430 Y2.2236  
G01 X-0.4430 Y2.2144  
G01 X-0.4445 Y2.2052  
G01 X-0.4473 Y2.1964  
G01 X-0.4515 Y2.1881  
G01 X-0.4570 Y2.1806  
G01 X-0.4896 Y2.1480  
G01 X-0.2550 Y2.1480  
G01 X-0.2550 Y2.1487  
G01 X-0.2559 Y2.1493  
G01 X-0.2617 Y2.1551  
G01 X-0.2665 Y2.1617  
G01 X-0.2702 Y2.1690  
G01 X-0.2727 Y2.1768  
G01 X-0.2740 Y2.1849  
G01 X-0.2740 Y2.1931  
G01 X-0.2727 Y2.2012  
G01 X-0.2702 Y2.2090  
G01 X-0.2665 Y2.2163  
G01 X-0.2617 Y2.2229  
G01 X-0.2559 Y2.2287  
G01 X-0.2493 Y2.2335  
G01 X-0.2420 Y2.2372  
G01 X-0.2342 Y2.2397  
G01 X-0.2261 Y2.2410  
G01 X-0.2239 Y2.2410  
G01 X-0.2186 Y2.2437  
G01 X-0.2098 Y2.2465  
G01 X-0.2006 Y2.2480  
G01 X-0.1914 Y2.2480  
G01 X-0.1822 Y2.2465  
G01 X-0.1734 Y2.2437  
G01 X-0.1681 Y2.2410  
G01 X-0.1659 Y2.2410  
G01 X-0.1578 Y2.2397  
G01 X-0.1500 Y2.2372  
G01 X-0.1427 Y2.2335  
G01 X-0.1361 Y2.2287  
G01 X-0.1303 Y2.2229  
G01 X-0.1255 Y2.2163  
G01 X-0.1218 Y2.2090  
G01 X-0.1193 Y2.2012  
G01 X-0.1180 Y2.1931  
G01 X-0.1180 Y2.1849  
G01 X-0.1193 Y2.1768  
G01 X-0.1218 Y2.1690  
G01 X-0.1255 Y2.1617  
G01 X-0.1303 Y2.1551  
G01 X-0.1361 Y2.1493  
G01 X-0.1370 Y2.1487  
G01 X-0.1370 Y2.1293  
G01 X-0.1361 Y2.1287  
G01 X-0.1303 Y2.1229  
G01 X-0.1255 Y2.1163  
G01 X-0.1218 Y2.1090  
G01 X-0.1193 Y2.1012  
G01 X-0.1180 Y2.0931  
G01 X-0.1180 Y2.0849  
G01 X-0.1193 Y2.0768  
G01 X-0.1218 Y2.0690  
G01 X-0.1255 Y2.0617  
G01 X-0.1303 Y2.0551  
G01 X-0.1361 Y2.0493  
G01 X-0.1427 Y2.0445  
G01 X-0.1500 Y2.0408  
G01 X-0.1556 Y2.0390  
G01 X-0.1500 Y2.0372  
G01 X-0.1427 Y2.0335  
G01 X-0.1361 Y2.0287  
G01 X-0.1303 Y2.0229  
G01 X-0.1255 Y2.0163  
G01 X-0.1218 Y2.0090  
G01 X-0.1193 Y2.0012  
G01 X-0.1180 Y1.9931  
G01 X-0.1180 Y1.9849  
G01 X-0.1193 Y1.9768  
G01 X-0.1218 Y1.9690  
G01 X-0.1255 Y1.9617  
G01 X-0.1303 Y1.9551  
G01 X-0.1361 Y1.9493  
G01 X-0.1427 Y1.9445  
G01 X-0.1500 Y1.9408  
G01 X-0.1578 Y1.9383  
G01 X-0.1659 Y1.9370  
G01 X-0.1681 Y1.9370  
G01 X-0.1734 Y1.9343  
G01 X-0.1822 Y1.9315  
G01 X-0.1914 Y1.9300  
G01 X-0.4427 Y1.9300  
G01 X-0.4430 Y1.9182  
G01 X-0.4430 Y1.9144  
G01 X-0.4431 Y1.9135  
G01 X-0.4432 Y1.9127  
G01 X-0.4439 Y1.9089  
G01 X-0.4445 Y1.9052  
G01 X-0.4447 Y1.9044  
G01 X-0.4449 Y1.9035  
G01 X-0.4461 Y1.9000  
G01 X-0.4473 Y1.8964  
G01 X-0.4477 Y1.8956  
G01 X-0.4480 Y1.8948  
G01 X-0.4498 Y1.8915  
G01 X-0.4515 Y1.8881  
G01 X-0.4520 Y1.8874  
G01 X-0.4524 Y1.8866  
G01 X-0.4548 Y1.8836  
G01 X-0.4570 Y1.8806  
G01 X-0.4576 Y1.8800  
G01 X-0.4581 Y1.8793  
G01 X-0.4609 Y1.8767  
G01 X-0.4636 Y1.8740  
G01 X-0.4642 Y1.8735  
G01 X-0.4649 Y1.8729  
G01 X-0.4680 Y1.8708  
G01 X-0.4711 Y1.8685  
G01 X-0.4718 Y1.8682  
G01 X-0.4725 Y1.8677  
G01 X-0.4760 Y1.8660  
G01 X-0.4794 Y1.8643  
G01 X-0.4802 Y1.8641  
G01 X-0.4809 Y1.8637  
G01 X-0.4846 Y1.8626  
G01 X-0.4882 Y1.8615  
G01 X-0.4890 Y1.8613  
G01 X-0.4898 Y1.8611  
G01 X-0.4936 Y1.8606  
G01 X-0.4974 Y1.8600  
G01 X-0.4982 Y1.8600  
G01 X-0.4990 Y1.8599  
G01 X-0.5028 Y1.8600  
G01 X-0.5066 Y1.8600  
G01 X-0.5075 Y1.8601  
G01 X-0.5083 Y1.8602  
G01 X-0.5121 Y1.8609  
G01 X-0.5158 Y1.8615  
G01 X-0.5166 Y1.8617  
G01 X-0.5175 Y1.8619  
G01 X-0.5210 Y1.8631  
G01 X-0.5246 Y1.8643  
G01 X-0.5254 Y1.8647  
G01 X-0.5262 Y1.8650  
G01 X-0.5295 Y1.8668  
G01 X-0.5329 Y1.8685  
G01 X-0.5336 Y1.8690  
G01 X-0.5344 Y1.8694  
G01 X-0.5374 Y1.8718  
G01 X-0.5404 Y1.8740  
G01 X-0.5410 Y1.8746  
G01 X-0.5417 Y1.8751  
G01 X-0.5443 Y1.8779  
G01 X-0.5470 Y1.8806  
G01 X-0.5475 Y1.8812  
G01 X-0.5481 Y1.8819  
G01 X-0.5502 Y1.8850  
G01 X-0.5525 Y1.8881  
G01 X-0.5528 Y1.8888  
G01 X-0.5533 Y1.8895  
G01 X-0.5550 Y1.8930  
G01 X-0.5567 Y1.8964  
G01 X-0.5569 Y1.8972  
G01 X-0.5573 Y1.8979  
G01 X-0.5584 Y1.9016  
G01 X-0.5595 Y1.9052  
G01 X-0.5597 Y1.9060  
G01 X-0.5599 Y1.9068  
G01 X-0.5604 Y1.9106  
G01 X-0.5610 Y1.9144  
G01 X-0.5610 Y1.9152  
G01 X-0.5611 Y1.9160  
G01 X-0.5610 Y1.9198  
G01 X-0.5610 Y1.9340  
G01 X-0.7340 Y1.9340  
G01 X-0.7321 Y1.9327  
G01 X-0.7263 Y1.9269  
G01 X-0.7215 Y1.9203  
G01 X-0.7178 Y1.9130  
G01 X-0.7153 Y1.9052  
G01 X-0.7140 Y1.8971  
G01 X-0.7140 Y1.8889  
G01 X-0.7153 Y1.8808  
G01 X-0.7178 Y1.8730  
G01 X-0.7215 Y1.8657  
G01 X-0.7263 Y1.8591  
G01 X-0.7321 Y1.8533  
G01 X-0.7330 Y1.8527  
G01 X-0.7330 Y1.8333  
G01 X-0.7321 Y1.8327  
G01 X-0.7263 Y1.8269  
G01 X-0.7215 Y1.8203  
G01 X-0.7178 Y1.8130  
G01 X-0.7153 Y1.8052  
G01 X-0.7140 Y1.7971  
G01 X-0.7140 Y1.7889  
G01 X-0.7153 Y1.7808  
G01 X-0.7178 Y1.7730  
G01 X-0.7215 Y1.7657  
G01 X-0.7263 Y1.7591  
G01 X-0.7321 Y1.7533  
G01 X-0.7330 Y1.7527  
G01 X-0.7330 Y1.7333  
G01 X-0.7321 Y1.7327  
G01 X-0.7263 Y1.7269  
G01 X-0.7215 Y1.7203  
G01 X-0.7178 Y1.7130  
G01 X-0.7153 Y1.7052  
G01 X-0.7140 Y1.6971  
G01 X-0.7140 Y1.6889  
G01 X-0.7153 Y1.6808  
G01 X-0.7178 Y1.6730  
G01 X-0.7215 Y1.6657  
G01 X-0.7263 Y1.6591  
G01 X-0.7321 Y1.6533  
G01 X-0.7387 Y1.6485  
G01 X-0.7460 Y1.6448  
G01 X-0.7516 Y1.6430  
G01 X-0.7460 Y1.6412  
G01 X-0.7455 Y1.6409  
G01 X-0.7343 Y1.6455  
G01 X-0.7185 Y1.6613  
G01 X-0.7100 Y1.6819  
G01 X-0.7100 Y1.7041  
G01 X-0.7220 Y1.7331  
G01 X-0.7233 Y1.7397  
G01 X-0.7233 Y1.7463  
G01 X-0.7232 Y1.7467  
G01 X-0.7220 Y1.7529  
G01 X-0.7100 Y1.7819  
G01 X-0.7100 Y1.8041  
G01 X-0.7220 Y1.8331  
G01 X-0.7233 Y1.8397  
G01 X-0.7233 Y1.8463  
G01 X-0.7221 Y1.8525  
G01 X-0.7220 Y1.8529  
G01 X-0.7219 Y1.8532  
G01 X-0.7100 Y1.8819  
G01 X-0.7100 Y1.8993  
G01 X-0.7087 Y1.9059  
G01 X-0.7061 Y1.9121  
G01 X-0.7024 Y1.9177  
G01 X-0.6977 Y1.9224  
G01 X-0.6921 Y1.9261  
G01 X-0.6859 Y1.9287  
G01 X-0.6793 Y1.9300  
G01 X-0.5941 Y1.9300  
G01 X-0.5875 Y1.9287  
G01 X-0.5833 Y1.9269  
G01 X-0.5814 Y1.9261  
G01 X-0.5758 Y1.9224  
G01 X-0.5711 Y1.9177  
G01 X-0.5673 Y1.9121  
G01 X-0.5659 Y1.9086  
G01 X-0.5648 Y1.9059  
G01 X-0.5634 Y1.9026  
G01 X-0.5613 Y1.8976  
G01 X-0.5607 Y1.8944  
G01 X-0.5595 Y1.8926  
G01 X-0.5593 Y1.8922  
G01 X-0.5590 Y1.8917  
G01 X-0.5580 Y1.8891  
G01 X-0.5569 Y1.8864  
G01 X-0.5568 Y1.8859  
G01 X-0.5561 Y1.8840  
G01 X-0.5495 Y1.8775  
G01 X-0.5491 Y1.8772  
G01 X-0.5472 Y1.8751  
G01 X-0.5452 Y1.8731  
G01 X-0.5449 Y1.8727  
G01 X-0.5386 Y1.8660  
G01 X-0.5350 Y1.8645  
G01 X-0.5331 Y1.8637  
G01 X-0.5288 Y1.8619  
G01 X-0.5261 Y1.8601  
G01 X-0.5240 Y1.8597  
G01 X-0.5235 Y1.8595  
G01 X-0.5230 Y1.8594  
G01 X-0.5204 Y1.8582  
G01 X-0.5178 Y1.8571  
G01 X-0.5174 Y1.8569  
G01 X-0.5155 Y1.8560  
G01 X-0.5062 Y1.8560  
