(.../EAGLE-7.2.0/ulp/pcb-gcode.ulp)
(Copyright 2005 - 2012 by John Johnson)
(See readme.txt for licensing terms.)
(This file generated from the board:)
(.../disruptor/generator_cd4047_trafo_ct.brd)
(Current profile is .../EAGLE-7.2.0/ulp/profiles/generic.pp  )
(This file generated 7/8/2015 3:04:54 PM)
(Settings from pcb-machine.h)
(spindle on time = 3.0000)
(  Tool Size)
(0.0070 )
(spindle speed = 30000.0000)
(tool change at 0.0000 0.0000 1.0000 )
(feed rate xy = F20.00 )
(feed rate z  = F10.00 )
(Z Axis Settings)
(  High     Up        Down     Drill)
(0.5000 	0.1000 	-0.0070 	-0.0320 )
(Settings from pcb-defaults.h)
(isolate min = 0.0010)
(isolate max = 0.0200)
(isolate step = 0.0050)
(Generated top outlines, top drill, bottom outlines, bottom drill, )
(Unit of measure: inch)
(Inch Mode)
G20
(Absolute Coordinates)
G90
S30000
G00 Z0.5000 
G00 X0.0000 Y0.0000 
M03
G04 P3.000000
G00 Z0.1000 
G00 X0.0670 Y0.5595 
G01 Z-0.0070 F10.00 
G01 X0.0620 Y0.5664 F20.00 
G01 X0.0581 Y0.5741 
G01 X0.0554 Y0.5822 
G01 X0.0541 Y0.5907 
G01 X0.0541 Y0.5993 
G01 X0.0554 Y0.6078 
G01 X0.0581 Y0.6159 
G01 X0.0620 Y0.6236 
G01 X0.0670 Y0.6305 
G01 X0.0731 Y0.6366 
G01 X0.0800 Y0.6416 
G01 X0.0877 Y0.6455 
G01 X0.0958 Y0.6482 
G01 X0.1043 Y0.6495 
G01 X0.2129 Y0.6495 
G01 X0.2213 Y0.6482 
G01 X0.2295 Y0.6455 
G01 X0.2371 Y0.6416 
G01 X0.2441 Y0.6366 
G01 X0.2501 Y0.6305 
G01 X0.2552 Y0.6236 
G01 X0.2570 Y0.6200 
G01 X0.2588 Y0.6236 
G01 X0.2639 Y0.6305 
G01 X0.2699 Y0.6366 
G01 X0.2769 Y0.6416 
G01 X0.2845 Y0.6455 
G01 X0.2927 Y0.6482 
G01 X0.3011 Y0.6495 
G01 X0.4097 Y0.6495 
G01 X0.4182 Y0.6482 
G01 X0.4263 Y0.6455 
G01 X0.4340 Y0.6416 
G01 X0.4409 Y0.6366 
G01 X0.4470 Y0.6305 
G01 X0.4520 Y0.6236 
G01 X0.4559 Y0.6159 
G01 X0.4586 Y0.6078 
G01 X0.4599 Y0.5993 
G01 X0.4599 Y0.5907 
G01 X0.4586 Y0.5822 
G01 X0.4559 Y0.5741 
G01 X0.4520 Y0.5664 
G01 X0.4470 Y0.5595 
G01 X0.4409 Y0.5534 
G01 X0.4340 Y0.5484 
G01 X0.4263 Y0.5445 
G01 X0.4182 Y0.5418 
G01 X0.4097 Y0.5405 
G01 X0.3011 Y0.5405 
G01 X0.2927 Y0.5418 
G01 X0.2845 Y0.5445 
G01 X0.2769 Y0.5484 
G01 X0.2699 Y0.5534 
G01 X0.2639 Y0.5595 
G01 X0.2588 Y0.5664 
G01 X0.2570 Y0.5700 
G01 X0.2552 Y0.5664 
G01 X0.2501 Y0.5595 
G01 X0.2441 Y0.5534 
G01 X0.2371 Y0.5484 
G01 X0.2295 Y0.5445 
G01 X0.2213 Y0.5418 
G01 X0.2129 Y0.5405 
G01 X0.1043 Y0.5405 
G01 X0.0958 Y0.5418 
G01 X0.0877 Y0.5445 
G01 X0.0800 Y0.5484 
G01 X0.0731 Y0.5534 
G01 X0.0670 Y0.5595 
G00 Z0.1000 
G00 X0.0890 Y1.2025 
G01 Z-0.0070 F10.00 
G01 X0.0840 Y1.2094 F20.00 
G01 X0.0801 Y1.2171 
G01 X0.0774 Y1.2252 
G01 X0.0761 Y1.2337 
G01 X0.0761 Y1.2423 
G01 X0.0774 Y1.2508 
G01 X0.0801 Y1.2589 
G01 X0.0840 Y1.2666 
G01 X0.0890 Y1.2735 
G01 X0.0951 Y1.2796 
G01 X0.1020 Y1.2846 
G01 X0.1097 Y1.2885 
G01 X0.1178 Y1.2912 
G01 X0.1263 Y1.2925 
G01 X0.2349 Y1.2925 
G01 X0.2433 Y1.2912 
G01 X0.2515 Y1.2885 
G01 X0.2591 Y1.2846 
G01 X0.2661 Y1.2796 
G01 X0.2721 Y1.2735 
G01 X0.2772 Y1.2666 
G01 X0.2790 Y1.2630 
G01 X0.2808 Y1.2666 
G01 X0.2859 Y1.2735 
G01 X0.2919 Y1.2796 
G01 X0.2989 Y1.2846 
G01 X0.3065 Y1.2885 
G01 X0.3147 Y1.2912 
G01 X0.3231 Y1.2925 
G01 X0.4317 Y1.2925 
G01 X0.4402 Y1.2912 
G01 X0.4483 Y1.2885 
G01 X0.4560 Y1.2846 
G01 X0.4629 Y1.2796 
G01 X0.4690 Y1.2735 
G01 X0.4740 Y1.2666 
G01 X0.4779 Y1.2589 
G01 X0.4806 Y1.2508 
G01 X0.4819 Y1.2423 
G01 X0.4819 Y1.2337 
G01 X0.4806 Y1.2252 
G01 X0.4779 Y1.2171 
G01 X0.4740 Y1.2094 
G01 X0.4690 Y1.2025 
G01 X0.4629 Y1.1964 
G01 X0.4560 Y1.1914 
G01 X0.4483 Y1.1875 
G01 X0.4402 Y1.1848 
G01 X0.4317 Y1.1835 
G01 X0.3231 Y1.1835 
G01 X0.3147 Y1.1848 
G01 X0.3065 Y1.1875 
G01 X0.2989 Y1.1914 
G01 X0.2919 Y1.1964 
G01 X0.2859 Y1.2025 
G01 X0.2808 Y1.2094 
G01 X0.2790 Y1.2130 
G01 X0.2772 Y1.2094 
G01 X0.2721 Y1.2025 
G01 X0.2661 Y1.1964 
G01 X0.2591 Y1.1914 
G01 X0.2515 Y1.1875 
G01 X0.2433 Y1.1848 
G01 X0.2349 Y1.1835 
G01 X0.1263 Y1.1835 
G01 X0.1178 Y1.1848 
G01 X0.1097 Y1.1875 
G01 X0.1020 Y1.1914 
G01 X0.0951 Y1.1964 
G01 X0.0890 Y1.2025 
G00 Z0.1000 
G00 X0.1463 Y1.9696 
G01 Z-0.0070 F10.00 
G01 X0.1430 Y1.9746 F20.00 
G01 X0.1407 Y1.9801 
G01 X0.1395 Y1.9860 
G01 X0.1395 Y1.9920 
G01 X0.1407 Y1.9979 
G01 X0.1430 Y2.0034 
G01 X0.1463 Y2.0084 
G01 X0.1506 Y2.0127 
G01 X0.1556 Y2.0160 
G01 X0.1611 Y2.0183 
G01 X0.1670 Y2.0195 
G01 X0.2250 Y2.0195 
G01 X0.2309 Y2.0183 
G01 X0.2364 Y2.0160 
G01 X0.2414 Y2.0127 
G01 X0.2457 Y2.0084 
G01 X0.2490 Y2.0034 
G01 X0.2513 Y1.9979 
G01 X0.2525 Y1.9920 
G01 X0.2525 Y1.9860 
G01 X0.2513 Y1.9801 
G01 X0.2490 Y1.9746 
G01 X0.2457 Y1.9696 
G01 X0.2414 Y1.9653 
G01 X0.2364 Y1.9620 
G01 X0.2309 Y1.9597 
G01 X0.2250 Y1.9585 
G01 X0.1670 Y1.9585 
G01 X0.1611 Y1.9597 
G01 X0.1556 Y1.9620 
G01 X0.1506 Y1.9653 
G01 X0.1463 Y1.9696 
G00 Z0.1000 
G00 X0.1463 Y2.0696 
G01 Z-0.0070 F10.00 
G01 X0.1430 Y2.0746 F20.00 
G01 X0.1407 Y2.0801 
G01 X0.1395 Y2.0860 
G01 X0.1395 Y2.0920 
G01 X0.1407 Y2.0979 
G01 X0.1430 Y2.1034 
G01 X0.1463 Y2.1084 
G01 X0.1506 Y2.1127 
G01 X0.1556 Y2.1160 
G01 X0.1611 Y2.1183 
G01 X0.1670 Y2.1195 
G01 X0.2250 Y2.1195 
G01 X0.2309 Y2.1183 
G01 X0.2364 Y2.1160 
G01 X0.2414 Y2.1127 
G01 X0.2457 Y2.1084 
G01 X0.2490 Y2.1034 
G01 X0.2513 Y2.0979 
G01 X0.2525 Y2.0920 
G01 X0.2525 Y2.0860 
G01 X0.2513 Y2.0801 
G01 X0.2490 Y2.0746 
G01 X0.2457 Y2.0696 
G01 X0.2414 Y2.0653 
G01 X0.2364 Y2.0620 
G01 X0.2309 Y2.0597 
G01 X0.2250 Y2.0585 
G01 X0.1670 Y2.0585 
G01 X0.1611 Y2.0597 
G01 X0.1556 Y2.0620 
G01 X0.1506 Y2.0653 
G01 X0.1463 Y2.0696 
G00 Z0.1000 
G00 X0.1463 Y2.1696 
G01 Z-0.0070 F10.00 
G01 X0.1430 Y2.1746 F20.00 
G01 X0.1407 Y2.1801 
G01 X0.1395 Y2.1860 
G01 X0.1395 Y2.1920 
G01 X0.1407 Y2.1979 
G01 X0.1430 Y2.2034 
G01 X0.1463 Y2.2084 
G01 X0.1506 Y2.2127 
G01 X0.1556 Y2.2160 
G01 X0.1611 Y2.2183 
G01 X0.1670 Y2.2195 
G01 X0.2250 Y2.2195 
G01 X0.2309 Y2.2183 
G01 X0.2364 Y2.2160 
G01 X0.2414 Y2.2127 
G01 X0.2457 Y2.2084 
G01 X0.2490 Y2.2034 
G01 X0.2513 Y2.1979 
G01 X0.2525 Y2.1920 
G01 X0.2525 Y2.1860 
G01 X0.2513 Y2.1801 
G01 X0.2490 Y2.1746 
G01 X0.2457 Y2.1696 
G01 X0.2414 Y2.1653 
G01 X0.2364 Y2.1620 
G01 X0.2309 Y2.1597 
G01 X0.2250 Y2.1585 
G01 X0.1670 Y2.1585 
G01 X0.1611 Y2.1597 
G01 X0.1556 Y2.1620 
G01 X0.1506 Y2.1653 
G01 X0.1463 Y2.1696 
G00 Z0.1000 
G00 X0.4695 Y2.2055 
G01 Z-0.0070 F10.00 
G01 X0.4695 Y2.2325 F20.00 
G01 X0.4885 Y2.2515 
G01 X0.5155 Y2.2515 
G01 X0.5345 Y2.2325 
G01 X0.5345 Y2.2055 
G01 X0.5155 Y2.1865 
G01 X0.4885 Y2.1865 
G01 X0.4695 Y2.2055 
G00 Z0.1000 
G00 X0.7367 Y2.2019 
G01 Z-0.0070 F10.00 
G01 X0.7390 Y2.2074 F20.00 
G01 X0.7423 Y2.2124 
G01 X0.7466 Y2.2167 
G01 X0.7516 Y2.2200 
G01 X0.7571 Y2.2223 
G01 X0.7630 Y2.2235 
G01 X0.8210 Y2.2235 
G01 X0.8269 Y2.2223 
G01 X0.8324 Y2.2200 
G01 X0.8374 Y2.2167 
G01 X0.8417 Y2.2124 
G01 X0.8450 Y2.2074 
G01 X0.8473 Y2.2019 
G01 X0.8485 Y2.1960 
G01 X0.8485 Y2.1900 
G01 X0.8473 Y2.1841 
G01 X0.8450 Y2.1786 
G01 X0.8417 Y2.1736 
G01 X0.8374 Y2.1693 
G01 X0.8324 Y2.1660 
G01 X0.8269 Y2.1637 
G01 X0.8210 Y2.1625 
G01 X0.7630 Y2.1625 
G01 X0.7571 Y2.1637 
G01 X0.7516 Y2.1660 
G01 X0.7466 Y2.1693 
G01 X0.7423 Y2.1736 
G01 X0.7390 Y2.1786 
G01 X0.7367 Y2.1841 
G01 X0.7355 Y2.1900 
G01 X0.7355 Y2.1960 
G01 X0.7367 Y2.2019 
G00 Z0.1000 
G00 X0.7466 Y2.1167 
G01 Z-0.0070 F10.00 
G01 X0.7516 Y2.1200 F20.00 
G01 X0.7571 Y2.1223 
G01 X0.7630 Y2.1235 
G01 X0.8210 Y2.1235 
G01 X0.8269 Y2.1223 
G01 X0.8324 Y2.1200 
G01 X0.8374 Y2.1167 
G01 X0.8417 Y2.1124 
G01 X0.8450 Y2.1074 
G01 X0.8473 Y2.1019 
G01 X0.8485 Y2.0960 
G01 X0.8485 Y2.0900 
G01 X0.8473 Y2.0841 
G01 X0.8450 Y2.0786 
G01 X0.8417 Y2.0736 
G01 X0.8374 Y2.0693 
G01 X0.8324 Y2.0660 
G01 X0.8269 Y2.0637 
G01 X0.8210 Y2.0625 
G01 X0.7630 Y2.0625 
G01 X0.7571 Y2.0637 
G01 X0.7516 Y2.0660 
G01 X0.7466 Y2.0693 
G01 X0.7423 Y2.0736 
G01 X0.7390 Y2.0786 
G01 X0.7367 Y2.0841 
G01 X0.7355 Y2.0900 
G01 X0.7355 Y2.0960 
G01 X0.7367 Y2.1019 
G01 X0.7390 Y2.1074 
G01 X0.7423 Y2.1124 
G01 X0.7466 Y2.1167 
G00 Z0.1000 
G00 X0.7466 Y2.0167 
G01 Z-0.0070 F10.00 
G01 X0.7516 Y2.0200 F20.00 
G01 X0.7571 Y2.0223 
G01 X0.7630 Y2.0235 
G01 X0.8210 Y2.0235 
G01 X0.8269 Y2.0223 
G01 X0.8324 Y2.0200 
G01 X0.8374 Y2.0167 
G01 X0.8417 Y2.0124 
G01 X0.8450 Y2.0074 
G01 X0.8473 Y2.0019 
G01 X0.8485 Y1.9960 
G01 X0.8485 Y1.9900 
G01 X0.8473 Y1.9841 
G01 X0.8450 Y1.9786 
G01 X0.8417 Y1.9736 
G01 X0.8374 Y1.9693 
G01 X0.8324 Y1.9660 
G01 X0.8269 Y1.9637 
G01 X0.8210 Y1.9625 
G01 X0.7630 Y1.9625 
G01 X0.7571 Y1.9637 
G01 X0.7516 Y1.9660 
G01 X0.7466 Y1.9693 
G01 X0.7423 Y1.9736 
G01 X0.7390 Y1.9786 
G01 X0.7367 Y1.9841 
G01 X0.7355 Y1.9900 
G01 X0.7355 Y1.9960 
G01 X0.7367 Y2.0019 
G01 X0.7390 Y2.0074 
G01 X0.7423 Y2.0124 
G01 X0.7466 Y2.0167 
G00 Z0.1000 
G00 X0.7466 Y1.9167 
G01 Z-0.0070 F10.00 
G01 X0.7516 Y1.9200 F20.00 
G01 X0.7571 Y1.9223 
G01 X0.7630 Y1.9235 
G01 X0.8210 Y1.9235 
G01 X0.8269 Y1.9223 
G01 X0.8324 Y1.9200 
G01 X0.8374 Y1.9167 
G01 X0.8417 Y1.9124 
G01 X0.8450 Y1.9074 
G01 X0.8473 Y1.9019 
G01 X0.8485 Y1.8960 
G01 X0.8485 Y1.8900 
G01 X0.8473 Y1.8841 
G01 X0.8450 Y1.8786 
G01 X0.8417 Y1.8736 
G01 X0.8374 Y1.8693 
G01 X0.8324 Y1.8660 
G01 X0.8269 Y1.8637 
G01 X0.8210 Y1.8625 
G01 X0.7630 Y1.8625 
G01 X0.7571 Y1.8637 
G01 X0.7516 Y1.8660 
G01 X0.7466 Y1.8693 
G01 X0.7423 Y1.8736 
G01 X0.7390 Y1.8786 
G01 X0.7367 Y1.8841 
G01 X0.7355 Y1.8900 
G01 X0.7355 Y1.8960 
G01 X0.7367 Y1.9019 
G01 X0.7390 Y1.9074 
G01 X0.7423 Y1.9124 
G01 X0.7466 Y1.9167 
G00 Z0.1000 
G00 X0.7466 Y1.8167 
G01 Z-0.0070 F10.00 
G01 X0.7516 Y1.8200 F20.00 
G01 X0.7571 Y1.8223 
G01 X0.7630 Y1.8235 
G01 X0.8210 Y1.8235 
G01 X0.8269 Y1.8223 
G01 X0.8324 Y1.8200 
G01 X0.8374 Y1.8167 
G01 X0.8417 Y1.8124 
G01 X0.8450 Y1.8074 
G01 X0.8473 Y1.8019 
G01 X0.8485 Y1.7960 
G01 X0.8485 Y1.7900 
G01 X0.8473 Y1.7841 
G01 X0.8450 Y1.7786 
G01 X0.8417 Y1.7736 
G01 X0.8374 Y1.7693 
G01 X0.8324 Y1.7660 
G01 X0.8269 Y1.7637 
G01 X0.8210 Y1.7625 
G01 X0.7630 Y1.7625 
G01 X0.7571 Y1.7637 
G01 X0.7516 Y1.7660 
G01 X0.7466 Y1.7693 
G01 X0.7423 Y1.7736 
G01 X0.7390 Y1.7786 
G01 X0.7367 Y1.7841 
G01 X0.7355 Y1.7900 
G01 X0.7355 Y1.7960 
G01 X0.7367 Y1.8019 
G01 X0.7390 Y1.8074 
G01 X0.7423 Y1.8124 
G01 X0.7466 Y1.8167 
G00 Z0.1000 
G00 X0.7466 Y1.7167 
G01 Z-0.0070 F10.00 
G01 X0.7516 Y1.7200 F20.00 
G01 X0.7571 Y1.7223 
G01 X0.7630 Y1.7235 
G01 X0.8210 Y1.7235 
G01 X0.8269 Y1.7223 
G01 X0.8324 Y1.7200 
G01 X0.8374 Y1.7167 
G01 X0.8417 Y1.7124 
G01 X0.8450 Y1.7074 
G01 X0.8473 Y1.7019 
G01 X0.8485 Y1.6960 
G01 X0.8485 Y1.6900 
G01 X0.8473 Y1.6841 
G01 X0.8450 Y1.6786 
G01 X0.8417 Y1.6736 
G01 X0.8374 Y1.6693 
G01 X0.8324 Y1.6660 
G01 X0.8269 Y1.6637 
G01 X0.8210 Y1.6625 
G01 X0.7630 Y1.6625 
G01 X0.7571 Y1.6637 
G01 X0.7516 Y1.6660 
G01 X0.7466 Y1.6693 
G01 X0.7423 Y1.6736 
G01 X0.7390 Y1.6786 
G01 X0.7367 Y1.6841 
G01 X0.7355 Y1.6900 
G01 X0.7355 Y1.6960 
G01 X0.7367 Y1.7019 
G01 X0.7390 Y1.7074 
G01 X0.7423 Y1.7124 
G01 X0.7466 Y1.7167 
G00 Z0.1000 
G00 X0.7466 Y1.6167 
G01 Z-0.0070 F10.00 
G01 X0.7516 Y1.6200 F20.00 
G01 X0.7571 Y1.6223 
G01 X0.7630 Y1.6235 
G01 X0.8210 Y1.6235 
G01 X0.8269 Y1.6223 
G01 X0.8324 Y1.6200 
G01 X0.8374 Y1.6167 
G01 X0.8417 Y1.6124 
G01 X0.8450 Y1.6074 
G01 X0.8473 Y1.6019 
G01 X0.8485 Y1.5960 
G01 X0.8485 Y1.5900 
G01 X0.8473 Y1.5841 
G01 X0.8450 Y1.5786 
G01 X0.8417 Y1.5736 
G01 X0.8374 Y1.5693 
G01 X0.8324 Y1.5660 
G01 X0.8269 Y1.5637 
G01 X0.8210 Y1.5625 
G01 X0.7630 Y1.5625 
G01 X0.7571 Y1.5637 
G01 X0.7516 Y1.5660 
G01 X0.7466 Y1.5693 
G01 X0.7423 Y1.5736 
G01 X0.7390 Y1.5786 
G01 X0.7367 Y1.5841 
G01 X0.7355 Y1.5900 
G01 X0.7355 Y1.5960 
G01 X0.7367 Y1.6019 
G01 X0.7390 Y1.6074 
G01 X0.7423 Y1.6124 
G01 X0.7466 Y1.6167 
G00 Z0.1000 
G00 X1.0466 Y1.6167 
G01 Z-0.0070 F10.00 
G01 X1.0516 Y1.6200 F20.00 
G01 X1.0571 Y1.6223 
G01 X1.0630 Y1.6235 
G01 X1.1210 Y1.6235 
G01 X1.1269 Y1.6223 
G01 X1.1324 Y1.6200 
G01 X1.1374 Y1.6167 
G01 X1.1417 Y1.6124 
G01 X1.1450 Y1.6074 
G01 X1.1473 Y1.6019 
G01 X1.1485 Y1.5960 
G01 X1.1485 Y1.5900 
G01 X1.1473 Y1.5841 
G01 X1.1450 Y1.5786 
G01 X1.1417 Y1.5736 
G01 X1.1374 Y1.5693 
G01 X1.1324 Y1.5660 
G01 X1.1269 Y1.5637 
G01 X1.1210 Y1.5625 
G01 X1.0630 Y1.5625 
G01 X1.0571 Y1.5637 
G01 X1.0516 Y1.5660 
G01 X1.0466 Y1.5693 
G01 X1.0423 Y1.5736 
G01 X1.0390 Y1.5786 
G01 X1.0367 Y1.5841 
G01 X1.0355 Y1.5900 
G01 X1.0355 Y1.5960 
G01 X1.0367 Y1.6019 
G01 X1.0390 Y1.6074 
G01 X1.0423 Y1.6124 
G01 X1.0466 Y1.6167 
G00 Z0.1000 
G00 X1.0466 Y1.6693 
G01 Z-0.0070 F10.00 
G01 X1.0423 Y1.6736 F20.00 
G01 X1.0390 Y1.6786 
G01 X1.0367 Y1.6841 
G01 X1.0355 Y1.6900 
G01 X1.0355 Y1.6960 
G01 X1.0367 Y1.7019 
G01 X1.0390 Y1.7074 
G01 X1.0423 Y1.7124 
G01 X1.0466 Y1.7167 
G01 X1.0516 Y1.7200 
G01 X1.0571 Y1.7223 
G01 X1.0630 Y1.7235 
G01 X1.1210 Y1.7235 
G01 X1.1269 Y1.7223 
G01 X1.1324 Y1.7200 
G01 X1.1374 Y1.7167 
G01 X1.1417 Y1.7124 
G01 X1.1450 Y1.7074 
G01 X1.1473 Y1.7019 
G01 X1.1485 Y1.6960 
G01 X1.1485 Y1.6900 
G01 X1.1473 Y1.6841 
G01 X1.1450 Y1.6786 
G01 X1.1417 Y1.6736 
G01 X1.1374 Y1.6693 
G01 X1.1324 Y1.6660 
G01 X1.1269 Y1.6637 
G01 X1.1210 Y1.6625 
G01 X1.0630 Y1.6625 
G01 X1.0571 Y1.6637 
G01 X1.0516 Y1.6660 
G01 X1.0466 Y1.6693 
G00 Z0.1000 
G00 X1.0466 Y1.7693 
G01 Z-0.0070 F10.00 
G01 X1.0423 Y1.7736 F20.00 
G01 X1.0390 Y1.7786 
G01 X1.0367 Y1.7841 
G01 X1.0355 Y1.7900 
G01 X1.0355 Y1.7960 
G01 X1.0367 Y1.8019 
G01 X1.0390 Y1.8074 
G01 X1.0423 Y1.8124 
G01 X1.0466 Y1.8167 
G01 X1.0516 Y1.8200 
G01 X1.0571 Y1.8223 
G01 X1.0630 Y1.8235 
G01 X1.1210 Y1.8235 
G01 X1.1269 Y1.8223 
G01 X1.1324 Y1.8200 
G01 X1.1374 Y1.8167 
G01 X1.1417 Y1.8124 
G01 X1.1450 Y1.8074 
G01 X1.1473 Y1.8019 
G01 X1.1485 Y1.7960 
G01 X1.1485 Y1.7900 
G01 X1.1473 Y1.7841 
G01 X1.1450 Y1.7786 
G01 X1.1417 Y1.7736 
G01 X1.1374 Y1.7693 
G01 X1.1324 Y1.7660 
G01 X1.1269 Y1.7637 
G01 X1.1210 Y1.7625 
G01 X1.0630 Y1.7625 
G01 X1.0571 Y1.7637 
G01 X1.0516 Y1.7660 
G01 X1.0466 Y1.7693 
G00 Z0.1000 
G00 X1.0466 Y1.8693 
G01 Z-0.0070 F10.00 
G01 X1.0423 Y1.8736 F20.00 
G01 X1.0390 Y1.8786 
G01 X1.0367 Y1.8841 
G01 X1.0355 Y1.8900 
G01 X1.0355 Y1.8960 
G01 X1.0367 Y1.9019 
G01 X1.0390 Y1.9074 
G01 X1.0423 Y1.9124 
G01 X1.0466 Y1.9167 
G01 X1.0516 Y1.9200 
G01 X1.0571 Y1.9223 
G01 X1.0630 Y1.9235 
G01 X1.1210 Y1.9235 
G01 X1.1269 Y1.9223 
G01 X1.1324 Y1.9200 
G01 X1.1374 Y1.9167 
G01 X1.1417 Y1.9124 
G01 X1.1450 Y1.9074 
G01 X1.1473 Y1.9019 
G01 X1.1485 Y1.8960 
G01 X1.1485 Y1.8900 
G01 X1.1473 Y1.8841 
G01 X1.1450 Y1.8786 
G01 X1.1417 Y1.8736 
G01 X1.1374 Y1.8693 
G01 X1.1324 Y1.8660 
G01 X1.1269 Y1.8637 
G01 X1.1210 Y1.8625 
G01 X1.0630 Y1.8625 
G01 X1.0571 Y1.8637 
G01 X1.0516 Y1.8660 
G01 X1.0466 Y1.8693 
G00 Z0.1000 
G00 X1.0466 Y1.9693 
G01 Z-0.0070 F10.00 
G01 X1.0423 Y1.9736 F20.00 
G01 X1.0390 Y1.9786 
G01 X1.0367 Y1.9841 
G01 X1.0355 Y1.9900 
G01 X1.0355 Y1.9960 
G01 X1.0367 Y2.0019 
G01 X1.0390 Y2.0074 
G01 X1.0423 Y2.0124 
G01 X1.0466 Y2.0167 
G01 X1.0516 Y2.0200 
G01 X1.0571 Y2.0223 
G01 X1.0630 Y2.0235 
G01 X1.1210 Y2.0235 
G01 X1.1269 Y2.0223 
G01 X1.1324 Y2.0200 
G01 X1.1374 Y2.0167 
G01 X1.1417 Y2.0124 
G01 X1.1450 Y2.0074 
G01 X1.1473 Y2.0019 
G01 X1.1485 Y1.9960 
G01 X1.1485 Y1.9900 
G01 X1.1473 Y1.9841 
G01 X1.1450 Y1.9786 
G01 X1.1417 Y1.9736 
G01 X1.1374 Y1.9693 
G01 X1.1324 Y1.9660 
G01 X1.1269 Y1.9637 
G01 X1.1210 Y1.9625 
G01 X1.0630 Y1.9625 
G01 X1.0571 Y1.9637 
G01 X1.0516 Y1.9660 
G01 X1.0466 Y1.9693 
G00 Z0.1000 
G00 X1.0466 Y2.0693 
G01 Z-0.0070 F10.00 
G01 X1.0423 Y2.0736 F20.00 
G01 X1.0390 Y2.0786 
G01 X1.0367 Y2.0841 
G01 X1.0355 Y2.0900 
G01 X1.0355 Y2.0960 
G01 X1.0367 Y2.1019 
G01 X1.0390 Y2.1074 
G01 X1.0423 Y2.1124 
G01 X1.0466 Y2.1167 
G01 X1.0516 Y2.1200 
G01 X1.0571 Y2.1223 
G01 X1.0630 Y2.1235 
G01 X1.1210 Y2.1235 
G01 X1.1269 Y2.1223 
G01 X1.1324 Y2.1200 
G01 X1.1374 Y2.1167 
G01 X1.1417 Y2.1124 
G01 X1.1450 Y2.1074 
G01 X1.1473 Y2.1019 
G01 X1.1485 Y2.0960 
G01 X1.1485 Y2.0900 
G01 X1.1473 Y2.0841 
G01 X1.1450 Y2.0786 
G01 X1.1417 Y2.0736 
G01 X1.1374 Y2.0693 
G01 X1.1324 Y2.0660 
G01 X1.1269 Y2.0637 
G01 X1.1210 Y2.0625 
G01 X1.0630 Y2.0625 
G01 X1.0571 Y2.0637 
G01 X1.0516 Y2.0660 
G01 X1.0466 Y2.0693 
G00 Z0.1000 
G00 X1.0466 Y2.1693 
G01 Z-0.0070 F10.00 
G01 X1.0423 Y2.1736 F20.00 
G01 X1.0390 Y2.1786 
G01 X1.0367 Y2.1841 
G01 X1.0355 Y2.1900 
G01 X1.0355 Y2.1960 
G01 X1.0367 Y2.2019 
G01 X1.0390 Y2.2074 
G01 X1.0423 Y2.2124 
G01 X1.0466 Y2.2167 
G01 X1.0516 Y2.2200 
G01 X1.0571 Y2.2223 
G01 X1.0630 Y2.2235 
G01 X1.1210 Y2.2235 
G01 X1.1269 Y2.2223 
G01 X1.1324 Y2.2200 
G01 X1.1374 Y2.2167 
G01 X1.1417 Y2.2124 
G01 X1.1450 Y2.2074 
G01 X1.1473 Y2.2019 
G01 X1.1485 Y2.1960 
G01 X1.1485 Y2.1900 
G01 X1.1473 Y2.1841 
G01 X1.1450 Y2.1786 
G01 X1.1417 Y2.1736 
G01 X1.1374 Y2.1693 
G01 X1.1324 Y2.1660 
G01 X1.1269 Y2.1637 
G01 X1.1210 Y2.1625 
G01 X1.0630 Y2.1625 
G01 X1.0571 Y2.1637 
G01 X1.0516 Y2.1660 
G01 X1.0466 Y2.1693 
G00 Z0.1000 
G00 X1.2895 Y2.2844 
G01 Z-0.0070 F10.00 
G01 X1.2895 Y2.3096 F20.00 
G01 X1.3074 Y2.3275 
G01 X1.3326 Y2.3275 
G01 X1.3505 Y2.3096 
G01 X1.3505 Y2.2844 
G01 X1.3326 Y2.2665 
G01 X1.3074 Y2.2665 
G01 X1.2895 Y2.2844 
G00 Z0.1000 
G00 X1.2895 Y2.6844 
G01 Z-0.0070 F10.00 
G01 X1.2895 Y2.7096 F20.00 
G01 X1.3074 Y2.7275 
G01 X1.3326 Y2.7275 
G01 X1.3505 Y2.7096 
G01 X1.3505 Y2.6844 
G01 X1.3326 Y2.6665 
G01 X1.3074 Y2.6665 
G01 X1.2895 Y2.6844 
G00 Z0.1000 
G00 X1.4954 Y2.6827 
G01 Z-0.0070 F10.00 
G01 X1.4928 Y2.6889 F20.00 
G01 X1.4915 Y2.6956 
G01 X1.4915 Y2.7024 
G01 X1.4928 Y2.7091 
G01 X1.4954 Y2.7153 
G01 X1.4992 Y2.7210 
G01 X1.5040 Y2.7258 
G01 X1.5097 Y2.7296 
G01 X1.5159 Y2.7322 
G01 X1.5226 Y2.7335 
G01 X1.5894 Y2.7335 
G01 X1.5961 Y2.7322 
G01 X1.6023 Y2.7296 
G01 X1.6080 Y2.7258 
G01 X1.6128 Y2.7210 
G01 X1.6166 Y2.7153 
G01 X1.6192 Y2.7091 
G01 X1.6205 Y2.7024 
G01 X1.6205 Y2.6956 
G01 X1.6192 Y2.6889 
G01 X1.6166 Y2.6827 
G01 X1.6128 Y2.6770 
G01 X1.6080 Y2.6722 
G01 X1.6023 Y2.6684 
G01 X1.5961 Y2.6658 
G01 X1.5894 Y2.6645 
G01 X1.5226 Y2.6645 
G01 X1.5159 Y2.6658 
G01 X1.5097 Y2.6684 
G01 X1.5040 Y2.6722 
G01 X1.4992 Y2.6770 
G01 X1.4954 Y2.6827 
G00 Z0.1000 
G00 X1.5040 Y2.6258 
G01 Z-0.0070 F10.00 
G01 X1.5097 Y2.6296 F20.00 
G01 X1.5159 Y2.6322 
G01 X1.5226 Y2.6335 
G01 X1.5894 Y2.6335 
G01 X1.5961 Y2.6322 
G01 X1.6023 Y2.6296 
G01 X1.6080 Y2.6258 
G01 X1.6128 Y2.6210 
G01 X1.6166 Y2.6153 
G01 X1.6192 Y2.6091 
G01 X1.6205 Y2.6024 
G01 X1.6205 Y2.5956 
G01 X1.6192 Y2.5889 
G01 X1.6166 Y2.5827 
G01 X1.6128 Y2.5770 
G01 X1.6080 Y2.5722 
G01 X1.6023 Y2.5684 
G01 X1.5961 Y2.5658 
G01 X1.5894 Y2.5645 
G01 X1.5226 Y2.5645 
G01 X1.5159 Y2.5658 
G01 X1.5097 Y2.5684 
G01 X1.5040 Y2.5722 
G01 X1.4992 Y2.5770 
G01 X1.4954 Y2.5827 
G01 X1.4928 Y2.5889 
G01 X1.4915 Y2.5956 
G01 X1.4915 Y2.6024 
G01 X1.4928 Y2.6091 
G01 X1.4954 Y2.6153 
G01 X1.4992 Y2.6210 
G01 X1.5040 Y2.6258 
G00 Z0.1000 
G00 X1.5040 Y2.5258 
G01 Z-0.0070 F10.00 
G01 X1.5097 Y2.5296 F20.00 
G01 X1.5159 Y2.5322 
G01 X1.5226 Y2.5335 
G01 X1.5894 Y2.5335 
G01 X1.5961 Y2.5322 
G01 X1.6023 Y2.5296 
G01 X1.6080 Y2.5258 
G01 X1.6128 Y2.5210 
G01 X1.6166 Y2.5153 
G01 X1.6192 Y2.5091 
G01 X1.6205 Y2.5024 
G01 X1.6205 Y2.4956 
G01 X1.6192 Y2.4889 
G01 X1.6166 Y2.4827 
G01 X1.6128 Y2.4770 
G01 X1.6080 Y2.4722 
G01 X1.6023 Y2.4684 
G01 X1.5961 Y2.4658 
G01 X1.5894 Y2.4645 
G01 X1.5226 Y2.4645 
G01 X1.5159 Y2.4658 
G01 X1.5097 Y2.4684 
G01 X1.5040 Y2.4722 
G01 X1.4992 Y2.4770 
G01 X1.4954 Y2.4827 
G01 X1.4928 Y2.4889 
G01 X1.4915 Y2.4956 
G01 X1.4915 Y2.5024 
G01 X1.4928 Y2.5091 
G01 X1.4954 Y2.5153 
G01 X1.4992 Y2.5210 
G01 X1.5040 Y2.5258 
G00 Z0.1000 
G00 X1.8954 Y2.4275 
G01 Z-0.0070 F10.00 
G01 X1.9206 Y2.4275 F20.00 
G01 X1.9385 Y2.4096 
G01 X1.9385 Y2.3844 
G01 X1.9206 Y2.3665 
G01 X1.8954 Y2.3665 
G01 X1.8775 Y2.3844 
G01 X1.8775 Y2.4096 
G01 X1.8954 Y2.4275 
G00 Z0.1000 
G00 X1.8954 Y2.7665 
G01 Z-0.0070 F10.00 
G01 X1.8775 Y2.7844 F20.00 
G01 X1.8775 Y2.8096 
G01 X1.8954 Y2.8275 
G01 X1.9206 Y2.8275 
G01 X1.9385 Y2.8096 
G01 X1.9385 Y2.7844 
G01 X1.9206 Y2.7665 
G01 X1.8954 Y2.7665 
G00 Z0.1000 
G00 X1.7915 Y1.7176 
G01 Z-0.0070 F10.00 
G01 X1.7915 Y1.6924 F20.00 
G01 X1.7736 Y1.6745 
G01 X1.7484 Y1.6745 
G01 X1.7305 Y1.6924 
G01 X1.7305 Y1.7176 
G01 X1.7484 Y1.7355 
G01 X1.7736 Y1.7355 
G01 X1.7915 Y1.7176 
G00 Z0.1000 
G00 X1.8844 Y1.4625 
G01 Z-0.0070 F10.00 
G01 X1.9096 Y1.4625 F20.00 
G01 X1.9275 Y1.4446 
G01 X1.9275 Y1.4194 
G01 X1.9096 Y1.4015 
G01 X1.8844 Y1.4015 
G01 X1.8665 Y1.4194 
G01 X1.8665 Y1.4446 
G01 X1.8844 Y1.4625 
G00 Z0.1000 
G00 X1.6088 Y1.3680 
G01 Z-0.0070 F10.00 
G01 X1.6126 Y1.3623 F20.00 
G01 X1.6152 Y1.3561 
G01 X1.6165 Y1.3494 
G01 X1.6165 Y1.3426 
G01 X1.6152 Y1.3359 
G01 X1.6126 Y1.3297 
G01 X1.6088 Y1.3240 
G01 X1.6040 Y1.3192 
G01 X1.5983 Y1.3154 
G01 X1.5921 Y1.3128 
G01 X1.5854 Y1.3115 
G01 X1.5186 Y1.3115 
G01 X1.5119 Y1.3128 
G01 X1.5057 Y1.3154 
G01 X1.5000 Y1.3192 
G01 X1.4952 Y1.3240 
G01 X1.4914 Y1.3297 
G01 X1.4888 Y1.3359 
G01 X1.4875 Y1.3426 
G01 X1.4875 Y1.3494 
G01 X1.4888 Y1.3561 
G01 X1.4914 Y1.3623 
G01 X1.4952 Y1.3680 
G01 X1.5000 Y1.3728 
G01 X1.5057 Y1.3766 
G01 X1.5119 Y1.3792 
G01 X1.5186 Y1.3805 
G01 X1.5854 Y1.3805 
G01 X1.5921 Y1.3792 
G01 X1.5983 Y1.3766 
G01 X1.6040 Y1.3728 
G01 X1.6088 Y1.3680 
G00 Z0.1000 
G00 X1.6088 Y1.2680 
G01 Z-0.0070 F10.00 
G01 X1.6126 Y1.2623 F20.00 
G01 X1.6152 Y1.2561 
G01 X1.6165 Y1.2494 
G01 X1.6165 Y1.2426 
G01 X1.6152 Y1.2359 
G01 X1.6126 Y1.2297 
G01 X1.6088 Y1.2240 
G01 X1.6040 Y1.2192 
G01 X1.5983 Y1.2154 
G01 X1.5921 Y1.2128 
G01 X1.5854 Y1.2115 
G01 X1.5186 Y1.2115 
G01 X1.5119 Y1.2128 
G01 X1.5057 Y1.2154 
G01 X1.5000 Y1.2192 
G01 X1.4952 Y1.2240 
G01 X1.4914 Y1.2297 
G01 X1.4888 Y1.2359 
G01 X1.4875 Y1.2426 
G01 X1.4875 Y1.2494 
G01 X1.4888 Y1.2561 
G01 X1.4914 Y1.2623 
G01 X1.4952 Y1.2680 
G01 X1.5000 Y1.2728 
G01 X1.5057 Y1.2766 
G01 X1.5119 Y1.2792 
G01 X1.5186 Y1.2805 
G01 X1.5854 Y1.2805 
G01 X1.5921 Y1.2792 
G01 X1.5983 Y1.2766 
G01 X1.6040 Y1.2728 
G01 X1.6088 Y1.2680 
G00 Z0.1000 
G00 X1.6088 Y1.1680 
G01 Z-0.0070 F10.00 
G01 X1.6126 Y1.1623 F20.00 
G01 X1.6152 Y1.1561 
G01 X1.6165 Y1.1494 
G01 X1.6165 Y1.1426 
G01 X1.6152 Y1.1359 
G01 X1.6126 Y1.1297 
G01 X1.6088 Y1.1240 
G01 X1.6040 Y1.1192 
G01 X1.5983 Y1.1154 
G01 X1.5921 Y1.1128 
G01 X1.5854 Y1.1115 
G01 X1.5186 Y1.1115 
G01 X1.5119 Y1.1128 
G01 X1.5057 Y1.1154 
G01 X1.5000 Y1.1192 
G01 X1.4952 Y1.1240 
G01 X1.4914 Y1.1297 
G01 X1.4888 Y1.1359 
G01 X1.4875 Y1.1426 
G01 X1.4875 Y1.1494 
G01 X1.4888 Y1.1561 
G01 X1.4914 Y1.1623 
G01 X1.4952 Y1.1680 
G01 X1.5000 Y1.1728 
G01 X1.5057 Y1.1766 
G01 X1.5119 Y1.1792 
G01 X1.5186 Y1.1805 
G01 X1.5854 Y1.1805 
G01 X1.5921 Y1.1792 
G01 X1.5983 Y1.1766 
G01 X1.6040 Y1.1728 
G01 X1.6088 Y1.1680 
G00 Z0.1000 
G00 X1.8844 Y1.0625 
G01 Z-0.0070 F10.00 
G01 X1.9096 Y1.0625 F20.00 
G01 X1.9275 Y1.0446 
G01 X1.9275 Y1.0194 
G01 X1.9096 Y1.0015 
G01 X1.8844 Y1.0015 
G01 X1.8665 Y1.0194 
G01 X1.8665 Y1.0446 
G01 X1.8844 Y1.0625 
G00 Z0.1000 
G00 X1.4095 Y0.6116 
G01 Z-0.0070 F10.00 
G01 X1.4095 Y0.5664 F20.00 
G01 X1.3776 Y0.5345 
G01 X1.3324 Y0.5345 
G01 X1.3005 Y0.5664 
G01 X1.3005 Y0.6116 
G01 X1.3324 Y0.6435 
G01 X1.3776 Y0.6435 
G01 X1.4095 Y0.6116 
G00 Z0.1000 
G00 X1.3966 Y0.4245 
G01 Z-0.0070 F10.00 
G01 X1.4016 Y0.4176 F20.00 
G01 X1.4055 Y0.4099 
G01 X1.4082 Y0.4018 
G01 X1.4095 Y0.3933 
G01 X1.4095 Y0.3847 
G01 X1.4082 Y0.3762 
G01 X1.4055 Y0.3681 
G01 X1.4016 Y0.3604 
G01 X1.3966 Y0.3535 
G01 X1.3905 Y0.3474 
G01 X1.3836 Y0.3424 
G01 X1.3759 Y0.3385 
G01 X1.3678 Y0.3358 
G01 X1.3593 Y0.3345 
G01 X1.3507 Y0.3345 
G01 X1.3422 Y0.3358 
G01 X1.3341 Y0.3385 
G01 X1.3264 Y0.3424 
G01 X1.3195 Y0.3474 
G01 X1.3134 Y0.3535 
G01 X1.3084 Y0.3604 
G01 X1.3045 Y0.3681 
G01 X1.3018 Y0.3762 
G01 X1.3005 Y0.3847 
G01 X1.3005 Y0.3933 
G01 X1.3018 Y0.4018 
G01 X1.3045 Y0.4099 
G01 X1.3084 Y0.4176 
G01 X1.3134 Y0.4245 
G01 X1.3195 Y0.4306 
G01 X1.3264 Y0.4356 
G01 X1.3341 Y0.4395 
G01 X1.3422 Y0.4422 
G01 X1.3507 Y0.4435 
G01 X1.3593 Y0.4435 
G01 X1.3678 Y0.4422 
G01 X1.3759 Y0.4395 
G01 X1.3836 Y0.4356 
G01 X1.3905 Y0.4306 
G01 X1.3966 Y0.4245 
G00 Z0.1000 
G00 X0.8205 Y0.4045 
G01 Z-0.0070 F10.00 
G01 X0.8205 Y0.3775 F20.00 
G01 X0.8015 Y0.3585 
G01 X0.7745 Y0.3585 
G01 X0.7555 Y0.3775 
G01 X0.7555 Y0.4045 
G01 X0.7745 Y0.4235 
G01 X0.8015 Y0.4235 
G01 X0.8205 Y0.4045 
G00 Z0.1000 
G00 X0.8205 Y0.6775 
G01 Z-0.0070 F10.00 
G01 X0.8015 Y0.6585 F20.00 
G01 X0.7745 Y0.6585 
G01 X0.7555 Y0.6775 
G01 X0.7555 Y0.7045 
G01 X0.7745 Y0.7235 
G01 X0.8015 Y0.7235 
G01 X0.8205 Y0.7045 
G01 X0.8205 Y0.6775 
G00 Z0.1000 
G00 X0.5345 Y1.9055 
G01 Z-0.0070 F10.00 
G01 X0.5155 Y1.8865 F20.00 
G01 X0.4885 Y1.8865 
G01 X0.4695 Y1.9055 
G01 X0.4695 Y1.9325 
G01 X0.4885 Y1.9515 
G01 X0.5155 Y1.9515 
G01 X0.5345 Y1.9325 
G01 X0.5345 Y1.9055 
G00 Z0.1000 
G00 X1.3484 Y1.7355 
G01 Z-0.0070 F10.00 
G01 X1.3736 Y1.7355 F20.00 
G01 X1.3915 Y1.7176 
G01 X1.3915 Y1.6924 
G01 X1.3736 Y1.6745 
G01 X1.3484 Y1.6745 
G01 X1.3305 Y1.6924 
G01 X1.3305 Y1.7176 
G01 X1.3484 Y1.7355 
G00 Z0.1000 
G00 X3.1150 Y1.7322 
G01 Z-0.0070 F10.00 
G01 X3.1161 Y1.7405 F20.00 
G01 X3.1183 Y1.7485 
G01 X3.1215 Y1.7563 
G01 X3.1256 Y1.7635 
G01 X3.1307 Y1.7701 
G01 X3.1366 Y1.7760 
G01 X3.1433 Y1.7811 
G01 X3.1505 Y1.7853 
G01 X3.1582 Y1.7885 
G01 X3.1663 Y1.7907 
G01 X3.1746 Y1.7917 
G01 X3.3014 Y1.7917 
G01 X3.3097 Y1.7907 
G01 X3.3178 Y1.7885 
G01 X3.3255 Y1.7853 
G01 X3.3327 Y1.7811 
G01 X3.3394 Y1.7760 
G01 X3.3453 Y1.7701 
G01 X3.3504 Y1.7635 
G01 X3.3545 Y1.7563 
G01 X3.3577 Y1.7485 
G01 X3.3599 Y1.7405 
G01 X3.3610 Y1.7322 
G01 X3.3610 Y1.7238 
G01 X3.3599 Y1.7155 
G01 X3.3577 Y1.7075 
G01 X3.3545 Y1.6997 
G01 X3.3504 Y1.6925 
G01 X3.3453 Y1.6859 
G01 X3.3394 Y1.6800 
G01 X3.3327 Y1.6749 
G01 X3.3255 Y1.6707 
G01 X3.3178 Y1.6675 
G01 X3.3097 Y1.6653 
G01 X3.3014 Y1.6643 
G01 X3.1746 Y1.6643 
G01 X3.1663 Y1.6653 
G01 X3.1582 Y1.6675 
G01 X3.1505 Y1.6707 
G01 X3.1433 Y1.6749 
G01 X3.1366 Y1.6800 
G01 X3.1307 Y1.6859 
G01 X3.1256 Y1.6925 
G01 X3.1215 Y1.6997 
G01 X3.1183 Y1.7075 
G01 X3.1161 Y1.7155 
G01 X3.1150 Y1.7238 
G01 X3.1150 Y1.7322 
G00 Z0.1000 
G00 X3.1307 Y2.4359 
G01 Z-0.0070 F10.00 
G01 X3.1256 Y2.4425 F20.00 
G01 X3.1215 Y2.4497 
G01 X3.1183 Y2.4575 
G01 X3.1161 Y2.4655 
G01 X3.1150 Y2.4738 
G01 X3.1150 Y2.4822 
G01 X3.1161 Y2.4905 
G01 X3.1183 Y2.4985 
G01 X3.1215 Y2.5063 
G01 X3.1256 Y2.5135 
G01 X3.1307 Y2.5201 
G01 X3.1366 Y2.5260 
G01 X3.1433 Y2.5311 
G01 X3.1505 Y2.5353 
G01 X3.1582 Y2.5385 
G01 X3.1663 Y2.5407 
G01 X3.1746 Y2.5417 
G01 X3.3014 Y2.5417 
G01 X3.3097 Y2.5407 
G01 X3.3178 Y2.5385 
G01 X3.3255 Y2.5353 
G01 X3.3327 Y2.5311 
G01 X3.3394 Y2.5260 
G01 X3.3453 Y2.5201 
G01 X3.3504 Y2.5135 
G01 X3.3545 Y2.5063 
G01 X3.3577 Y2.4985 
G01 X3.3599 Y2.4905 
G01 X3.3610 Y2.4822 
G01 X3.3610 Y2.4738 
G01 X3.3599 Y2.4655 
G01 X3.3577 Y2.4575 
G01 X3.3545 Y2.4497 
G01 X3.3504 Y2.4425 
G01 X3.3453 Y2.4359 
G01 X3.3394 Y2.4300 
G01 X3.3327 Y2.4249 
G01 X3.3255 Y2.4207 
G01 X3.3178 Y2.4175 
G01 X3.3097 Y2.4153 
G01 X3.3014 Y2.4143 
G01 X3.1746 Y2.4143 
G01 X3.1663 Y2.4153 
G01 X3.1582 Y2.4175 
G01 X3.1505 Y2.4207 
G01 X3.1433 Y2.4249 
G01 X3.1366 Y2.4300 
G01 X3.1307 Y2.4359 
G00 Z0.1000 
G00 X3.5828 Y2.7097 
G01 Z-0.0070 F10.00 
G01 X3.5788 Y2.7152 F20.00 
G01 X3.5757 Y2.7213 
G01 X3.5736 Y2.7278 
G01 X3.5725 Y2.7346 
G01 X3.5725 Y2.8194 
G01 X3.5736 Y2.8262 
G01 X3.5757 Y2.8327 
G01 X3.5788 Y2.8388 
G01 X3.5828 Y2.8443 
G01 X3.5877 Y2.8492 
G01 X3.5932 Y2.8532 
G01 X3.5993 Y2.8563 
G01 X3.6058 Y2.8584 
G01 X3.6126 Y2.8595 
G01 X3.6194 Y2.8595 
G01 X3.6262 Y2.8584 
G01 X3.6327 Y2.8563 
G01 X3.6388 Y2.8532 
G01 X3.6443 Y2.8492 
G01 X3.6492 Y2.8443 
G01 X3.6532 Y2.8388 
G01 X3.6563 Y2.8327 
G01 X3.6584 Y2.8262 
G01 X3.6595 Y2.8194 
G01 X3.6595 Y2.7346 
G01 X3.6584 Y2.7278 
G01 X3.6563 Y2.7213 
G01 X3.6532 Y2.7152 
G01 X3.6492 Y2.7097 
G01 X3.6443 Y2.7048 
G01 X3.6388 Y2.7008 
G01 X3.6327 Y2.6977 
G01 X3.6262 Y2.6956 
G01 X3.6194 Y2.6945 
G01 X3.6126 Y2.6945 
G01 X3.6058 Y2.6956 
G01 X3.5993 Y2.6977 
G01 X3.5932 Y2.7008 
G01 X3.5877 Y2.7048 
G01 X3.5828 Y2.7097 
G00 Z0.1000 
G00 X3.8657 Y2.7103 
G01 Z-0.0070 F10.00 
G01 X3.8636 Y2.7168 F20.00 
G01 X3.8625 Y2.7236 
G01 X3.8625 Y2.8084 
G01 X3.8636 Y2.8152 
G01 X3.8657 Y2.8217 
G01 X3.8688 Y2.8278 
G01 X3.8728 Y2.8333 
G01 X3.8777 Y2.8382 
G01 X3.8832 Y2.8422 
G01 X3.8893 Y2.8453 
G01 X3.8958 Y2.8474 
G01 X3.9026 Y2.8485 
G01 X3.9094 Y2.8485 
G01 X3.9162 Y2.8474 
G01 X3.9227 Y2.8453 
G01 X3.9288 Y2.8422 
G01 X3.9343 Y2.8382 
G01 X3.9392 Y2.8333 
G01 X3.9432 Y2.8278 
G01 X3.9463 Y2.8217 
G01 X3.9484 Y2.8152 
G01 X3.9495 Y2.8084 
G01 X3.9495 Y2.7236 
G01 X3.9484 Y2.7168 
G01 X3.9463 Y2.7103 
G01 X3.9432 Y2.7042 
G01 X3.9392 Y2.6987 
G01 X3.9343 Y2.6938 
G01 X3.9288 Y2.6898 
G01 X3.9227 Y2.6867 
G01 X3.9162 Y2.6846 
G01 X3.9094 Y2.6835 
G01 X3.9026 Y2.6835 
G01 X3.8958 Y2.6846 
G01 X3.8893 Y2.6867 
G01 X3.8832 Y2.6898 
G01 X3.8777 Y2.6938 
G01 X3.8728 Y2.6987 
G01 X3.8688 Y2.7042 
G01 X3.8657 Y2.7103 
G00 Z0.1000 
G00 X4.5815 Y2.4210 
G01 Z-0.0070 F10.00 
G01 X4.5884 Y2.4260 F20.00 
G01 X4.5961 Y2.4299 
G01 X4.6042 Y2.4326 
G01 X4.6127 Y2.4339 
G01 X4.6213 Y2.4339 
G01 X4.6298 Y2.4326 
G01 X4.6379 Y2.4299 
G01 X4.6456 Y2.4260 
G01 X4.6525 Y2.4210 
G01 X4.6586 Y2.4149 
G01 X4.6636 Y2.4080 
G01 X4.6675 Y2.4003 
G01 X4.6702 Y2.3922 
G01 X4.6715 Y2.3837 
G01 X4.6715 Y2.2751 
G01 X4.6702 Y2.2667 
G01 X4.6675 Y2.2585 
G01 X4.6636 Y2.2509 
G01 X4.6586 Y2.2439 
G01 X4.6525 Y2.2379 
G01 X4.6456 Y2.2328 
G01 X4.6420 Y2.2310 
G01 X4.6456 Y2.2292 
G01 X4.6525 Y2.2241 
G01 X4.6586 Y2.2181 
G01 X4.6636 Y2.2111 
G01 X4.6675 Y2.2035 
G01 X4.6702 Y2.1953 
G01 X4.6715 Y2.1869 
G01 X4.6715 Y2.0783 
G01 X4.6702 Y2.0698 
G01 X4.6675 Y2.0617 
G01 X4.6636 Y2.0540 
G01 X4.6586 Y2.0471 
G01 X4.6525 Y2.0410 
G01 X4.6456 Y2.0360 
G01 X4.6379 Y2.0321 
G01 X4.6298 Y2.0294 
G01 X4.6213 Y2.0281 
G01 X4.6127 Y2.0281 
G01 X4.6042 Y2.0294 
G01 X4.5961 Y2.0321 
G01 X4.5884 Y2.0360 
G01 X4.5815 Y2.0410 
G01 X4.5754 Y2.0471 
G01 X4.5704 Y2.0540 
G01 X4.5665 Y2.0617 
G01 X4.5638 Y2.0698 
G01 X4.5625 Y2.0783 
G01 X4.5625 Y2.1869 
G01 X4.5638 Y2.1953 
G01 X4.5665 Y2.2035 
G01 X4.5704 Y2.2111 
G01 X4.5754 Y2.2181 
G01 X4.5815 Y2.2241 
G01 X4.5884 Y2.2292 
G01 X4.5920 Y2.2310 
G01 X4.5884 Y2.2328 
G01 X4.5815 Y2.2379 
G01 X4.5754 Y2.2439 
G01 X4.5704 Y2.2509 
G01 X4.5665 Y2.2585 
G01 X4.5638 Y2.2667 
G01 X4.5625 Y2.2751 
G01 X4.5625 Y2.3837 
G01 X4.5638 Y2.3922 
G01 X4.5665 Y2.4003 
G01 X4.5704 Y2.4080 
G01 X4.5754 Y2.4149 
G01 X4.5815 Y2.4210 
G00 Z0.1000 
G00 X4.5864 Y0.9270 
G01 Z-0.0070 F10.00 
G01 X4.5941 Y0.9309 F20.00 
G01 X4.6022 Y0.9336 
G01 X4.6107 Y0.9349 
G01 X4.6193 Y0.9349 
G01 X4.6278 Y0.9336 
G01 X4.6359 Y0.9309 
G01 X4.6436 Y0.9270 
G01 X4.6505 Y0.9220 
G01 X4.6566 Y0.9159 
G01 X4.6616 Y0.9090 
G01 X4.6655 Y0.9013 
G01 X4.6682 Y0.8932 
G01 X4.6695 Y0.8847 
G01 X4.6695 Y0.7761 
G01 X4.6682 Y0.7677 
G01 X4.6655 Y0.7595 
G01 X4.6616 Y0.7519 
G01 X4.6566 Y0.7449 
G01 X4.6505 Y0.7389 
G01 X4.6436 Y0.7338 
G01 X4.6400 Y0.7320 
G01 X4.6436 Y0.7302 
G01 X4.6505 Y0.7251 
G01 X4.6566 Y0.7191 
G01 X4.6616 Y0.7121 
G01 X4.6655 Y0.7045 
G01 X4.6682 Y0.6963 
G01 X4.6695 Y0.6879 
G01 X4.6695 Y0.5793 
G01 X4.6682 Y0.5708 
G01 X4.6655 Y0.5627 
G01 X4.6616 Y0.5550 
G01 X4.6566 Y0.5481 
G01 X4.6505 Y0.5420 
G01 X4.6436 Y0.5370 
G01 X4.6359 Y0.5331 
G01 X4.6278 Y0.5304 
G01 X4.6193 Y0.5291 
G01 X4.6107 Y0.5291 
G01 X4.6022 Y0.5304 
G01 X4.5941 Y0.5331 
G01 X4.5864 Y0.5370 
G01 X4.5795 Y0.5420 
G01 X4.5734 Y0.5481 
G01 X4.5684 Y0.5550 
G01 X4.5645 Y0.5627 
G01 X4.5618 Y0.5708 
G01 X4.5605 Y0.5793 
G01 X4.5605 Y0.6879 
G01 X4.5618 Y0.6963 
G01 X4.5645 Y0.7045 
G01 X4.5684 Y0.7121 
G01 X4.5734 Y0.7191 
G01 X4.5795 Y0.7251 
G01 X4.5864 Y0.7302 
G01 X4.5900 Y0.7320 
G01 X4.5864 Y0.7338 
G01 X4.5795 Y0.7389 
G01 X4.5734 Y0.7449 
G01 X4.5684 Y0.7519 
G01 X4.5645 Y0.7595 
G01 X4.5618 Y0.7677 
G01 X4.5605 Y0.7761 
G01 X4.5605 Y0.8847 
G01 X4.5618 Y0.8932 
G01 X4.5645 Y0.9013 
G01 X4.5684 Y0.9090 
G01 X4.5734 Y0.9159 
G01 X4.5795 Y0.9220 
G01 X4.5864 Y0.9270 
G00 Z0.1000 
G00 X3.3453 Y0.5201 
G01 Z-0.0070 F10.00 
G01 X3.3504 Y0.5135 F20.00 
G01 X3.3545 Y0.5063 
G01 X3.3577 Y0.4985 
G01 X3.3599 Y0.4905 
G01 X3.3610 Y0.4822 
G01 X3.3610 Y0.4738 
G01 X3.3599 Y0.4655 
G01 X3.3577 Y0.4575 
G01 X3.3545 Y0.4497 
G01 X3.3504 Y0.4425 
G01 X3.3453 Y0.4359 
G01 X3.3394 Y0.4300 
G01 X3.3327 Y0.4249 
G01 X3.3255 Y0.4207 
G01 X3.3178 Y0.4175 
G01 X3.3097 Y0.4153 
G01 X3.3014 Y0.4143 
G01 X3.1746 Y0.4143 
G01 X3.1663 Y0.4153 
G01 X3.1582 Y0.4175 
G01 X3.1505 Y0.4207 
G01 X3.1433 Y0.4249 
G01 X3.1366 Y0.4300 
G01 X3.1307 Y0.4359 
G01 X3.1256 Y0.4425 
G01 X3.1215 Y0.4497 
G01 X3.1183 Y0.4575 
G01 X3.1161 Y0.4655 
G01 X3.1150 Y0.4738 
G01 X3.1150 Y0.4822 
G01 X3.1161 Y0.4905 
G01 X3.1183 Y0.4985 
G01 X3.1215 Y0.5063 
G01 X3.1256 Y0.5135 
G01 X3.1307 Y0.5201 
G01 X3.1366 Y0.5260 
G01 X3.1433 Y0.5311 
G01 X3.1505 Y0.5353 
G01 X3.1582 Y0.5385 
G01 X3.1663 Y0.5407 
G01 X3.1746 Y0.5417 
G01 X3.3014 Y0.5417 
G01 X3.3097 Y0.5407 
G01 X3.3178 Y0.5385 
G01 X3.3255 Y0.5353 
G01 X3.3327 Y0.5311 
G01 X3.3394 Y0.5260 
G01 X3.3453 Y0.5201 
G00 Z0.1000 
G00 X0.0632 Y0.5562 
G01 Z-0.0070 F10.00 
G01 X0.0577 Y0.5638 F20.00 
G01 X0.0534 Y0.5722 
G01 X0.0505 Y0.5811 
G01 X0.0491 Y0.5903 
G01 X0.0491 Y0.5997 
G01 X0.0505 Y0.6089 
G01 X0.0534 Y0.6178 
G01 X0.0577 Y0.6262 
G01 X0.0632 Y0.6338 
G01 X0.0698 Y0.6404 
G01 X0.0774 Y0.6459 
G01 X0.0857 Y0.6501 
G01 X0.0946 Y0.6530 
G01 X0.1039 Y0.6545 
G01 X0.2133 Y0.6545 
G01 X0.2225 Y0.6530 
G01 X0.2314 Y0.6501 
G01 X0.2398 Y0.6459 
G01 X0.2473 Y0.6404 
G01 X0.2540 Y0.6338 
G01 X0.2570 Y0.6296 
G01 X0.2600 Y0.6338 
G01 X0.2667 Y0.6404 
G01 X0.2742 Y0.6459 
G01 X0.2826 Y0.6501 
G01 X0.2915 Y0.6530 
G01 X0.3007 Y0.6545 
G01 X0.4101 Y0.6545 
G01 X0.4194 Y0.6530 
G01 X0.4283 Y0.6501 
G01 X0.4366 Y0.6459 
G01 X0.4442 Y0.6404 
G01 X0.4508 Y0.6338 
G01 X0.4563 Y0.6262 
G01 X0.4606 Y0.6178 
G01 X0.4635 Y0.6089 
G01 X0.4649 Y0.5997 
G01 X0.4649 Y0.5903 
G01 X0.4635 Y0.5811 
G01 X0.4606 Y0.5722 
G01 X0.4563 Y0.5638 
G01 X0.4508 Y0.5562 
G01 X0.4442 Y0.5496 
G01 X0.4366 Y0.5441 
G01 X0.4283 Y0.5399 
G01 X0.4194 Y0.5370 
G01 X0.4101 Y0.5355 
G01 X0.3007 Y0.5355 
G01 X0.2915 Y0.5370 
G01 X0.2826 Y0.5399 
G01 X0.2742 Y0.5441 
G01 X0.2667 Y0.5496 
G01 X0.2600 Y0.5562 
G01 X0.2570 Y0.5604 
G01 X0.2540 Y0.5562 
G01 X0.2473 Y0.5496 
G01 X0.2398 Y0.5441 
G01 X0.2314 Y0.5399 
G01 X0.2225 Y0.5370 
G01 X0.2133 Y0.5355 
G01 X0.1039 Y0.5355 
G01 X0.0946 Y0.5370 
G01 X0.0857 Y0.5399 
G01 X0.0774 Y0.5441 
G01 X0.0698 Y0.5496 
G01 X0.0632 Y0.5562 
G00 Z0.1000 
G00 X0.0852 Y1.1992 
G01 Z-0.0070 F10.00 
G01 X0.0797 Y1.2068 F20.00 
G01 X0.0754 Y1.2152 
G01 X0.0725 Y1.2241 
G01 X0.0711 Y1.2333 
G01 X0.0711 Y1.2427 
G01 X0.0725 Y1.2519 
G01 X0.0754 Y1.2608 
G01 X0.0797 Y1.2692 
G01 X0.0852 Y1.2768 
G01 X0.0918 Y1.2834 
G01 X0.0994 Y1.2889 
G01 X0.1077 Y1.2931 
G01 X0.1166 Y1.2960 
G01 X0.1259 Y1.2975 
G01 X0.2353 Y1.2975 
G01 X0.2445 Y1.2960 
G01 X0.2534 Y1.2931 
G01 X0.2618 Y1.2889 
G01 X0.2693 Y1.2834 
G01 X0.2760 Y1.2768 
G01 X0.2790 Y1.2726 
G01 X0.2820 Y1.2768 
G01 X0.2887 Y1.2834 
G01 X0.2962 Y1.2889 
G01 X0.3046 Y1.2931 
G01 X0.3135 Y1.2960 
G01 X0.3227 Y1.2975 
G01 X0.4321 Y1.2975 
G01 X0.4414 Y1.2960 
G01 X0.4503 Y1.2931 
G01 X0.4586 Y1.2889 
G01 X0.4662 Y1.2834 
G01 X0.4728 Y1.2768 
G01 X0.4783 Y1.2692 
G01 X0.4826 Y1.2608 
G01 X0.4855 Y1.2519 
G01 X0.4869 Y1.2427 
G01 X0.4869 Y1.2333 
G01 X0.4855 Y1.2241 
G01 X0.4826 Y1.2152 
G01 X0.4783 Y1.2068 
G01 X0.4728 Y1.1992 
G01 X0.4662 Y1.1926 
G01 X0.4586 Y1.1871 
G01 X0.4503 Y1.1829 
G01 X0.4414 Y1.1800 
G01 X0.4321 Y1.1785 
G01 X0.3227 Y1.1785 
G01 X0.3135 Y1.1800 
G01 X0.3046 Y1.1829 
G01 X0.2962 Y1.1871 
G01 X0.2887 Y1.1926 
G01 X0.2820 Y1.1992 
G01 X0.2790 Y1.2034 
G01 X0.2760 Y1.1992 
G01 X0.2693 Y1.1926 
G01 X0.2618 Y1.1871 
G01 X0.2534 Y1.1829 
G01 X0.2445 Y1.1800 
G01 X0.2353 Y1.1785 
G01 X0.1259 Y1.1785 
G01 X0.1166 Y1.1800 
G01 X0.1077 Y1.1829 
G01 X0.0994 Y1.1871 
G01 X0.0918 Y1.1926 
G01 X0.0852 Y1.1992 
G00 Z0.1000 
G00 X0.1424 Y1.9664 
G01 Z-0.0070 F10.00 
G01 X0.1385 Y1.9722 F20.00 
G01 X0.1359 Y1.9786 
G01 X0.1345 Y1.9855 
G01 X0.1345 Y1.9925 
G01 X0.1359 Y1.9994 
G01 X0.1385 Y2.0058 
G01 X0.1424 Y2.0116 
G01 X0.1474 Y2.0166 
G01 X0.1532 Y2.0205 
G01 X0.1596 Y2.0231 
G01 X0.1665 Y2.0245 
G01 X0.2255 Y2.0245 
G01 X0.2324 Y2.0231 
G01 X0.2388 Y2.0205 
G01 X0.2446 Y2.0166 
G01 X0.2496 Y2.0116 
G01 X0.2535 Y2.0058 
G01 X0.2561 Y1.9994 
G01 X0.2575 Y1.9925 
G01 X0.2575 Y1.9855 
G01 X0.2561 Y1.9786 
G01 X0.2535 Y1.9722 
G01 X0.2496 Y1.9664 
G01 X0.2446 Y1.9614 
G01 X0.2388 Y1.9575 
G01 X0.2324 Y1.9549 
G01 X0.2255 Y1.9535 
G01 X0.1665 Y1.9535 
G01 X0.1596 Y1.9549 
G01 X0.1532 Y1.9575 
G01 X0.1474 Y1.9614 
G01 X0.1424 Y1.9664 
G00 Z0.1000 
G00 X0.1424 Y2.0664 
G01 Z-0.0070 F10.00 
G01 X0.1385 Y2.0722 F20.00 
G01 X0.1359 Y2.0786 
G01 X0.1345 Y2.0855 
G01 X0.1345 Y2.0925 
G01 X0.1359 Y2.0994 
G01 X0.1385 Y2.1058 
G01 X0.1424 Y2.1116 
G01 X0.1474 Y2.1166 
G01 X0.1532 Y2.1205 
G01 X0.1596 Y2.1231 
G01 X0.1665 Y2.1245 
G01 X0.2255 Y2.1245 
G01 X0.2324 Y2.1231 
G01 X0.2388 Y2.1205 
G01 X0.2446 Y2.1166 
G01 X0.2496 Y2.1116 
G01 X0.2535 Y2.1058 
G01 X0.2561 Y2.0994 
G01 X0.2575 Y2.0925 
G01 X0.2575 Y2.0855 
G01 X0.2561 Y2.0786 
G01 X0.2535 Y2.0722 
G01 X0.2496 Y2.0664 
G01 X0.2446 Y2.0614 
G01 X0.2388 Y2.0575 
G01 X0.2324 Y2.0549 
G01 X0.2255 Y2.0535 
G01 X0.1665 Y2.0535 
G01 X0.1596 Y2.0549 
G01 X0.1532 Y2.0575 
G01 X0.1474 Y2.0614 
G01 X0.1424 Y2.0664 
G00 Z0.1000 
G00 X0.1424 Y2.1664 
G01 Z-0.0070 F10.00 
G01 X0.1385 Y2.1722 F20.00 
G01 X0.1359 Y2.1786 
G01 X0.1345 Y2.1855 
G01 X0.1345 Y2.1925 
G01 X0.1359 Y2.1994 
G01 X0.1385 Y2.2058 
G01 X0.1424 Y2.2116 
G01 X0.1474 Y2.2166 
G01 X0.1532 Y2.2205 
G01 X0.1596 Y2.2231 
G01 X0.1665 Y2.2245 
G01 X0.2255 Y2.2245 
G01 X0.2324 Y2.2231 
G01 X0.2388 Y2.2205 
G01 X0.2446 Y2.2166 
G01 X0.2496 Y2.2116 
G01 X0.2535 Y2.2058 
G01 X0.2561 Y2.1994 
G01 X0.2575 Y2.1925 
G01 X0.2575 Y2.1855 
G01 X0.2561 Y2.1786 
G01 X0.2535 Y2.1722 
G01 X0.2496 Y2.1664 
G01 X0.2446 Y2.1614 
G01 X0.2388 Y2.1575 
G01 X0.2324 Y2.1549 
G01 X0.2255 Y2.1535 
G01 X0.1665 Y2.1535 
G01 X0.1596 Y2.1549 
G01 X0.1532 Y2.1575 
G01 X0.1474 Y2.1614 
G01 X0.1424 Y2.1664 
G00 Z0.1000 
G00 X0.4645 Y2.2035 
G01 Z-0.0070 F10.00 
G01 X0.4645 Y2.2345 F20.00 
G01 X0.4865 Y2.2565 
G01 X0.5175 Y2.2565 
G01 X0.5395 Y2.2345 
G01 X0.5395 Y2.2035 
G01 X0.5175 Y2.1815 
G01 X0.4865 Y2.1815 
G01 X0.4645 Y2.2035 
G00 Z0.1000 
G00 X0.7319 Y2.2034 
G01 Z-0.0070 F10.00 
G01 X0.7345 Y2.2098 F20.00 
G01 X0.7384 Y2.2156 
G01 X0.7434 Y2.2206 
G01 X0.7492 Y2.2245 
G01 X0.7556 Y2.2271 
G01 X0.7625 Y2.2285 
G01 X0.8215 Y2.2285 
G01 X0.8284 Y2.2271 
G01 X0.8348 Y2.2245 
G01 X0.8406 Y2.2206 
G01 X0.8456 Y2.2156 
G01 X0.8495 Y2.2098 
G01 X0.8521 Y2.2034 
G01 X0.8535 Y2.1965 
G01 X0.8535 Y2.1895 
G01 X0.8521 Y2.1826 
G01 X0.8495 Y2.1762 
G01 X0.8456 Y2.1704 
G01 X0.8406 Y2.1654 
G01 X0.8348 Y2.1615 
G01 X0.8284 Y2.1589 
G01 X0.8215 Y2.1575 
G01 X0.7625 Y2.1575 
G01 X0.7556 Y2.1589 
G01 X0.7492 Y2.1615 
G01 X0.7434 Y2.1654 
G01 X0.7384 Y2.1704 
G01 X0.7345 Y2.1762 
G01 X0.7319 Y2.1826 
G01 X0.7305 Y2.1895 
G01 X0.7305 Y2.1965 
G01 X0.7319 Y2.2034 
G00 Z0.1000 
G00 X0.7434 Y2.1206 
G01 Z-0.0070 F10.00 
G01 X0.7492 Y2.1245 F20.00 
G01 X0.7556 Y2.1271 
G01 X0.7625 Y2.1285 
G01 X0.8215 Y2.1285 
G01 X0.8284 Y2.1271 
G01 X0.8348 Y2.1245 
G01 X0.8406 Y2.1206 
G01 X0.8456 Y2.1156 
G01 X0.8495 Y2.1098 
G01 X0.8521 Y2.1034 
G01 X0.8535 Y2.0965 
G01 X0.8535 Y2.0895 
G01 X0.8521 Y2.0826 
G01 X0.8495 Y2.0762 
G01 X0.8456 Y2.0704 
G01 X0.8406 Y2.0654 
G01 X0.8348 Y2.0615 
G01 X0.8284 Y2.0589 
G01 X0.8215 Y2.0575 
G01 X0.7625 Y2.0575 
G01 X0.7556 Y2.0589 
G01 X0.7492 Y2.0615 
G01 X0.7434 Y2.0654 
G01 X0.7384 Y2.0704 
G01 X0.7345 Y2.0762 
G01 X0.7319 Y2.0826 
G01 X0.7305 Y2.0895 
G01 X0.7305 Y2.0965 
G01 X0.7319 Y2.1034 
G01 X0.7345 Y2.1098 
G01 X0.7384 Y2.1156 
G01 X0.7434 Y2.1206 
G00 Z0.1000 
G00 X0.7434 Y2.0206 
G01 Z-0.0070 F10.00 
G01 X0.7492 Y2.0245 F20.00 
G01 X0.7556 Y2.0271 
G01 X0.7625 Y2.0285 
G01 X0.8215 Y2.0285 
G01 X0.8284 Y2.0271 
G01 X0.8348 Y2.0245 
G01 X0.8406 Y2.0206 
G01 X0.8456 Y2.0156 
G01 X0.8495 Y2.0098 
G01 X0.8521 Y2.0034 
G01 X0.8535 Y1.9965 
G01 X0.8535 Y1.9895 
G01 X0.8521 Y1.9826 
G01 X0.8495 Y1.9762 
G01 X0.8456 Y1.9704 
G01 X0.8406 Y1.9654 
G01 X0.8348 Y1.9615 
G01 X0.8284 Y1.9589 
G01 X0.8215 Y1.9575 
G01 X0.7625 Y1.9575 
G01 X0.7556 Y1.9589 
G01 X0.7492 Y1.9615 
G01 X0.7434 Y1.9654 
G01 X0.7384 Y1.9704 
G01 X0.7345 Y1.9762 
G01 X0.7319 Y1.9826 
G01 X0.7305 Y1.9895 
G01 X0.7305 Y1.9965 
G01 X0.7319 Y2.0034 
G01 X0.7345 Y2.0098 
G01 X0.7384 Y2.0156 
G01 X0.7434 Y2.0206 
G00 Z0.1000 
G00 X0.7434 Y1.9206 
G01 Z-0.0070 F10.00 
G01 X0.7492 Y1.9245 F20.00 
G01 X0.7556 Y1.9271 
G01 X0.7625 Y1.9285 
G01 X0.8215 Y1.9285 
G01 X0.8284 Y1.9271 
G01 X0.8348 Y1.9245 
G01 X0.8406 Y1.9206 
G01 X0.8456 Y1.9156 
G01 X0.8495 Y1.9098 
G01 X0.8521 Y1.9034 
G01 X0.8535 Y1.8965 
G01 X0.8535 Y1.8895 
G01 X0.8521 Y1.8826 
G01 X0.8495 Y1.8762 
G01 X0.8456 Y1.8704 
G01 X0.8406 Y1.8654 
G01 X0.8348 Y1.8615 
G01 X0.8284 Y1.8589 
G01 X0.8215 Y1.8575 
G01 X0.7625 Y1.8575 
G01 X0.7556 Y1.8589 
G01 X0.7492 Y1.8615 
G01 X0.7434 Y1.8654 
G01 X0.7384 Y1.8704 
G01 X0.7345 Y1.8762 
G01 X0.7319 Y1.8826 
G01 X0.7305 Y1.8895 
G01 X0.7305 Y1.8965 
G01 X0.7319 Y1.9034 
G01 X0.7345 Y1.9098 
G01 X0.7384 Y1.9156 
G01 X0.7434 Y1.9206 
G00 Z0.1000 
G00 X0.7434 Y1.8206 
G01 Z-0.0070 F10.00 
G01 X0.7492 Y1.8245 F20.00 
G01 X0.7556 Y1.8271 
G01 X0.7625 Y1.8285 
G01 X0.8215 Y1.8285 
G01 X0.8284 Y1.8271 
G01 X0.8348 Y1.8245 
G01 X0.8406 Y1.8206 
G01 X0.8456 Y1.8156 
G01 X0.8495 Y1.8098 
G01 X0.8521 Y1.8034 
G01 X0.8535 Y1.7965 
G01 X0.8535 Y1.7895 
G01 X0.8521 Y1.7826 
G01 X0.8495 Y1.7762 
G01 X0.8456 Y1.7704 
G01 X0.8406 Y1.7654 
G01 X0.8348 Y1.7615 
G01 X0.8284 Y1.7589 
G01 X0.8215 Y1.7575 
G01 X0.7625 Y1.7575 
G01 X0.7556 Y1.7589 
G01 X0.7492 Y1.7615 
G01 X0.7434 Y1.7654 
G01 X0.7384 Y1.7704 
G01 X0.7345 Y1.7762 
G01 X0.7319 Y1.7826 
G01 X0.7305 Y1.7895 
G01 X0.7305 Y1.7965 
G01 X0.7319 Y1.8034 
G01 X0.7345 Y1.8098 
G01 X0.7384 Y1.8156 
G01 X0.7434 Y1.8206 
G00 Z0.1000 
G00 X0.7434 Y1.7206 
G01 Z-0.0070 F10.00 
G01 X0.7492 Y1.7245 F20.00 
G01 X0.7556 Y1.7271 
G01 X0.7625 Y1.7285 
G01 X0.8215 Y1.7285 
G01 X0.8284 Y1.7271 
G01 X0.8348 Y1.7245 
G01 X0.8406 Y1.7206 
G01 X0.8456 Y1.7156 
G01 X0.8495 Y1.7098 
G01 X0.8521 Y1.7034 
G01 X0.8535 Y1.6965 
G01 X0.8535 Y1.6895 
G01 X0.8521 Y1.6826 
G01 X0.8495 Y1.6762 
G01 X0.8456 Y1.6704 
G01 X0.8406 Y1.6654 
G01 X0.8348 Y1.6615 
G01 X0.8284 Y1.6589 
G01 X0.8215 Y1.6575 
G01 X0.7625 Y1.6575 
G01 X0.7556 Y1.6589 
G01 X0.7492 Y1.6615 
G01 X0.7434 Y1.6654 
G01 X0.7384 Y1.6704 
G01 X0.7345 Y1.6762 
G01 X0.7319 Y1.6826 
G01 X0.7305 Y1.6895 
G01 X0.7305 Y1.6965 
G01 X0.7319 Y1.7034 
G01 X0.7345 Y1.7098 
G01 X0.7384 Y1.7156 
G01 X0.7434 Y1.7206 
G00 Z0.1000 
G00 X0.7434 Y1.6206 
G01 Z-0.0070 F10.00 
G01 X0.7492 Y1.6245 F20.00 
G01 X0.7556 Y1.6271 
G01 X0.7625 Y1.6285 
G01 X0.8215 Y1.6285 
G01 X0.8284 Y1.6271 
G01 X0.8348 Y1.6245 
G01 X0.8406 Y1.6206 
G01 X0.8456 Y1.6156 
G01 X0.8495 Y1.6098 
G01 X0.8521 Y1.6034 
G01 X0.8535 Y1.5965 
G01 X0.8535 Y1.5895 
G01 X0.8521 Y1.5826 
G01 X0.8495 Y1.5762 
G01 X0.8456 Y1.5704 
G01 X0.8406 Y1.5654 
G01 X0.8348 Y1.5615 
G01 X0.8284 Y1.5589 
G01 X0.8215 Y1.5575 
G01 X0.7625 Y1.5575 
G01 X0.7556 Y1.5589 
G01 X0.7492 Y1.5615 
G01 X0.7434 Y1.5654 
G01 X0.7384 Y1.5704 
G01 X0.7345 Y1.5762 
G01 X0.7319 Y1.5826 
G01 X0.7305 Y1.5895 
G01 X0.7305 Y1.5965 
G01 X0.7319 Y1.6034 
G01 X0.7345 Y1.6098 
G01 X0.7384 Y1.6156 
G01 X0.7434 Y1.6206 
G00 Z0.1000 
G00 X1.0434 Y1.6206 
G01 Z-0.0070 F10.00 
G01 X1.0492 Y1.6245 F20.00 
G01 X1.0556 Y1.6271 
G01 X1.0625 Y1.6285 
G01 X1.1215 Y1.6285 
G01 X1.1284 Y1.6271 
G01 X1.1348 Y1.6245 
G01 X1.1406 Y1.6206 
G01 X1.1456 Y1.6156 
G01 X1.1495 Y1.6098 
G01 X1.1521 Y1.6034 
G01 X1.1535 Y1.5965 
G01 X1.1535 Y1.5895 
G01 X1.1521 Y1.5826 
G01 X1.1495 Y1.5762 
G01 X1.1456 Y1.5704 
G01 X1.1406 Y1.5654 
G01 X1.1348 Y1.5615 
G01 X1.1284 Y1.5589 
G01 X1.1215 Y1.5575 
G01 X1.0625 Y1.5575 
G01 X1.0556 Y1.5589 
G01 X1.0492 Y1.5615 
G01 X1.0434 Y1.5654 
G01 X1.0384 Y1.5704 
G01 X1.0345 Y1.5762 
G01 X1.0319 Y1.5826 
G01 X1.0305 Y1.5895 
G01 X1.0305 Y1.5965 
G01 X1.0319 Y1.6034 
G01 X1.0345 Y1.6098 
G01 X1.0384 Y1.6156 
G01 X1.0434 Y1.6206 
G00 Z0.1000 
G00 X1.0434 Y1.6654 
G01 Z-0.0070 F10.00 
G01 X1.0384 Y1.6704 F20.00 
G01 X1.0345 Y1.6762 
G01 X1.0319 Y1.6826 
G01 X1.0305 Y1.6895 
G01 X1.0305 Y1.6965 
G01 X1.0319 Y1.7034 
G01 X1.0345 Y1.7098 
G01 X1.0384 Y1.7156 
G01 X1.0434 Y1.7206 
G01 X1.0492 Y1.7245 
G01 X1.0556 Y1.7271 
G01 X1.0625 Y1.7285 
G01 X1.1215 Y1.7285 
G01 X1.1284 Y1.7271 
G01 X1.1348 Y1.7245 
G01 X1.1406 Y1.7206 
G01 X1.1456 Y1.7156 
G01 X1.1495 Y1.7098 
G01 X1.1521 Y1.7034 
G01 X1.1535 Y1.6965 
G01 X1.1535 Y1.6895 
G01 X1.1521 Y1.6826 
G01 X1.1495 Y1.6762 
G01 X1.1456 Y1.6704 
G01 X1.1406 Y1.6654 
G01 X1.1348 Y1.6615 
G01 X1.1284 Y1.6589 
G01 X1.1215 Y1.6575 
G01 X1.0625 Y1.6575 
G01 X1.0556 Y1.6589 
G01 X1.0492 Y1.6615 
G01 X1.0434 Y1.6654 
G00 Z0.1000 
G00 X1.0434 Y1.7654 
G01 Z-0.0070 F10.00 
G01 X1.0384 Y1.7704 F20.00 
G01 X1.0345 Y1.7762 
G01 X1.0319 Y1.7826 
G01 X1.0305 Y1.7895 
G01 X1.0305 Y1.7965 
G01 X1.0319 Y1.8034 
G01 X1.0345 Y1.8098 
G01 X1.0384 Y1.8156 
G01 X1.0434 Y1.8206 
G01 X1.0492 Y1.8245 
G01 X1.0556 Y1.8271 
G01 X1.0625 Y1.8285 
G01 X1.1215 Y1.8285 
G01 X1.1284 Y1.8271 
G01 X1.1348 Y1.8245 
G01 X1.1406 Y1.8206 
G01 X1.1456 Y1.8156 
G01 X1.1495 Y1.8098 
G01 X1.1521 Y1.8034 
G01 X1.1535 Y1.7965 
G01 X1.1535 Y1.7895 
G01 X1.1521 Y1.7826 
G01 X1.1495 Y1.7762 
G01 X1.1456 Y1.7704 
G01 X1.1406 Y1.7654 
G01 X1.1348 Y1.7615 
G01 X1.1284 Y1.7589 
G01 X1.1215 Y1.7575 
G01 X1.0625 Y1.7575 
G01 X1.0556 Y1.7589 
G01 X1.0492 Y1.7615 
G01 X1.0434 Y1.7654 
G00 Z0.1000 
G00 X1.0434 Y1.8654 
G01 Z-0.0070 F10.00 
G01 X1.0384 Y1.8704 F20.00 
G01 X1.0345 Y1.8762 
G01 X1.0319 Y1.8826 
G01 X1.0305 Y1.8895 
G01 X1.0305 Y1.8965 
G01 X1.0319 Y1.9034 
G01 X1.0345 Y1.9098 
G01 X1.0384 Y1.9156 
G01 X1.0434 Y1.9206 
G01 X1.0492 Y1.9245 
G01 X1.0556 Y1.9271 
G01 X1.0625 Y1.9285 
G01 X1.1215 Y1.9285 
G01 X1.1284 Y1.9271 
G01 X1.1348 Y1.9245 
G01 X1.1406 Y1.9206 
G01 X1.1456 Y1.9156 
G01 X1.1495 Y1.9098 
G01 X1.1521 Y1.9034 
G01 X1.1535 Y1.8965 
G01 X1.1535 Y1.8895 
G01 X1.1521 Y1.8826 
G01 X1.1495 Y1.8762 
G01 X1.1456 Y1.8704 
G01 X1.1406 Y1.8654 
G01 X1.1348 Y1.8615 
G01 X1.1284 Y1.8589 
G01 X1.1215 Y1.8575 
G01 X1.0625 Y1.8575 
G01 X1.0556 Y1.8589 
G01 X1.0492 Y1.8615 
G01 X1.0434 Y1.8654 
G00 Z0.1000 
G00 X1.0434 Y1.9654 
G01 Z-0.0070 F10.00 
G01 X1.0384 Y1.9704 F20.00 
G01 X1.0345 Y1.9762 
G01 X1.0319 Y1.9826 
G01 X1.0305 Y1.9895 
G01 X1.0305 Y1.9965 
G01 X1.0319 Y2.0034 
G01 X1.0345 Y2.0098 
G01 X1.0384 Y2.0156 
G01 X1.0434 Y2.0206 
G01 X1.0492 Y2.0245 
G01 X1.0556 Y2.0271 
G01 X1.0625 Y2.0285 
G01 X1.1215 Y2.0285 
G01 X1.1284 Y2.0271 
G01 X1.1348 Y2.0245 
G01 X1.1406 Y2.0206 
G01 X1.1456 Y2.0156 
G01 X1.1495 Y2.0098 
G01 X1.1521 Y2.0034 
G01 X1.1535 Y1.9965 
G01 X1.1535 Y1.9895 
G01 X1.1521 Y1.9826 
G01 X1.1495 Y1.9762 
G01 X1.1456 Y1.9704 
G01 X1.1406 Y1.9654 
G01 X1.1348 Y1.9615 
G01 X1.1284 Y1.9589 
G01 X1.1215 Y1.9575 
G01 X1.0625 Y1.9575 
G01 X1.0556 Y1.9589 
G01 X1.0492 Y1.9615 
G01 X1.0434 Y1.9654 
G00 Z0.1000 
G00 X1.0434 Y2.0654 
G01 Z-0.0070 F10.00 
G01 X1.0384 Y2.0704 F20.00 
G01 X1.0345 Y2.0762 
G01 X1.0319 Y2.0826 
G01 X1.0305 Y2.0895 
G01 X1.0305 Y2.0965 
G01 X1.0319 Y2.1034 
G01 X1.0345 Y2.1098 
G01 X1.0384 Y2.1156 
G01 X1.0434 Y2.1206 
G01 X1.0492 Y2.1245 
G01 X1.0556 Y2.1271 
G01 X1.0625 Y2.1285 
G01 X1.1215 Y2.1285 
G01 X1.1284 Y2.1271 
G01 X1.1348 Y2.1245 
G01 X1.1406 Y2.1206 
G01 X1.1456 Y2.1156 
G01 X1.1495 Y2.1098 
G01 X1.1521 Y2.1034 
G01 X1.1535 Y2.0965 
G01 X1.1535 Y2.0895 
G01 X1.1521 Y2.0826 
G01 X1.1495 Y2.0762 
G01 X1.1456 Y2.0704 
G01 X1.1406 Y2.0654 
G01 X1.1348 Y2.0615 
G01 X1.1284 Y2.0589 
G01 X1.1215 Y2.0575 
G01 X1.0625 Y2.0575 
G01 X1.0556 Y2.0589 
G01 X1.0492 Y2.0615 
G01 X1.0434 Y2.0654 
G00 Z0.1000 
G00 X1.0434 Y2.1654 
G01 Z-0.0070 F10.00 
G01 X1.0384 Y2.1704 F20.00 
G01 X1.0345 Y2.1762 
G01 X1.0319 Y2.1826 
G01 X1.0305 Y2.1895 
G01 X1.0305 Y2.1965 
G01 X1.0319 Y2.2034 
G01 X1.0345 Y2.2098 
G01 X1.0384 Y2.2156 
G01 X1.0434 Y2.2206 
G01 X1.0492 Y2.2245 
G01 X1.0556 Y2.2271 
G01 X1.0625 Y2.2285 
G01 X1.1215 Y2.2285 
G01 X1.1284 Y2.2271 
G01 X1.1348 Y2.2245 
G01 X1.1406 Y2.2206 
G01 X1.1456 Y2.2156 
G01 X1.1495 Y2.2098 
G01 X1.1521 Y2.2034 
G01 X1.1535 Y2.1965 
G01 X1.1535 Y2.1895 
G01 X1.1521 Y2.1826 
G01 X1.1495 Y2.1762 
G01 X1.1456 Y2.1704 
G01 X1.1406 Y2.1654 
G01 X1.1348 Y2.1615 
G01 X1.1284 Y2.1589 
G01 X1.1215 Y2.1575 
G01 X1.0625 Y2.1575 
G01 X1.0556 Y2.1589 
G01 X1.0492 Y2.1615 
G01 X1.0434 Y2.1654 
G00 Z0.1000 
G00 X1.2845 Y2.2823 
G01 Z-0.0070 F10.00 
G01 X1.2845 Y2.3117 F20.00 
G01 X1.3053 Y2.3325 
G01 X1.3347 Y2.3325 
G01 X1.3555 Y2.3117 
G01 X1.3555 Y2.2823 
G01 X1.3347 Y2.2615 
G01 X1.3053 Y2.2615 
G01 X1.2845 Y2.2823 
G00 Z0.1000 
G00 X1.2845 Y2.6823 
G01 Z-0.0070 F10.00 
G01 X1.2845 Y2.7117 F20.00 
G01 X1.3053 Y2.7325 
G01 X1.3347 Y2.7325 
G01 X1.3555 Y2.7117 
G01 X1.3555 Y2.6823 
G01 X1.3347 Y2.6615 
G01 X1.3053 Y2.6615 
G01 X1.2845 Y2.6823 
G00 Z0.1000 
G00 X1.4910 Y2.6803 
G01 Z-0.0070 F10.00 
G01 X1.4880 Y2.6875 F20.00 
G01 X1.4865 Y2.6951 
G01 X1.4865 Y2.7029 
G01 X1.4880 Y2.7105 
G01 X1.4910 Y2.7177 
G01 X1.4953 Y2.7242 
G01 X1.5008 Y2.7297 
G01 X1.5073 Y2.7340 
G01 X1.5145 Y2.7370 
G01 X1.5221 Y2.7385 
G01 X1.5899 Y2.7385 
G01 X1.5975 Y2.7370 
G01 X1.6047 Y2.7340 
G01 X1.6112 Y2.7297 
G01 X1.6167 Y2.7242 
G01 X1.6210 Y2.7177 
G01 X1.6240 Y2.7105 
G01 X1.6255 Y2.7029 
G01 X1.6255 Y2.6951 
G01 X1.6240 Y2.6875 
G01 X1.6210 Y2.6803 
G01 X1.6167 Y2.6738 
G01 X1.6112 Y2.6683 
G01 X1.6047 Y2.6640 
G01 X1.5975 Y2.6610 
G01 X1.5899 Y2.6595 
G01 X1.5221 Y2.6595 
G01 X1.5145 Y2.6610 
G01 X1.5073 Y2.6640 
G01 X1.5008 Y2.6683 
G01 X1.4953 Y2.6738 
G01 X1.4910 Y2.6803 
G00 Z0.1000 
G00 X1.5008 Y2.6297 
G01 Z-0.0070 F10.00 
G01 X1.5073 Y2.6340 F20.00 
G01 X1.5145 Y2.6370 
G01 X1.5221 Y2.6385 
G01 X1.5899 Y2.6385 
G01 X1.5975 Y2.6370 
G01 X1.6047 Y2.6340 
G01 X1.6112 Y2.6297 
G01 X1.6167 Y2.6242 
G01 X1.6210 Y2.6177 
G01 X1.6240 Y2.6105 
G01 X1.6255 Y2.6029 
G01 X1.6255 Y2.5951 
G01 X1.6240 Y2.5875 
G01 X1.6210 Y2.5803 
G01 X1.6167 Y2.5738 
G01 X1.6112 Y2.5683 
G01 X1.6047 Y2.5640 
G01 X1.5975 Y2.5610 
G01 X1.5899 Y2.5595 
G01 X1.5221 Y2.5595 
G01 X1.5145 Y2.5610 
G01 X1.5073 Y2.5640 
G01 X1.5008 Y2.5683 
G01 X1.4953 Y2.5738 
G01 X1.4910 Y2.5803 
G01 X1.4880 Y2.5875 
G01 X1.4865 Y2.5951 
G01 X1.4865 Y2.6029 
G01 X1.4880 Y2.6105 
G01 X1.4910 Y2.6177 
G01 X1.4953 Y2.6242 
G01 X1.5008 Y2.6297 
G00 Z0.1000 
G00 X1.5008 Y2.5297 
G01 Z-0.0070 F10.00 
G01 X1.5073 Y2.5340 F20.00 
G01 X1.5145 Y2.5370 
G01 X1.5221 Y2.5385 
G01 X1.5899 Y2.5385 
G01 X1.5975 Y2.5370 
G01 X1.6047 Y2.5340 
G01 X1.6112 Y2.5297 
G01 X1.6167 Y2.5242 
G01 X1.6210 Y2.5177 
G01 X1.6240 Y2.5105 
G01 X1.6255 Y2.5029 
G01 X1.6255 Y2.4951 
G01 X1.6240 Y2.4875 
G01 X1.6210 Y2.4803 
G01 X1.6167 Y2.4738 
G01 X1.6112 Y2.4683 
G01 X1.6047 Y2.4640 
G01 X1.5975 Y2.4610 
G01 X1.5899 Y2.4595 
G01 X1.5221 Y2.4595 
G01 X1.5145 Y2.4610 
G01 X1.5073 Y2.4640 
G01 X1.5008 Y2.4683 
G01 X1.4953 Y2.4738 
G01 X1.4910 Y2.4803 
G01 X1.4880 Y2.4875 
G01 X1.4865 Y2.4951 
G01 X1.4865 Y2.5029 
G01 X1.4880 Y2.5105 
G01 X1.4910 Y2.5177 
G01 X1.4953 Y2.5242 
G01 X1.5008 Y2.5297 
G00 Z0.1000 
G00 X1.8933 Y2.4325 
G01 Z-0.0070 F10.00 
G01 X1.9227 Y2.4325 F20.00 
G01 X1.9435 Y2.4117 
G01 X1.9435 Y2.3823 
G01 X1.9227 Y2.3615 
G01 X1.8933 Y2.3615 
G01 X1.8725 Y2.3823 
G01 X1.8725 Y2.4117 
G01 X1.8933 Y2.4325 
G00 Z0.1000 
G00 X1.8933 Y2.7615 
G01 Z-0.0070 F10.00 
G01 X1.8725 Y2.7823 F20.00 
G01 X1.8725 Y2.8117 
G01 X1.8933 Y2.8325 
G01 X1.9227 Y2.8325 
G01 X1.9435 Y2.8117 
G01 X1.9435 Y2.7823 
G01 X1.9227 Y2.7615 
G01 X1.8933 Y2.7615 
G00 Z0.1000 
G00 X1.7965 Y1.7197 
G01 Z-0.0070 F10.00 
G01 X1.7965 Y1.6903 F20.00 
G01 X1.7757 Y1.6695 
G01 X1.7463 Y1.6695 
G01 X1.7255 Y1.6903 
G01 X1.7255 Y1.7197 
G01 X1.7463 Y1.7405 
G01 X1.7757 Y1.7405 
G01 X1.7965 Y1.7197 
G00 Z0.1000 
G00 X1.8823 Y1.4675 
G01 Z-0.0070 F10.00 
G01 X1.9117 Y1.4675 F20.00 
G01 X1.9325 Y1.4467 
G01 X1.9325 Y1.4173 
G01 X1.9117 Y1.3965 
G01 X1.8823 Y1.3965 
G01 X1.8615 Y1.4173 
G01 X1.8615 Y1.4467 
G01 X1.8823 Y1.4675 
G00 Z0.1000 
G00 X1.6127 Y1.3712 
G01 Z-0.0070 F10.00 
G01 X1.6170 Y1.3647 F20.00 
G01 X1.6200 Y1.3575 
G01 X1.6215 Y1.3499 
G01 X1.6215 Y1.3421 
G01 X1.6200 Y1.3345 
G01 X1.6170 Y1.3273 
G01 X1.6127 Y1.3208 
G01 X1.6072 Y1.3153 
G01 X1.6007 Y1.3110 
G01 X1.5935 Y1.3080 
G01 X1.5859 Y1.3065 
G01 X1.5181 Y1.3065 
G01 X1.5105 Y1.3080 
G01 X1.5033 Y1.3110 
G01 X1.4968 Y1.3153 
G01 X1.4913 Y1.3208 
G01 X1.4870 Y1.3273 
G01 X1.4840 Y1.3345 
G01 X1.4825 Y1.3421 
G01 X1.4825 Y1.3499 
G01 X1.4840 Y1.3575 
G01 X1.4870 Y1.3647 
G01 X1.4913 Y1.3712 
G01 X1.4968 Y1.3767 
G01 X1.5033 Y1.3810 
G01 X1.5105 Y1.3840 
G01 X1.5181 Y1.3855 
G01 X1.5859 Y1.3855 
G01 X1.5935 Y1.3840 
G01 X1.6007 Y1.3810 
G01 X1.6072 Y1.3767 
G01 X1.6127 Y1.3712 
G00 Z0.1000 
G00 X1.6127 Y1.2712 
G01 Z-0.0070 F10.00 
G01 X1.6170 Y1.2647 F20.00 
G01 X1.6200 Y1.2575 
G01 X1.6215 Y1.2499 
G01 X1.6215 Y1.2421 
G01 X1.6200 Y1.2345 
G01 X1.6170 Y1.2273 
G01 X1.6127 Y1.2208 
G01 X1.6072 Y1.2153 
G01 X1.6007 Y1.2110 
G01 X1.5935 Y1.2080 
G01 X1.5859 Y1.2065 
G01 X1.5181 Y1.2065 
G01 X1.5105 Y1.2080 
G01 X1.5033 Y1.2110 
G01 X1.4968 Y1.2153 
G01 X1.4913 Y1.2208 
G01 X1.4870 Y1.2273 
G01 X1.4840 Y1.2345 
G01 X1.4825 Y1.2421 
G01 X1.4825 Y1.2499 
G01 X1.4840 Y1.2575 
G01 X1.4870 Y1.2647 
G01 X1.4913 Y1.2712 
G01 X1.4968 Y1.2767 
G01 X1.5033 Y1.2810 
G01 X1.5105 Y1.2840 
G01 X1.5181 Y1.2855 
G01 X1.5859 Y1.2855 
G01 X1.5935 Y1.2840 
G01 X1.6007 Y1.2810 
G01 X1.6072 Y1.2767 
G01 X1.6127 Y1.2712 
G00 Z0.1000 
G00 X1.6127 Y1.1712 
G01 Z-0.0070 F10.00 
G01 X1.6170 Y1.1647 F20.00 
G01 X1.6200 Y1.1575 
G01 X1.6215 Y1.1499 
G01 X1.6215 Y1.1421 
G01 X1.6200 Y1.1345 
G01 X1.6170 Y1.1273 
G01 X1.6127 Y1.1208 
G01 X1.6072 Y1.1153 
G01 X1.6007 Y1.1110 
G01 X1.5935 Y1.1080 
G01 X1.5859 Y1.1065 
G01 X1.5181 Y1.1065 
G01 X1.5105 Y1.1080 
G01 X1.5033 Y1.1110 
G01 X1.4968 Y1.1153 
G01 X1.4913 Y1.1208 
G01 X1.4870 Y1.1273 
G01 X1.4840 Y1.1345 
G01 X1.4825 Y1.1421 
G01 X1.4825 Y1.1499 
G01 X1.4840 Y1.1575 
G01 X1.4870 Y1.1647 
G01 X1.4913 Y1.1712 
G01 X1.4968 Y1.1767 
G01 X1.5033 Y1.1810 
G01 X1.5105 Y1.1840 
G01 X1.5181 Y1.1855 
G01 X1.5859 Y1.1855 
G01 X1.5935 Y1.1840 
G01 X1.6007 Y1.1810 
G01 X1.6072 Y1.1767 
G01 X1.6127 Y1.1712 
G00 Z0.1000 
G00 X1.8823 Y1.0675 
G01 Z-0.0070 F10.00 
G01 X1.9117 Y1.0675 F20.00 
G01 X1.9325 Y1.0467 
G01 X1.9325 Y1.0173 
G01 X1.9117 Y0.9965 
G01 X1.8823 Y0.9965 
G01 X1.8615 Y1.0173 
G01 X1.8615 Y1.0467 
G01 X1.8823 Y1.0675 
G00 Z0.1000 
G00 X1.4145 Y0.6136 
G01 Z-0.0070 F10.00 
G01 X1.4145 Y0.5644 F20.00 
G01 X1.3796 Y0.5295 
G01 X1.3304 Y0.5295 
G01 X1.2955 Y0.5644 
G01 X1.2955 Y0.6136 
G01 X1.3304 Y0.6485 
G01 X1.3796 Y0.6485 
G01 X1.4145 Y0.6136 
G00 Z0.1000 
G00 X1.4004 Y0.4278 
G01 Z-0.0070 F10.00 
G01 X1.4059 Y0.4202 F20.00 
G01 X1.4101 Y0.4118 
G01 X1.4130 Y0.4029 
G01 X1.4145 Y0.3937 
G01 X1.4145 Y0.3843 
G01 X1.4130 Y0.3751 
G01 X1.4101 Y0.3662 
G01 X1.4059 Y0.3578 
G01 X1.4004 Y0.3502 
G01 X1.3938 Y0.3436 
G01 X1.3862 Y0.3381 
G01 X1.3778 Y0.3339 
G01 X1.3689 Y0.3310 
G01 X1.3597 Y0.3295 
G01 X1.3503 Y0.3295 
G01 X1.3411 Y0.3310 
G01 X1.3322 Y0.3339 
G01 X1.3238 Y0.3381 
G01 X1.3162 Y0.3436 
G01 X1.3096 Y0.3502 
G01 X1.3041 Y0.3578 
G01 X1.2999 Y0.3662 
G01 X1.2970 Y0.3751 
G01 X1.2955 Y0.3843 
G01 X1.2955 Y0.3937 
G01 X1.2970 Y0.4029 
G01 X1.2999 Y0.4118 
G01 X1.3041 Y0.4202 
G01 X1.3096 Y0.4278 
G01 X1.3162 Y0.4344 
G01 X1.3238 Y0.4399 
G01 X1.3322 Y0.4441 
G01 X1.3411 Y0.4470 
G01 X1.3503 Y0.4485 
G01 X1.3597 Y0.4485 
G01 X1.3689 Y0.4470 
G01 X1.3778 Y0.4441 
G01 X1.3862 Y0.4399 
G01 X1.3938 Y0.4344 
G01 X1.4004 Y0.4278 
G00 Z0.1000 
G00 X0.8255 Y0.4065 
G01 Z-0.0070 F10.00 
G01 X0.8255 Y0.3755 F20.00 
G01 X0.8035 Y0.3535 
G01 X0.7725 Y0.3535 
G01 X0.7505 Y0.3755 
G01 X0.7505 Y0.4065 
G01 X0.7725 Y0.4285 
G01 X0.8035 Y0.4285 
G01 X0.8255 Y0.4065 
G00 Z0.1000 
G00 X0.8255 Y0.6755 
G01 Z-0.0070 F10.00 
G01 X0.8035 Y0.6535 F20.00 
G01 X0.7725 Y0.6535 
G01 X0.7505 Y0.6755 
G01 X0.7505 Y0.7065 
G01 X0.7725 Y0.7285 
G01 X0.8035 Y0.7285 
G01 X0.8255 Y0.7065 
G01 X0.8255 Y0.6755 
G00 Z0.1000 
G00 X0.5395 Y1.9035 
G01 Z-0.0070 F10.00 
G01 X0.5175 Y1.8815 F20.00 
G01 X0.4865 Y1.8815 
G01 X0.4645 Y1.9035 
G01 X0.4645 Y1.9345 
G01 X0.4865 Y1.9565 
G01 X0.5175 Y1.9565 
G01 X0.5395 Y1.9345 
G01 X0.5395 Y1.9035 
G00 Z0.1000 
G00 X1.3463 Y1.7405 
G01 Z-0.0070 F10.00 
G01 X1.3757 Y1.7405 F20.00 
G01 X1.3965 Y1.7197 
G01 X1.3965 Y1.6903 
G01 X1.3757 Y1.6695 
G01 X1.3463 Y1.6695 
G01 X1.3255 Y1.6903 
G01 X1.3255 Y1.7197 
G01 X1.3463 Y1.7405 
G00 Z0.1000 
G00 X3.1112 Y1.7414 
G01 Z-0.0070 F10.00 
G01 X3.1135 Y1.7501 F20.00 
G01 X3.1170 Y1.7585 
G01 X3.1215 Y1.7663 
G01 X3.1270 Y1.7734 
G01 X3.1333 Y1.7798 
G01 X3.1405 Y1.7853 
G01 X3.1483 Y1.7898 
G01 X3.1566 Y1.7932 
G01 X3.1653 Y1.7956 
G01 X3.1742 Y1.7967 
G01 X3.3018 Y1.7967 
G01 X3.3107 Y1.7956 
G01 X3.3194 Y1.7932 
G01 X3.3277 Y1.7898 
G01 X3.3355 Y1.7853 
G01 X3.3427 Y1.7798 
G01 X3.3490 Y1.7734 
G01 X3.3545 Y1.7663 
G01 X3.3590 Y1.7585 
G01 X3.3625 Y1.7501 
G01 X3.3648 Y1.7414 
G01 X3.3660 Y1.7325 
G01 X3.3660 Y1.7235 
G01 X3.3648 Y1.7146 
G01 X3.3625 Y1.7059 
G01 X3.3590 Y1.6975 
G01 X3.3545 Y1.6897 
G01 X3.3490 Y1.6826 
G01 X3.3427 Y1.6762 
G01 X3.3355 Y1.6707 
G01 X3.3277 Y1.6662 
G01 X3.3194 Y1.6628 
G01 X3.3107 Y1.6604 
G01 X3.3018 Y1.6592 
G01 X3.1742 Y1.6592 
G01 X3.1653 Y1.6604 
G01 X3.1566 Y1.6628 
G01 X3.1483 Y1.6662 
G01 X3.1405 Y1.6707 
G01 X3.1333 Y1.6762 
G01 X3.1270 Y1.6826 
G01 X3.1215 Y1.6897 
G01 X3.1170 Y1.6975 
G01 X3.1135 Y1.7059 
G01 X3.1112 Y1.7146 
G01 X3.1100 Y1.7235 
G01 X3.1100 Y1.7325 
G01 X3.1112 Y1.7414 
G00 Z0.1000 
G00 X3.1270 Y2.4326 
G01 Z-0.0070 F10.00 
G01 X3.1215 Y2.4397 F20.00 
G01 X3.1170 Y2.4475 
G01 X3.1135 Y2.4559 
G01 X3.1112 Y2.4646 
G01 X3.1100 Y2.4735 
G01 X3.1100 Y2.4825 
G01 X3.1112 Y2.4914 
G01 X3.1135 Y2.5001 
G01 X3.1170 Y2.5085 
G01 X3.1215 Y2.5163 
G01 X3.1270 Y2.5234 
G01 X3.1333 Y2.5298 
G01 X3.1405 Y2.5353 
G01 X3.1483 Y2.5398 
G01 X3.1566 Y2.5432 
G01 X3.1653 Y2.5456 
G01 X3.1742 Y2.5467 
G01 X3.3018 Y2.5467 
G01 X3.3107 Y2.5456 
G01 X3.3194 Y2.5432 
G01 X3.3277 Y2.5398 
G01 X3.3355 Y2.5353 
G01 X3.3427 Y2.5298 
G01 X3.3490 Y2.5234 
G01 X3.3545 Y2.5163 
G01 X3.3590 Y2.5085 
G01 X3.3625 Y2.5001 
G01 X3.3648 Y2.4914 
G01 X3.3660 Y2.4825 
G01 X3.3660 Y2.4735 
G01 X3.3648 Y2.4646 
G01 X3.3625 Y2.4559 
G01 X3.3590 Y2.4475 
G01 X3.3545 Y2.4397 
G01 X3.3490 Y2.4326 
G01 X3.3427 Y2.4262 
G01 X3.3355 Y2.4207 
G01 X3.3277 Y2.4162 
G01 X3.3194 Y2.4128 
G01 X3.3107 Y2.4104 
G01 X3.3018 Y2.4093 
G01 X3.1742 Y2.4093 
G01 X3.1653 Y2.4104 
G01 X3.1566 Y2.4128 
G01 X3.1483 Y2.4162 
G01 X3.1405 Y2.4207 
G01 X3.1333 Y2.4262 
G01 X3.1270 Y2.4326 
G00 Z0.1000 
G00 X3.5790 Y2.7064 
G01 Z-0.0070 F10.00 
G01 X3.5745 Y2.7126 F20.00 
G01 X3.5711 Y2.7194 
G01 X3.5687 Y2.7266 
G01 X3.5675 Y2.7342 
G01 X3.5675 Y2.8198 
G01 X3.5687 Y2.8274 
G01 X3.5711 Y2.8346 
G01 X3.5745 Y2.8414 
G01 X3.5790 Y2.8476 
G01 X3.5844 Y2.8530 
G01 X3.5906 Y2.8575 
G01 X3.5974 Y2.8609 
G01 X3.6046 Y2.8633 
G01 X3.6122 Y2.8645 
G01 X3.6198 Y2.8645 
G01 X3.6274 Y2.8633 
G01 X3.6346 Y2.8609 
G01 X3.6414 Y2.8575 
G01 X3.6476 Y2.8530 
G01 X3.6530 Y2.8476 
G01 X3.6575 Y2.8414 
G01 X3.6609 Y2.8346 
G01 X3.6633 Y2.8274 
G01 X3.6645 Y2.8198 
G01 X3.6645 Y2.7342 
G01 X3.6633 Y2.7266 
G01 X3.6609 Y2.7194 
G01 X3.6575 Y2.7126 
G01 X3.6530 Y2.7064 
G01 X3.6476 Y2.7010 
G01 X3.6414 Y2.6965 
G01 X3.6346 Y2.6931 
G01 X3.6274 Y2.6907 
G01 X3.6198 Y2.6895 
G01 X3.6122 Y2.6895 
G01 X3.6046 Y2.6907 
G01 X3.5974 Y2.6931 
G01 X3.5906 Y2.6965 
G01 X3.5844 Y2.7010 
G01 X3.5790 Y2.7064 
G00 Z0.1000 
G00 X3.8611 Y2.7084 
G01 Z-0.0070 F10.00 
G01 X3.8587 Y2.7156 F20.00 
G01 X3.8575 Y2.7232 
G01 X3.8575 Y2.8088 
G01 X3.8587 Y2.8164 
G01 X3.8611 Y2.8236 
G01 X3.8645 Y2.8304 
G01 X3.8690 Y2.8366 
G01 X3.8744 Y2.8420 
G01 X3.8806 Y2.8465 
G01 X3.8874 Y2.8499 
G01 X3.8946 Y2.8523 
G01 X3.9022 Y2.8535 
G01 X3.9098 Y2.8535 
G01 X3.9174 Y2.8523 
G01 X3.9246 Y2.8499 
G01 X3.9314 Y2.8465 
G01 X3.9376 Y2.8420 
G01 X3.9430 Y2.8366 
G01 X3.9475 Y2.8304 
G01 X3.9509 Y2.8236 
G01 X3.9533 Y2.8164 
G01 X3.9545 Y2.8088 
G01 X3.9545 Y2.7232 
G01 X3.9533 Y2.7156 
G01 X3.9509 Y2.7084 
G01 X3.9475 Y2.7016 
G01 X3.9430 Y2.6954 
G01 X3.9376 Y2.6900 
G01 X3.9314 Y2.6855 
G01 X3.9246 Y2.6821 
G01 X3.9174 Y2.6797 
G01 X3.9098 Y2.6785 
G01 X3.9022 Y2.6785 
G01 X3.8946 Y2.6797 
G01 X3.8874 Y2.6821 
G01 X3.8806 Y2.6855 
G01 X3.8744 Y2.6900 
G01 X3.8690 Y2.6954 
G01 X3.8645 Y2.7016 
G01 X3.8611 Y2.7084 
G00 Z0.1000 
G00 X4.5782 Y2.4248 
G01 Z-0.0070 F10.00 
G01 X4.5858 Y2.4303 F20.00 
G01 X4.5942 Y2.4346 
G01 X4.6031 Y2.4375 
G01 X4.6123 Y2.4389 
G01 X4.6217 Y2.4389 
G01 X4.6309 Y2.4375 
G01 X4.6398 Y2.4346 
G01 X4.6482 Y2.4303 
G01 X4.6558 Y2.4248 
G01 X4.6624 Y2.4182 
G01 X4.6679 Y2.4106 
G01 X4.6721 Y2.4023 
G01 X4.6750 Y2.3934 
G01 X4.6765 Y2.3841 
G01 X4.6765 Y2.2747 
G01 X4.6750 Y2.2655 
G01 X4.6721 Y2.2566 
G01 X4.6679 Y2.2482 
G01 X4.6624 Y2.2407 
G01 X4.6558 Y2.2340 
G01 X4.6516 Y2.2310 
G01 X4.6558 Y2.2280 
G01 X4.6624 Y2.2213 
G01 X4.6679 Y2.2138 
G01 X4.6721 Y2.2054 
G01 X4.6750 Y2.1965 
G01 X4.6765 Y2.1873 
G01 X4.6765 Y2.0779 
G01 X4.6750 Y2.0686 
G01 X4.6721 Y2.0597 
G01 X4.6679 Y2.0514 
G01 X4.6624 Y2.0438 
G01 X4.6558 Y2.0372 
G01 X4.6482 Y2.0317 
G01 X4.6398 Y2.0274 
G01 X4.6309 Y2.0245 
G01 X4.6217 Y2.0231 
G01 X4.6123 Y2.0231 
G01 X4.6031 Y2.0245 
G01 X4.5942 Y2.0274 
G01 X4.5858 Y2.0317 
G01 X4.5782 Y2.0372 
G01 X4.5716 Y2.0438 
G01 X4.5661 Y2.0514 
G01 X4.5619 Y2.0597 
G01 X4.5590 Y2.0686 
G01 X4.5575 Y2.0779 
G01 X4.5575 Y2.1873 
G01 X4.5590 Y2.1965 
G01 X4.5619 Y2.2054 
G01 X4.5661 Y2.2138 
G01 X4.5716 Y2.2213 
G01 X4.5782 Y2.2280 
G01 X4.5824 Y2.2310 
G01 X4.5782 Y2.2340 
G01 X4.5716 Y2.2407 
G01 X4.5661 Y2.2482 
G01 X4.5619 Y2.2566 
G01 X4.5590 Y2.2655 
G01 X4.5575 Y2.2747 
G01 X4.5575 Y2.3841 
G01 X4.5590 Y2.3934 
G01 X4.5619 Y2.4023 
G01 X4.5661 Y2.4106 
G01 X4.5716 Y2.4182 
G01 X4.5782 Y2.4248 
G00 Z0.1000 
G00 X4.5838 Y0.9313 
G01 Z-0.0070 F10.00 
G01 X4.5922 Y0.9356 F20.00 
G01 X4.6011 Y0.9385 
G01 X4.6103 Y0.9399 
G01 X4.6197 Y0.9399 
G01 X4.6289 Y0.9385 
G01 X4.6378 Y0.9356 
G01 X4.6462 Y0.9313 
G01 X4.6538 Y0.9258 
G01 X4.6604 Y0.9192 
G01 X4.6659 Y0.9116 
G01 X4.6701 Y0.9033 
G01 X4.6730 Y0.8944 
G01 X4.6745 Y0.8851 
G01 X4.6745 Y0.7757 
G01 X4.6730 Y0.7665 
G01 X4.6701 Y0.7576 
G01 X4.6659 Y0.7492 
G01 X4.6604 Y0.7417 
G01 X4.6538 Y0.7350 
G01 X4.6496 Y0.7320 
G01 X4.6538 Y0.7290 
G01 X4.6604 Y0.7223 
G01 X4.6659 Y0.7148 
G01 X4.6701 Y0.7064 
G01 X4.6730 Y0.6975 
G01 X4.6745 Y0.6883 
G01 X4.6745 Y0.5789 
G01 X4.6730 Y0.5696 
G01 X4.6701 Y0.5607 
G01 X4.6659 Y0.5524 
G01 X4.6604 Y0.5448 
G01 X4.6538 Y0.5382 
G01 X4.6462 Y0.5327 
G01 X4.6378 Y0.5284 
G01 X4.6289 Y0.5255 
G01 X4.6197 Y0.5241 
G01 X4.6103 Y0.5241 
G01 X4.6011 Y0.5255 
G01 X4.5922 Y0.5284 
G01 X4.5838 Y0.5327 
G01 X4.5762 Y0.5382 
G01 X4.5696 Y0.5448 
G01 X4.5641 Y0.5524 
G01 X4.5599 Y0.5607 
G01 X4.5570 Y0.5696 
G01 X4.5555 Y0.5789 
G01 X4.5555 Y0.6883 
G01 X4.5570 Y0.6975 
G01 X4.5599 Y0.7064 
G01 X4.5641 Y0.7148 
G01 X4.5696 Y0.7223 
G01 X4.5762 Y0.7290 
G01 X4.5804 Y0.7320 
G01 X4.5762 Y0.7350 
G01 X4.5696 Y0.7417 
G01 X4.5641 Y0.7492 
G01 X4.5599 Y0.7576 
G01 X4.5570 Y0.7665 
G01 X4.5555 Y0.7757 
G01 X4.5555 Y0.8851 
G01 X4.5570 Y0.8944 
G01 X4.5599 Y0.9033 
G01 X4.5641 Y0.9116 
G01 X4.5696 Y0.9192 
G01 X4.5762 Y0.9258 
G01 X4.5838 Y0.9313 
G00 Z0.1000 
G00 X3.3490 Y0.5234 
G01 Z-0.0070 F10.00 
G01 X3.3545 Y0.5163 F20.00 
G01 X3.3590 Y0.5085 
G01 X3.3625 Y0.5001 
G01 X3.3648 Y0.4914 
G01 X3.3660 Y0.4825 
G01 X3.3660 Y0.4735 
G01 X3.3648 Y0.4646 
G01 X3.3625 Y0.4559 
G01 X3.3590 Y0.4475 
G01 X3.3545 Y0.4397 
G01 X3.3490 Y0.4326 
G01 X3.3427 Y0.4262 
G01 X3.3355 Y0.4207 
G01 X3.3277 Y0.4162 
G01 X3.3194 Y0.4128 
G01 X3.3107 Y0.4104 
G01 X3.3018 Y0.4093 
G01 X3.1742 Y0.4093 
G01 X3.1653 Y0.4104 
G01 X3.1566 Y0.4128 
G01 X3.1483 Y0.4162 
G01 X3.1405 Y0.4207 
G01 X3.1333 Y0.4262 
G01 X3.1270 Y0.4326 
G01 X3.1215 Y0.4397 
G01 X3.1170 Y0.4475 
G01 X3.1135 Y0.4559 
G01 X3.1112 Y0.4646 
G01 X3.1100 Y0.4735 
G01 X3.1100 Y0.4825 
G01 X3.1112 Y0.4914 
G01 X3.1135 Y0.5001 
G01 X3.1170 Y0.5085 
G01 X3.1215 Y0.5163 
G01 X3.1270 Y0.5234 
G01 X3.1333 Y0.5298 
G01 X3.1405 Y0.5353 
G01 X3.1483 Y0.5398 
G01 X3.1566 Y0.5432 
G01 X3.1653 Y0.5456 
G01 X3.1742 Y0.5467 
G01 X3.3018 Y0.5467 
G01 X3.3107 Y0.5456 
G01 X3.3194 Y0.5432 
G01 X3.3277 Y0.5398 
G01 X3.3355 Y0.5353 
G01 X3.3427 Y0.5298 
G01 X3.3490 Y0.5234 
G00 Z0.1000 
G00 X0.0600 Y0.5524 
G01 Z-0.0070 F10.00 
G01 X0.0548 Y0.5591 F20.00 
G01 X0.0506 Y0.5664 
G01 X0.0474 Y0.5742 
G01 X0.0452 Y0.5824 
G01 X0.0441 Y0.5908 
G01 X0.0441 Y0.5992 
G01 X0.0452 Y0.6076 
G01 X0.0474 Y0.6158 
G01 X0.0506 Y0.6236 
G01 X0.0548 Y0.6309 
G01 X0.0600 Y0.6376 
G01 X0.0660 Y0.6436 
G01 X0.0727 Y0.6487 
G01 X0.0800 Y0.6530 
G01 X0.0878 Y0.6562 
G01 X0.0960 Y0.6584 
G01 X0.1043 Y0.6595 
G01 X0.2128 Y0.6595 
G01 X0.2212 Y0.6584 
G01 X0.2294 Y0.6562 
G01 X0.2372 Y0.6530 
G01 X0.2445 Y0.6487 
G01 X0.2512 Y0.6436 
G01 X0.2570 Y0.6378 
G01 X0.2628 Y0.6436 
G01 X0.2695 Y0.6487 
G01 X0.2768 Y0.6530 
G01 X0.2846 Y0.6562 
G01 X0.2928 Y0.6584 
G01 X0.3012 Y0.6595 
G01 X0.4097 Y0.6595 
G01 X0.4180 Y0.6584 
G01 X0.4262 Y0.6562 
G01 X0.4340 Y0.6530 
G01 X0.4413 Y0.6487 
G01 X0.4480 Y0.6436 
G01 X0.4540 Y0.6376 
G01 X0.4592 Y0.6309 
G01 X0.4634 Y0.6236 
G01 X0.4666 Y0.6158 
G01 X0.4688 Y0.6076 
G01 X0.4699 Y0.5992 
G01 X0.4699 Y0.5908 
G01 X0.4688 Y0.5824 
G01 X0.4666 Y0.5742 
G01 X0.4634 Y0.5664 
G01 X0.4592 Y0.5591 
G01 X0.4540 Y0.5524 
G01 X0.4480 Y0.5464 
G01 X0.4413 Y0.5413 
G01 X0.4340 Y0.5370 
G01 X0.4262 Y0.5338 
G01 X0.4180 Y0.5316 
G01 X0.4097 Y0.5305 
G01 X0.3012 Y0.5305 
G01 X0.2928 Y0.5316 
G01 X0.2846 Y0.5338 
G01 X0.2768 Y0.5370 
G01 X0.2695 Y0.5413 
G01 X0.2628 Y0.5464 
G01 X0.2570 Y0.5522 
G01 X0.2512 Y0.5464 
G01 X0.2445 Y0.5413 
G01 X0.2372 Y0.5370 
G01 X0.2294 Y0.5338 
G01 X0.2212 Y0.5316 
G01 X0.2128 Y0.5305 
G01 X0.1043 Y0.5305 
G01 X0.0960 Y0.5316 
G01 X0.0878 Y0.5338 
G01 X0.0800 Y0.5370 
G01 X0.0727 Y0.5413 
G01 X0.0660 Y0.5464 
G01 X0.0600 Y0.5524 
G00 Z0.1000 
G00 X0.0820 Y1.1954 
G01 Z-0.0070 F10.00 
G01 X0.0768 Y1.2021 F20.00 
G01 X0.0726 Y1.2094 
G01 X0.0694 Y1.2172 
G01 X0.0672 Y1.2254 
G01 X0.0661 Y1.2338 
G01 X0.0661 Y1.2422 
G01 X0.0672 Y1.2506 
G01 X0.0694 Y1.2588 
G01 X0.0726 Y1.2666 
G01 X0.0768 Y1.2739 
G01 X0.0820 Y1.2806 
G01 X0.0880 Y1.2866 
G01 X0.0947 Y1.2917 
G01 X0.1020 Y1.2960 
G01 X0.1098 Y1.2992 
G01 X0.1180 Y1.3014 
G01 X0.1263 Y1.3025 
G01 X0.2348 Y1.3025 
G01 X0.2432 Y1.3014 
G01 X0.2514 Y1.2992 
G01 X0.2592 Y1.2960 
G01 X0.2665 Y1.2917 
G01 X0.2732 Y1.2866 
G01 X0.2790 Y1.2808 
G01 X0.2848 Y1.2866 
G01 X0.2915 Y1.2917 
G01 X0.2988 Y1.2960 
G01 X0.3066 Y1.2992 
G01 X0.3148 Y1.3014 
G01 X0.3232 Y1.3025 
G01 X0.4317 Y1.3025 
G01 X0.4400 Y1.3014 
G01 X0.4482 Y1.2992 
G01 X0.4560 Y1.2960 
G01 X0.4633 Y1.2917 
G01 X0.4700 Y1.2866 
G01 X0.4760 Y1.2806 
G01 X0.4812 Y1.2739 
G01 X0.4854 Y1.2666 
G01 X0.4886 Y1.2588 
G01 X0.4908 Y1.2506 
G01 X0.4919 Y1.2422 
G01 X0.4919 Y1.2338 
G01 X0.4908 Y1.2254 
G01 X0.4886 Y1.2172 
G01 X0.4854 Y1.2094 
G01 X0.4812 Y1.2021 
G01 X0.4760 Y1.1954 
G01 X0.4700 Y1.1894 
G01 X0.4633 Y1.1843 
G01 X0.4560 Y1.1800 
G01 X0.4482 Y1.1768 
G01 X0.4400 Y1.1746 
G01 X0.4317 Y1.1735 
G01 X0.3232 Y1.1735 
G01 X0.3148 Y1.1746 
G01 X0.3066 Y1.1768 
G01 X0.2988 Y1.1800 
G01 X0.2915 Y1.1843 
G01 X0.2848 Y1.1894 
G01 X0.2790 Y1.1952 
G01 X0.2732 Y1.1894 
G01 X0.2665 Y1.1843 
G01 X0.2592 Y1.1800 
G01 X0.2514 Y1.1768 
G01 X0.2432 Y1.1746 
G01 X0.2348 Y1.1735 
G01 X0.1263 Y1.1735 
G01 X0.1180 Y1.1746 
G01 X0.1098 Y1.1768 
G01 X0.1020 Y1.1800 
G01 X0.0947 Y1.1843 
G01 X0.0880 Y1.1894 
G01 X0.0820 Y1.1954 
G00 Z0.1000 
G00 X0.1385 Y1.9632 
G01 Z-0.0070 F10.00 
G01 X0.1341 Y1.9698 F20.00 
G01 X0.1311 Y1.9772 
G01 X0.1295 Y1.9850 
G01 X0.1295 Y1.9930 
G01 X0.1311 Y2.0008 
G01 X0.1341 Y2.0082 
G01 X0.1385 Y2.0148 
G01 X0.1442 Y2.0205 
G01 X0.1508 Y2.0249 
G01 X0.1582 Y2.0279 
G01 X0.1660 Y2.0295 
G01 X0.2260 Y2.0295 
G01 X0.2338 Y2.0279 
G01 X0.2412 Y2.0249 
G01 X0.2478 Y2.0205 
G01 X0.2535 Y2.0148 
G01 X0.2579 Y2.0082 
G01 X0.2609 Y2.0008 
G01 X0.2625 Y1.9930 
G01 X0.2625 Y1.9850 
G01 X0.2609 Y1.9772 
G01 X0.2579 Y1.9698 
G01 X0.2535 Y1.9632 
G01 X0.2478 Y1.9575 
G01 X0.2412 Y1.9531 
G01 X0.2338 Y1.9501 
G01 X0.2260 Y1.9485 
G01 X0.1660 Y1.9485 
G01 X0.1582 Y1.9501 
G01 X0.1508 Y1.9531 
G01 X0.1442 Y1.9575 
G01 X0.1385 Y1.9632 
G00 Z0.1000 
G00 X0.1385 Y2.0632 
G01 Z-0.0070 F10.00 
G01 X0.1341 Y2.0698 F20.00 
G01 X0.1311 Y2.0772 
G01 X0.1295 Y2.0850 
G01 X0.1295 Y2.0930 
G01 X0.1311 Y2.1008 
G01 X0.1341 Y2.1082 
G01 X0.1385 Y2.1148 
G01 X0.1442 Y2.1205 
G01 X0.1508 Y2.1249 
G01 X0.1582 Y2.1279 
G01 X0.1660 Y2.1295 
G01 X0.2260 Y2.1295 
G01 X0.2338 Y2.1279 
G01 X0.2412 Y2.1249 
G01 X0.2478 Y2.1205 
G01 X0.2535 Y2.1148 
G01 X0.2579 Y2.1082 
G01 X0.2609 Y2.1008 
G01 X0.2625 Y2.0930 
G01 X0.2625 Y2.0850 
G01 X0.2609 Y2.0772 
G01 X0.2579 Y2.0698 
G01 X0.2535 Y2.0632 
G01 X0.2478 Y2.0575 
G01 X0.2412 Y2.0531 
G01 X0.2338 Y2.0501 
G01 X0.2260 Y2.0485 
G01 X0.1660 Y2.0485 
G01 X0.1582 Y2.0501 
G01 X0.1508 Y2.0531 
G01 X0.1442 Y2.0575 
G01 X0.1385 Y2.0632 
G00 Z0.1000 
G00 X0.1385 Y2.1632 
G01 Z-0.0070 F10.00 
G01 X0.1341 Y2.1698 F20.00 
G01 X0.1311 Y2.1772 
G01 X0.1295 Y2.1850 
G01 X0.1295 Y2.1930 
G01 X0.1311 Y2.2008 
G01 X0.1341 Y2.2082 
G01 X0.1385 Y2.2148 
G01 X0.1442 Y2.2205 
G01 X0.1508 Y2.2249 
G01 X0.1582 Y2.2279 
G01 X0.1660 Y2.2295 
G01 X0.2260 Y2.2295 
G01 X0.2338 Y2.2279 
G01 X0.2412 Y2.2249 
G01 X0.2478 Y2.2205 
G01 X0.2535 Y2.2148 
G01 X0.2579 Y2.2082 
G01 X0.2609 Y2.2008 
G01 X0.2625 Y2.1930 
G01 X0.2625 Y2.1850 
G01 X0.2609 Y2.1772 
G01 X0.2579 Y2.1698 
G01 X0.2535 Y2.1632 
G01 X0.2478 Y2.1575 
G01 X0.2412 Y2.1531 
G01 X0.2338 Y2.1501 
G01 X0.2260 Y2.1485 
G01 X0.1660 Y2.1485 
G01 X0.1582 Y2.1501 
G01 X0.1508 Y2.1531 
G01 X0.1442 Y2.1575 
G01 X0.1385 Y2.1632 
G00 Z0.1000 
G00 X0.4595 Y2.2014 
G01 Z-0.0070 F10.00 
G01 X0.4595 Y2.2366 F20.00 
G01 X0.4844 Y2.2615 
G01 X0.5196 Y2.2615 
G01 X0.5445 Y2.2366 
G01 X0.5445 Y2.2014 
G01 X0.5196 Y2.1765 
G01 X0.4844 Y2.1765 
G01 X0.4595 Y2.2014 
G00 Z0.1000 
G00 X0.4844 Y1.9615 
G01 Z-0.0070 F10.00 
G01 X0.5196 Y1.9615 F20.00 
G01 X0.5445 Y1.9366 
G01 X0.5445 Y1.9014 
G01 X0.5196 Y1.8765 
G01 X0.4844 Y1.8765 
G01 X0.4595 Y1.9014 
G01 X0.4595 Y1.9366 
G01 X0.4844 Y1.9615 
G00 Z0.1000 
G00 X0.7345 Y1.9672 
G01 Z-0.0070 F10.00 
G01 X0.7301 Y1.9738 F20.00 
G01 X0.7271 Y1.9812 
G01 X0.7255 Y1.9890 
G01 X0.7255 Y1.9970 
G01 X0.7271 Y2.0048 
G01 X0.7301 Y2.0122 
G01 X0.7345 Y2.0188 
G01 X0.7402 Y2.0245 
G01 X0.7468 Y2.0289 
G01 X0.7542 Y2.0319 
G01 X0.7620 Y2.0335 
G01 X0.8220 Y2.0335 
G01 X0.8298 Y2.0319 
G01 X0.8372 Y2.0289 
G01 X0.8438 Y2.0245 
G01 X0.8495 Y2.0188 
G01 X0.8539 Y2.0122 
G01 X0.8569 Y2.0048 
G01 X0.8585 Y1.9970 
G01 X0.8585 Y1.9890 
G01 X0.8569 Y1.9812 
G01 X0.8539 Y1.9738 
G01 X0.8495 Y1.9672 
G01 X0.8438 Y1.9615 
G01 X0.8372 Y1.9571 
G01 X0.8298 Y1.9541 
G01 X0.8220 Y1.9525 
G01 X0.7620 Y1.9525 
G01 X0.7542 Y1.9541 
G01 X0.7468 Y1.9571 
G01 X0.7402 Y1.9615 
G01 X0.7345 Y1.9672 
G00 Z0.1000 
G00 X0.7402 Y1.9245 
G01 Z-0.0070 F10.00 
G01 X0.7468 Y1.9289 F20.00 
G01 X0.7542 Y1.9319 
G01 X0.7620 Y1.9335 
G01 X0.8220 Y1.9335 
G01 X0.8298 Y1.9319 
G01 X0.8372 Y1.9289 
G01 X0.8438 Y1.9245 
G01 X0.8495 Y1.9188 
G01 X0.8539 Y1.9122 
G01 X0.8569 Y1.9048 
G01 X0.8585 Y1.8970 
G01 X0.8585 Y1.8890 
G01 X0.8569 Y1.8812 
G01 X0.8539 Y1.8738 
G01 X0.8495 Y1.8672 
G01 X0.8438 Y1.8615 
G01 X0.8372 Y1.8571 
G01 X0.8298 Y1.8541 
G01 X0.8220 Y1.8525 
G01 X0.7620 Y1.8525 
G01 X0.7542 Y1.8541 
G01 X0.7468 Y1.8571 
G01 X0.7402 Y1.8615 
G01 X0.7345 Y1.8672 
G01 X0.7301 Y1.8738 
G01 X0.7271 Y1.8812 
G01 X0.7255 Y1.8890 
G01 X0.7255 Y1.8970 
G01 X0.7271 Y1.9048 
G01 X0.7301 Y1.9122 
G01 X0.7345 Y1.9188 
G01 X0.7402 Y1.9245 
G00 Z0.1000 
G00 X0.7402 Y1.8245 
G01 Z-0.0070 F10.00 
G01 X0.7468 Y1.8289 F20.00 
G01 X0.7542 Y1.8319 
G01 X0.7620 Y1.8335 
G01 X0.8220 Y1.8335 
G01 X0.8298 Y1.8319 
G01 X0.8372 Y1.8289 
G01 X0.8438 Y1.8245 
G01 X0.8495 Y1.8188 
G01 X0.8539 Y1.8122 
G01 X0.8569 Y1.8048 
G01 X0.8585 Y1.7970 
G01 X0.8585 Y1.7890 
G01 X0.8569 Y1.7812 
G01 X0.8539 Y1.7738 
G01 X0.8495 Y1.7672 
G01 X0.8438 Y1.7615 
G01 X0.8372 Y1.7571 
G01 X0.8298 Y1.7541 
G01 X0.8220 Y1.7525 
G01 X0.7620 Y1.7525 
G01 X0.7542 Y1.7541 
G01 X0.7468 Y1.7571 
G01 X0.7402 Y1.7615 
G01 X0.7345 Y1.7672 
G01 X0.7301 Y1.7738 
G01 X0.7271 Y1.7812 
G01 X0.7255 Y1.7890 
G01 X0.7255 Y1.7970 
G01 X0.7271 Y1.8048 
G01 X0.7301 Y1.8122 
G01 X0.7345 Y1.8188 
G01 X0.7402 Y1.8245 
G00 Z0.1000 
G00 X0.7402 Y1.7245 
G01 Z-0.0070 F10.00 
G01 X0.7468 Y1.7289 F20.00 
G01 X0.7542 Y1.7319 
G01 X0.7620 Y1.7335 
G01 X0.8220 Y1.7335 
G01 X0.8298 Y1.7319 
G01 X0.8372 Y1.7289 
G01 X0.8438 Y1.7245 
G01 X0.8495 Y1.7188 
G01 X0.8539 Y1.7122 
G01 X0.8569 Y1.7048 
G01 X0.8585 Y1.6970 
G01 X0.8585 Y1.6890 
G01 X0.8569 Y1.6812 
G01 X0.8539 Y1.6738 
G01 X0.8495 Y1.6672 
G01 X0.8438 Y1.6615 
G01 X0.8372 Y1.6571 
G01 X0.8298 Y1.6541 
G01 X0.8220 Y1.6525 
G01 X0.7620 Y1.6525 
G01 X0.7542 Y1.6541 
G01 X0.7468 Y1.6571 
G01 X0.7402 Y1.6615 
G01 X0.7345 Y1.6672 
G01 X0.7301 Y1.6738 
G01 X0.7271 Y1.6812 
G01 X0.7255 Y1.6890 
G01 X0.7255 Y1.6970 
G01 X0.7271 Y1.7048 
G01 X0.7301 Y1.7122 
G01 X0.7345 Y1.7188 
G01 X0.7402 Y1.7245 
G00 Z0.1000 
G00 X0.7402 Y1.6245 
G01 Z-0.0070 F10.00 
G01 X0.7468 Y1.6289 F20.00 
G01 X0.7542 Y1.6319 
G01 X0.7620 Y1.6335 
G01 X0.8220 Y1.6335 
G01 X0.8298 Y1.6319 
G01 X0.8372 Y1.6289 
G01 X0.8438 Y1.6245 
G01 X0.8495 Y1.6188 
G01 X0.8539 Y1.6122 
G01 X0.8569 Y1.6048 
G01 X0.8585 Y1.5970 
G01 X0.8585 Y1.5890 
G01 X0.8569 Y1.5812 
G01 X0.8539 Y1.5738 
G01 X0.8495 Y1.5672 
G01 X0.8438 Y1.5615 
G01 X0.8372 Y1.5571 
G01 X0.8298 Y1.5541 
G01 X0.8220 Y1.5525 
G01 X0.7620 Y1.5525 
G01 X0.7542 Y1.5541 
G01 X0.7468 Y1.5571 
G01 X0.7402 Y1.5615 
G01 X0.7345 Y1.5672 
G01 X0.7301 Y1.5738 
G01 X0.7271 Y1.5812 
G01 X0.7255 Y1.5890 
G01 X0.7255 Y1.5970 
G01 X0.7271 Y1.6048 
G01 X0.7301 Y1.6122 
G01 X0.7345 Y1.6188 
G01 X0.7402 Y1.6245 
G00 Z0.1000 
G00 X1.0402 Y1.6245 
G01 Z-0.0070 F10.00 
G01 X1.0468 Y1.6289 F20.00 
G01 X1.0542 Y1.6319 
G01 X1.0620 Y1.6335 
G01 X1.1220 Y1.6335 
G01 X1.1298 Y1.6319 
G01 X1.1372 Y1.6289 
G01 X1.1438 Y1.6245 
G01 X1.1495 Y1.6188 
G01 X1.1539 Y1.6122 
G01 X1.1569 Y1.6048 
G01 X1.1585 Y1.5970 
G01 X1.1585 Y1.5890 
G01 X1.1569 Y1.5812 
G01 X1.1539 Y1.5738 
G01 X1.1495 Y1.5672 
G01 X1.1438 Y1.5615 
G01 X1.1372 Y1.5571 
G01 X1.1298 Y1.5541 
G01 X1.1220 Y1.5525 
G01 X1.0620 Y1.5525 
G01 X1.0542 Y1.5541 
G01 X1.0468 Y1.5571 
G01 X1.0402 Y1.5615 
G01 X1.0345 Y1.5672 
G01 X1.0301 Y1.5738 
G01 X1.0271 Y1.5812 
G01 X1.0255 Y1.5890 
G01 X1.0255 Y1.5970 
G01 X1.0271 Y1.6048 
G01 X1.0301 Y1.6122 
G01 X1.0345 Y1.6188 
G01 X1.0402 Y1.6245 
G00 Z0.1000 
G00 X1.0402 Y1.6615 
G01 Z-0.0070 F10.00 
G01 X1.0345 Y1.6672 F20.00 
G01 X1.0301 Y1.6738 
G01 X1.0271 Y1.6812 
G01 X1.0255 Y1.6890 
G01 X1.0255 Y1.6970 
G01 X1.0271 Y1.7048 
G01 X1.0301 Y1.7122 
G01 X1.0345 Y1.7188 
G01 X1.0402 Y1.7245 
G01 X1.0468 Y1.7289 
G01 X1.0542 Y1.7319 
G01 X1.0620 Y1.7335 
G01 X1.1220 Y1.7335 
G01 X1.1298 Y1.7319 
G01 X1.1372 Y1.7289 
G01 X1.1438 Y1.7245 
G01 X1.1495 Y1.7188 
G01 X1.1539 Y1.7122 
G01 X1.1569 Y1.7048 
G01 X1.1585 Y1.6970 
G01 X1.1585 Y1.6890 
G01 X1.1569 Y1.6812 
G01 X1.1539 Y1.6738 
G01 X1.1495 Y1.6672 
G01 X1.1438 Y1.6615 
G01 X1.1372 Y1.6571 
G01 X1.1298 Y1.6541 
G01 X1.1220 Y1.6525 
G01 X1.0620 Y1.6525 
G01 X1.0542 Y1.6541 
G01 X1.0468 Y1.6571 
G01 X1.0402 Y1.6615 
G00 Z0.1000 
G00 X1.0402 Y1.7615 
G01 Z-0.0070 F10.00 
G01 X1.0345 Y1.7672 F20.00 
G01 X1.0301 Y1.7738 
G01 X1.0271 Y1.7812 
G01 X1.0255 Y1.7890 
G01 X1.0255 Y1.7970 
G01 X1.0271 Y1.8048 
G01 X1.0301 Y1.8122 
G01 X1.0345 Y1.8188 
G01 X1.0402 Y1.8245 
G01 X1.0468 Y1.8289 
G01 X1.0542 Y1.8319 
G01 X1.0620 Y1.8335 
G01 X1.1220 Y1.8335 
G01 X1.1298 Y1.8319 
G01 X1.1372 Y1.8289 
G01 X1.1438 Y1.8245 
G01 X1.1495 Y1.8188 
G01 X1.1539 Y1.8122 
G01 X1.1569 Y1.8048 
G01 X1.1585 Y1.7970 
G01 X1.1585 Y1.7890 
G01 X1.1569 Y1.7812 
G01 X1.1539 Y1.7738 
G01 X1.1495 Y1.7672 
G01 X1.1438 Y1.7615 
G01 X1.1372 Y1.7571 
G01 X1.1298 Y1.7541 
G01 X1.1220 Y1.7525 
G01 X1.0620 Y1.7525 
G01 X1.0542 Y1.7541 
G01 X1.0468 Y1.7571 
G01 X1.0402 Y1.7615 
G00 Z0.1000 
G00 X1.0402 Y1.8615 
G01 Z-0.0070 F10.00 
G01 X1.0345 Y1.8672 F20.00 
G01 X1.0301 Y1.8738 
G01 X1.0271 Y1.8812 
G01 X1.0255 Y1.8890 
G01 X1.0255 Y1.8970 
G01 X1.0271 Y1.9048 
G01 X1.0301 Y1.9122 
G01 X1.0345 Y1.9188 
G01 X1.0402 Y1.9245 
G01 X1.0468 Y1.9289 
G01 X1.0542 Y1.9319 
G01 X1.0620 Y1.9335 
G01 X1.1220 Y1.9335 
G01 X1.1298 Y1.9319 
G01 X1.1372 Y1.9289 
G01 X1.1438 Y1.9245 
G01 X1.1495 Y1.9188 
G01 X1.1539 Y1.9122 
G01 X1.1569 Y1.9048 
G01 X1.1585 Y1.8970 
G01 X1.1585 Y1.8890 
G01 X1.1569 Y1.8812 
G01 X1.1539 Y1.8738 
G01 X1.1495 Y1.8672 
G01 X1.1438 Y1.8615 
G01 X1.1372 Y1.8571 
G01 X1.1298 Y1.8541 
G01 X1.1220 Y1.8525 
G01 X1.0620 Y1.8525 
G01 X1.0542 Y1.8541 
G01 X1.0468 Y1.8571 
G01 X1.0402 Y1.8615 
G00 Z0.1000 
G00 X1.0402 Y1.9615 
G01 Z-0.0070 F10.00 
G01 X1.0345 Y1.9672 F20.00 
G01 X1.0301 Y1.9738 
G01 X1.0271 Y1.9812 
G01 X1.0255 Y1.9890 
G01 X1.0255 Y1.9970 
G01 X1.0271 Y2.0048 
G01 X1.0301 Y2.0122 
G01 X1.0345 Y2.0188 
G01 X1.0402 Y2.0245 
G01 X1.0468 Y2.0289 
G01 X1.0542 Y2.0319 
G01 X1.0620 Y2.0335 
G01 X1.1220 Y2.0335 
G01 X1.1298 Y2.0319 
G01 X1.1372 Y2.0289 
G01 X1.1438 Y2.0245 
G01 X1.1495 Y2.0188 
G01 X1.1539 Y2.0122 
G01 X1.1569 Y2.0048 
G01 X1.1585 Y1.9970 
G01 X1.1585 Y1.9890 
G01 X1.1569 Y1.9812 
G01 X1.1539 Y1.9738 
G01 X1.1495 Y1.9672 
G01 X1.1438 Y1.9615 
G01 X1.1372 Y1.9571 
G01 X1.1298 Y1.9541 
G01 X1.1220 Y1.9525 
G01 X1.0620 Y1.9525 
G01 X1.0542 Y1.9541 
G01 X1.0468 Y1.9571 
G01 X1.0402 Y1.9615 
G00 Z0.1000 
G00 X1.0402 Y2.0615 
G01 Z-0.0070 F10.00 
G01 X1.0345 Y2.0672 F20.00 
G01 X1.0301 Y2.0738 
G01 X1.0271 Y2.0812 
G01 X1.0255 Y2.0890 
G01 X1.0255 Y2.0970 
G01 X1.0271 Y2.1048 
G01 X1.0301 Y2.1122 
G01 X1.0345 Y2.1188 
G01 X1.0402 Y2.1245 
G01 X1.0468 Y2.1289 
G01 X1.0542 Y2.1319 
G01 X1.0620 Y2.1335 
G01 X1.1220 Y2.1335 
G01 X1.1298 Y2.1319 
G01 X1.1372 Y2.1289 
G01 X1.1438 Y2.1245 
G01 X1.1495 Y2.1188 
G01 X1.1539 Y2.1122 
G01 X1.1569 Y2.1048 
G01 X1.1585 Y2.0970 
G01 X1.1585 Y2.0890 
G01 X1.1569 Y2.0812 
G01 X1.1539 Y2.0738 
G01 X1.1495 Y2.0672 
G01 X1.1438 Y2.0615 
G01 X1.1372 Y2.0571 
G01 X1.1298 Y2.0541 
G01 X1.1220 Y2.0525 
G01 X1.0620 Y2.0525 
G01 X1.0542 Y2.0541 
G01 X1.0468 Y2.0571 
G01 X1.0402 Y2.0615 
G00 Z0.1000 
G00 X1.0402 Y2.1615 
G01 Z-0.0070 F10.00 
G01 X1.0345 Y2.1672 F20.00 
G01 X1.0301 Y2.1738 
G01 X1.0271 Y2.1812 
G01 X1.0255 Y2.1890 
G01 X1.0255 Y2.1970 
G01 X1.0271 Y2.2048 
G01 X1.0301 Y2.2122 
G01 X1.0345 Y2.2188 
G01 X1.0402 Y2.2245 
G01 X1.0468 Y2.2289 
G01 X1.0542 Y2.2319 
G01 X1.0620 Y2.2335 
G01 X1.1220 Y2.2335 
G01 X1.1298 Y2.2319 
G01 X1.1372 Y2.2289 
G01 X1.1438 Y2.2245 
G01 X1.1495 Y2.2188 
G01 X1.1539 Y2.2122 
G01 X1.1569 Y2.2048 
G01 X1.1585 Y2.1970 
G01 X1.1585 Y2.1890 
G01 X1.1569 Y2.1812 
G01 X1.1539 Y2.1738 
G01 X1.1495 Y2.1672 
G01 X1.1438 Y2.1615 
G01 X1.1372 Y2.1571 
G01 X1.1298 Y2.1541 
G01 X1.1220 Y2.1525 
G01 X1.0620 Y2.1525 
G01 X1.0542 Y2.1541 
G01 X1.0468 Y2.1571 
G01 X1.0402 Y2.1615 
G00 Z0.1000 
G00 X0.8438 Y2.1615 
G01 Z-0.0070 F10.00 
G01 X0.8372 Y2.1571 F20.00 
G01 X0.8298 Y2.1541 
G01 X0.8220 Y2.1525 
G01 X0.7620 Y2.1525 
G01 X0.7542 Y2.1541 
G01 X0.7468 Y2.1571 
G01 X0.7402 Y2.1615 
G01 X0.7345 Y2.1672 
G01 X0.7301 Y2.1738 
G01 X0.7271 Y2.1812 
G01 X0.7255 Y2.1890 
G01 X0.7255 Y2.1970 
G01 X0.7271 Y2.2048 
G01 X0.7301 Y2.2122 
G01 X0.7345 Y2.2188 
G01 X0.7402 Y2.2245 
G01 X0.7468 Y2.2289 
G01 X0.7542 Y2.2319 
G01 X0.7620 Y2.2335 
G01 X0.8220 Y2.2335 
G01 X0.8298 Y2.2319 
G01 X0.8372 Y2.2289 
G01 X0.8438 Y2.2245 
G01 X0.8495 Y2.2188 
G01 X0.8539 Y2.2122 
G01 X0.8569 Y2.2048 
G01 X0.8585 Y2.1970 
G01 X0.8585 Y2.1890 
G01 X0.8569 Y2.1812 
G01 X0.8539 Y2.1738 
G01 X0.8495 Y2.1672 
G01 X0.8438 Y2.1615 
G00 Z0.1000 
G00 X0.8438 Y2.1245 
G01 Z-0.0070 F10.00 
G01 X0.8495 Y2.1188 F20.00 
G01 X0.8539 Y2.1122 
G01 X0.8569 Y2.1048 
G01 X0.8585 Y2.0970 
G01 X0.8585 Y2.0890 
G01 X0.8569 Y2.0812 
G01 X0.8539 Y2.0738 
G01 X0.8495 Y2.0672 
G01 X0.8438 Y2.0615 
G01 X0.8372 Y2.0571 
G01 X0.8298 Y2.0541 
G01 X0.8220 Y2.0525 
G01 X0.7620 Y2.0525 
G01 X0.7542 Y2.0541 
G01 X0.7468 Y2.0571 
G01 X0.7402 Y2.0615 
G01 X0.7345 Y2.0672 
G01 X0.7301 Y2.0738 
G01 X0.7271 Y2.0812 
G01 X0.7255 Y2.0890 
G01 X0.7255 Y2.0970 
G01 X0.7271 Y2.1048 
G01 X0.7301 Y2.1122 
G01 X0.7345 Y2.1188 
G01 X0.7402 Y2.1245 
G01 X0.7468 Y2.1289 
G01 X0.7542 Y2.1319 
G01 X0.7620 Y2.1335 
G01 X0.8220 Y2.1335 
G01 X0.8298 Y2.1319 
G01 X0.8372 Y2.1289 
G01 X0.8438 Y2.1245 
G00 Z0.1000 
G00 X1.2795 Y2.2802 
G01 Z-0.0070 F10.00 
G01 X1.2795 Y2.3138 F20.00 
G01 X1.3032 Y2.3375 
G01 X1.3368 Y2.3375 
G01 X1.3605 Y2.3138 
G01 X1.3605 Y2.2802 
G01 X1.3368 Y2.2565 
G01 X1.3032 Y2.2565 
G01 X1.2795 Y2.2802 
G00 Z0.1000 
G00 X1.2795 Y2.6802 
G01 Z-0.0070 F10.00 
G01 X1.2795 Y2.7138 F20.00 
G01 X1.3032 Y2.7375 
G01 X1.3368 Y2.7375 
G01 X1.3605 Y2.7138 
G01 X1.3605 Y2.6802 
G01 X1.3368 Y2.6565 
G01 X1.3032 Y2.6565 
G01 X1.2795 Y2.6802 
G00 Z0.1000 
G00 X1.4848 Y2.6819 
G01 Z-0.0070 F10.00 
G01 X1.4826 Y2.6886 F20.00 
G01 X1.4815 Y2.6955 
G01 X1.4815 Y2.7025 
G01 X1.4826 Y2.7094 
G01 X1.4848 Y2.7161 
G01 X1.4879 Y2.7223 
G01 X1.4921 Y2.7280 
G01 X1.4970 Y2.7329 
G01 X1.5027 Y2.7371 
G01 X1.5089 Y2.7402 
G01 X1.5156 Y2.7424 
G01 X1.5225 Y2.7435 
G01 X1.5895 Y2.7435 
G01 X1.5964 Y2.7424 
G01 X1.6031 Y2.7402 
G01 X1.6093 Y2.7371 
G01 X1.6150 Y2.7329 
G01 X1.6199 Y2.7280 
G01 X1.6241 Y2.7223 
G01 X1.6272 Y2.7161 
G01 X1.6294 Y2.7094 
G01 X1.6305 Y2.7025 
G01 X1.6305 Y2.6955 
G01 X1.6294 Y2.6886 
G01 X1.6272 Y2.6819 
G01 X1.6241 Y2.6757 
G01 X1.6199 Y2.6700 
G01 X1.6150 Y2.6651 
G01 X1.6093 Y2.6609 
G01 X1.6031 Y2.6578 
G01 X1.5964 Y2.6556 
G01 X1.5895 Y2.6545 
G01 X1.5225 Y2.6545 
G01 X1.5156 Y2.6556 
G01 X1.5089 Y2.6578 
G01 X1.5027 Y2.6609 
G01 X1.4970 Y2.6651 
G01 X1.4921 Y2.6700 
G01 X1.4879 Y2.6757 
G01 X1.4848 Y2.6819 
G00 Z0.1000 
G00 X1.4970 Y2.6329 
G01 Z-0.0070 F10.00 
G01 X1.5027 Y2.6371 F20.00 
G01 X1.5089 Y2.6402 
G01 X1.5156 Y2.6424 
G01 X1.5225 Y2.6435 
G01 X1.5895 Y2.6435 
G01 X1.5964 Y2.6424 
G01 X1.6031 Y2.6402 
G01 X1.6093 Y2.6371 
G01 X1.6150 Y2.6329 
G01 X1.6199 Y2.6280 
G01 X1.6241 Y2.6223 
G01 X1.6272 Y2.6161 
G01 X1.6294 Y2.6094 
G01 X1.6305 Y2.6025 
G01 X1.6305 Y2.5955 
G01 X1.6294 Y2.5886 
G01 X1.6272 Y2.5819 
G01 X1.6241 Y2.5757 
G01 X1.6199 Y2.5700 
G01 X1.6150 Y2.5651 
G01 X1.6093 Y2.5609 
G01 X1.6031 Y2.5578 
G01 X1.5964 Y2.5556 
G01 X1.5895 Y2.5545 
G01 X1.5225 Y2.5545 
G01 X1.5156 Y2.5556 
G01 X1.5089 Y2.5578 
G01 X1.5027 Y2.5609 
G01 X1.4970 Y2.5651 
G01 X1.4921 Y2.5700 
G01 X1.4879 Y2.5757 
G01 X1.4848 Y2.5819 
G01 X1.4826 Y2.5886 
G01 X1.4815 Y2.5955 
G01 X1.4815 Y2.6025 
G01 X1.4826 Y2.6094 
G01 X1.4848 Y2.6161 
G01 X1.4879 Y2.6223 
G01 X1.4921 Y2.6280 
G01 X1.4970 Y2.6329 
G00 Z0.1000 
G00 X1.4970 Y2.5329 
G01 Z-0.0070 F10.00 
G01 X1.5027 Y2.5371 F20.00 
G01 X1.5089 Y2.5402 
G01 X1.5156 Y2.5424 
G01 X1.5225 Y2.5435 
G01 X1.5895 Y2.5435 
G01 X1.5964 Y2.5424 
G01 X1.6031 Y2.5402 
G01 X1.6093 Y2.5371 
G01 X1.6150 Y2.5329 
G01 X1.6199 Y2.5280 
G01 X1.6241 Y2.5223 
G01 X1.6272 Y2.5161 
G01 X1.6294 Y2.5094 
G01 X1.6305 Y2.5025 
G01 X1.6305 Y2.4955 
G01 X1.6294 Y2.4886 
G01 X1.6272 Y2.4819 
G01 X1.6241 Y2.4757 
G01 X1.6199 Y2.4700 
G01 X1.6150 Y2.4651 
G01 X1.6093 Y2.4609 
G01 X1.6031 Y2.4578 
G01 X1.5964 Y2.4556 
G01 X1.5895 Y2.4545 
G01 X1.5225 Y2.4545 
G01 X1.5156 Y2.4556 
G01 X1.5089 Y2.4578 
G01 X1.5027 Y2.4609 
G01 X1.4970 Y2.4651 
G01 X1.4921 Y2.4700 
G01 X1.4879 Y2.4757 
G01 X1.4848 Y2.4819 
G01 X1.4826 Y2.4886 
G01 X1.4815 Y2.4955 
G01 X1.4815 Y2.5025 
G01 X1.4826 Y2.5094 
G01 X1.4848 Y2.5161 
G01 X1.4879 Y2.5223 
G01 X1.4921 Y2.5280 
G01 X1.4970 Y2.5329 
G00 Z0.1000 
G00 X1.8912 Y2.4375 
G01 Z-0.0070 F10.00 
G01 X1.9248 Y2.4375 F20.00 
G01 X1.9485 Y2.4138 
G01 X1.9485 Y2.3802 
G01 X1.9248 Y2.3565 
G01 X1.8912 Y2.3565 
G01 X1.8675 Y2.3802 
G01 X1.8675 Y2.4138 
G01 X1.8912 Y2.4375 
G00 Z0.1000 
G00 X1.8912 Y2.7565 
G01 Z-0.0070 F10.00 
G01 X1.8675 Y2.7802 F20.00 
G01 X1.8675 Y2.8138 
G01 X1.8912 Y2.8375 
G01 X1.9248 Y2.8375 
G01 X1.9485 Y2.8138 
G01 X1.9485 Y2.7802 
G01 X1.9248 Y2.7565 
G01 X1.8912 Y2.7565 
G00 Z0.1000 
G00 X1.8015 Y1.7218 
G01 Z-0.0070 F10.00 
G01 X1.8015 Y1.6882 F20.00 
G01 X1.7778 Y1.6645 
G01 X1.7442 Y1.6645 
G01 X1.7205 Y1.6882 
G01 X1.7205 Y1.7218 
G01 X1.7442 Y1.7455 
G01 X1.7778 Y1.7455 
G01 X1.8015 Y1.7218 
G00 Z0.1000 
G00 X1.8802 Y1.4725 
G01 Z-0.0070 F10.00 
G01 X1.9138 Y1.4725 F20.00 
G01 X1.9375 Y1.4488 
G01 X1.9375 Y1.4152 
G01 X1.9138 Y1.3915 
G01 X1.8802 Y1.3915 
G01 X1.8565 Y1.4152 
G01 X1.8565 Y1.4488 
G01 X1.8802 Y1.4725 
G00 Z0.1000 
G00 X1.6159 Y1.3750 
G01 Z-0.0070 F10.00 
G01 X1.6201 Y1.3693 F20.00 
G01 X1.6232 Y1.3631 
G01 X1.6254 Y1.3564 
G01 X1.6265 Y1.3495 
G01 X1.6265 Y1.3425 
G01 X1.6254 Y1.3356 
G01 X1.6232 Y1.3289 
G01 X1.6201 Y1.3227 
G01 X1.6159 Y1.3170 
G01 X1.6110 Y1.3121 
G01 X1.6053 Y1.3079 
G01 X1.5991 Y1.3048 
G01 X1.5924 Y1.3026 
G01 X1.5855 Y1.3015 
G01 X1.5185 Y1.3015 
G01 X1.5116 Y1.3026 
G01 X1.5049 Y1.3048 
G01 X1.4987 Y1.3079 
G01 X1.4930 Y1.3121 
G01 X1.4881 Y1.3170 
G01 X1.4839 Y1.3227 
G01 X1.4808 Y1.3289 
G01 X1.4786 Y1.3356 
G01 X1.4775 Y1.3425 
G01 X1.4775 Y1.3495 
G01 X1.4786 Y1.3564 
G01 X1.4808 Y1.3631 
G01 X1.4839 Y1.3693 
G01 X1.4881 Y1.3750 
G01 X1.4930 Y1.3799 
G01 X1.4987 Y1.3841 
G01 X1.5049 Y1.3872 
G01 X1.5116 Y1.3894 
G01 X1.5185 Y1.3905 
G01 X1.5855 Y1.3905 
G01 X1.5924 Y1.3894 
G01 X1.5991 Y1.3872 
G01 X1.6053 Y1.3841 
G01 X1.6110 Y1.3799 
G01 X1.6159 Y1.3750 
G00 Z0.1000 
G00 X1.6159 Y1.2750 
G01 Z-0.0070 F10.00 
G01 X1.6201 Y1.2693 F20.00 
G01 X1.6232 Y1.2631 
G01 X1.6254 Y1.2564 
G01 X1.6265 Y1.2495 
G01 X1.6265 Y1.2425 
G01 X1.6254 Y1.2356 
G01 X1.6232 Y1.2289 
G01 X1.6201 Y1.2227 
G01 X1.6159 Y1.2170 
G01 X1.6110 Y1.2121 
G01 X1.6053 Y1.2079 
G01 X1.5991 Y1.2048 
G01 X1.5924 Y1.2026 
G01 X1.5855 Y1.2015 
G01 X1.5185 Y1.2015 
G01 X1.5116 Y1.2026 
G01 X1.5049 Y1.2048 
G01 X1.4987 Y1.2079 
G01 X1.4930 Y1.2121 
G01 X1.4881 Y1.2170 
G01 X1.4839 Y1.2227 
G01 X1.4808 Y1.2289 
G01 X1.4786 Y1.2356 
G01 X1.4775 Y1.2425 
G01 X1.4775 Y1.2495 
G01 X1.4786 Y1.2564 
G01 X1.4808 Y1.2631 
G01 X1.4839 Y1.2693 
G01 X1.4881 Y1.2750 
G01 X1.4930 Y1.2799 
G01 X1.4987 Y1.2841 
G01 X1.5049 Y1.2872 
G01 X1.5116 Y1.2894 
G01 X1.5185 Y1.2905 
G01 X1.5855 Y1.2905 
G01 X1.5924 Y1.2894 
G01 X1.5991 Y1.2872 
G01 X1.6053 Y1.2841 
G01 X1.6110 Y1.2799 
G01 X1.6159 Y1.2750 
G00 Z0.1000 
G00 X1.6159 Y1.1750 
G01 Z-0.0070 F10.00 
G01 X1.6201 Y1.1693 F20.00 
G01 X1.6232 Y1.1631 
G01 X1.6254 Y1.1564 
G01 X1.6265 Y1.1495 
G01 X1.6265 Y1.1425 
G01 X1.6254 Y1.1356 
G01 X1.6232 Y1.1289 
G01 X1.6201 Y1.1227 
G01 X1.6159 Y1.1170 
G01 X1.6110 Y1.1121 
G01 X1.6053 Y1.1079 
G01 X1.5991 Y1.1048 
G01 X1.5924 Y1.1026 
G01 X1.5855 Y1.1015 
G01 X1.5185 Y1.1015 
G01 X1.5116 Y1.1026 
G01 X1.5049 Y1.1048 
G01 X1.4987 Y1.1079 
G01 X1.4930 Y1.1121 
G01 X1.4881 Y1.1170 
G01 X1.4839 Y1.1227 
G01 X1.4808 Y1.1289 
G01 X1.4786 Y1.1356 
G01 X1.4775 Y1.1425 
G01 X1.4775 Y1.1495 
G01 X1.4786 Y1.1564 
G01 X1.4808 Y1.1631 
G01 X1.4839 Y1.1693 
G01 X1.4881 Y1.1750 
G01 X1.4930 Y1.1799 
G01 X1.4987 Y1.1841 
G01 X1.5049 Y1.1872 
G01 X1.5116 Y1.1894 
G01 X1.5185 Y1.1905 
G01 X1.5855 Y1.1905 
G01 X1.5924 Y1.1894 
G01 X1.5991 Y1.1872 
G01 X1.6053 Y1.1841 
G01 X1.6110 Y1.1799 
G01 X1.6159 Y1.1750 
G00 Z0.1000 
G00 X1.8802 Y1.0725 
G01 Z-0.0070 F10.00 
G01 X1.9138 Y1.0725 F20.00 
G01 X1.9375 Y1.0488 
G01 X1.9375 Y1.0152 
G01 X1.9138 Y0.9915 
G01 X1.8802 Y0.9915 
G01 X1.8565 Y1.0152 
G01 X1.8565 Y1.0488 
G01 X1.8802 Y1.0725 
G00 Z0.1000 
G00 X1.4195 Y0.6157 
G01 Z-0.0070 F10.00 
G01 X1.4195 Y0.5623 F20.00 
G01 X1.3817 Y0.5245 
G01 X1.3283 Y0.5245 
G01 X1.2905 Y0.5623 
G01 X1.2905 Y0.6157 
G01 X1.3283 Y0.6535 
G01 X1.3817 Y0.6535 
G01 X1.4195 Y0.6157 
G00 Z0.1000 
G00 X1.4036 Y0.4316 
G01 Z-0.0070 F10.00 
G01 X1.4087 Y0.4249 F20.00 
G01 X1.4130 Y0.4176 
G01 X1.4162 Y0.4098 
G01 X1.4184 Y0.4016 
G01 X1.4195 Y0.3932 
G01 X1.4195 Y0.3848 
G01 X1.4184 Y0.3764 
G01 X1.4162 Y0.3682 
G01 X1.4130 Y0.3604 
G01 X1.4087 Y0.3531 
G01 X1.4036 Y0.3464 
G01 X1.3976 Y0.3404 
G01 X1.3909 Y0.3353 
G01 X1.3836 Y0.3310 
G01 X1.3758 Y0.3278 
G01 X1.3676 Y0.3256 
G01 X1.3592 Y0.3245 
G01 X1.3508 Y0.3245 
G01 X1.3424 Y0.3256 
G01 X1.3342 Y0.3278 
G01 X1.3264 Y0.3310 
G01 X1.3191 Y0.3353 
G01 X1.3124 Y0.3404 
G01 X1.3064 Y0.3464 
G01 X1.3013 Y0.3531 
G01 X1.2970 Y0.3604 
G01 X1.2938 Y0.3682 
G01 X1.2916 Y0.3764 
G01 X1.2905 Y0.3848 
G01 X1.2905 Y0.3932 
G01 X1.2916 Y0.4016 
G01 X1.2938 Y0.4098 
G01 X1.2970 Y0.4176 
G01 X1.3013 Y0.4249 
G01 X1.3064 Y0.4316 
G01 X1.3124 Y0.4376 
G01 X1.3191 Y0.4427 
G01 X1.3264 Y0.4470 
G01 X1.3342 Y0.4502 
G01 X1.3424 Y0.4524 
G01 X1.3508 Y0.4535 
G01 X1.3592 Y0.4535 
G01 X1.3676 Y0.4524 
G01 X1.3758 Y0.4502 
G01 X1.3836 Y0.4470 
G01 X1.3909 Y0.4427 
G01 X1.3976 Y0.4376 
G01 X1.4036 Y0.4316 
G00 Z0.1000 
G00 X0.8305 Y0.4086 
G01 Z-0.0070 F10.00 
G01 X0.8305 Y0.3734 F20.00 
G01 X0.8056 Y0.3485 
G01 X0.7704 Y0.3485 
G01 X0.7455 Y0.3734 
G01 X0.7455 Y0.4086 
G01 X0.7704 Y0.4335 
G01 X0.8056 Y0.4335 
G01 X0.8305 Y0.4086 
G00 Z0.1000 
G00 X0.8305 Y0.6734 
G01 Z-0.0070 F10.00 
G01 X0.8056 Y0.6485 F20.00 
G01 X0.7704 Y0.6485 
G01 X0.7455 Y0.6734 
G01 X0.7455 Y0.7086 
G01 X0.7704 Y0.7335 
G01 X0.8056 Y0.7335 
G01 X0.8305 Y0.7086 
G01 X0.8305 Y0.6734 
G00 Z0.1000 
G00 X1.3205 Y1.6882 
G01 Z-0.0070 F10.00 
G01 X1.3205 Y1.7218 F20.00 
G01 X1.3442 Y1.7455 
G01 X1.3778 Y1.7455 
G01 X1.4015 Y1.7218 
G01 X1.4015 Y1.6882 
G01 X1.3778 Y1.6645 
G01 X1.3442 Y1.6645 
G01 X1.3205 Y1.6882 
G00 Z0.1000 
G00 X3.1173 Y1.6869 
G01 Z-0.0070 F10.00 
G01 X3.1125 Y1.6953 F20.00 
G01 X3.1088 Y1.7042 
G01 X3.1063 Y1.7136 
G01 X3.1050 Y1.7232 
G01 X3.1050 Y1.7328 
G01 X3.1063 Y1.7424 
G01 X3.1088 Y1.7518 
G01 X3.1125 Y1.7607 
G01 X3.1173 Y1.7691 
G01 X3.1232 Y1.7767 
G01 X3.1300 Y1.7836 
G01 X3.1377 Y1.7895 
G01 X3.1461 Y1.7943 
G01 X3.1550 Y1.7980 
G01 X3.1643 Y1.8005 
G01 X3.1739 Y1.8017 
G01 X3.3021 Y1.8017 
G01 X3.3117 Y1.8005 
G01 X3.3210 Y1.7980 
G01 X3.3299 Y1.7943 
G01 X3.3383 Y1.7895 
G01 X3.3460 Y1.7836 
G01 X3.3528 Y1.7767 
G01 X3.3587 Y1.7691 
G01 X3.3635 Y1.7607 
G01 X3.3672 Y1.7518 
G01 X3.3697 Y1.7424 
G01 X3.3710 Y1.7328 
G01 X3.3710 Y1.7232 
G01 X3.3697 Y1.7136 
G01 X3.3672 Y1.7042 
G01 X3.3635 Y1.6953 
G01 X3.3587 Y1.6869 
G01 X3.3528 Y1.6793 
G01 X3.3460 Y1.6724 
G01 X3.3383 Y1.6665 
G01 X3.3299 Y1.6617 
G01 X3.3210 Y1.6580 
G01 X3.3117 Y1.6555 
G01 X3.3021 Y1.6542 
G01 X3.1739 Y1.6542 
G01 X3.1643 Y1.6555 
G01 X3.1550 Y1.6580 
G01 X3.1461 Y1.6617 
G01 X3.1377 Y1.6665 
G01 X3.1300 Y1.6724 
G01 X3.1232 Y1.6793 
G01 X3.1173 Y1.6869 
G00 Z0.1000 
G00 X3.1232 Y2.4293 
G01 Z-0.0070 F10.00 
G01 X3.1173 Y2.4369 F20.00 
G01 X3.1125 Y2.4453 
G01 X3.1088 Y2.4542 
G01 X3.1063 Y2.4636 
G01 X3.1050 Y2.4732 
G01 X3.1050 Y2.4828 
G01 X3.1063 Y2.4924 
G01 X3.1088 Y2.5018 
G01 X3.1125 Y2.5107 
G01 X3.1173 Y2.5191 
G01 X3.1232 Y2.5267 
G01 X3.1300 Y2.5336 
G01 X3.1377 Y2.5395 
G01 X3.1461 Y2.5443 
G01 X3.1550 Y2.5480 
G01 X3.1643 Y2.5505 
G01 X3.1739 Y2.5517 
G01 X3.3021 Y2.5517 
G01 X3.3117 Y2.5505 
G01 X3.3210 Y2.5480 
G01 X3.3299 Y2.5443 
G01 X3.3383 Y2.5395 
G01 X3.3460 Y2.5336 
G01 X3.3528 Y2.5267 
G01 X3.3587 Y2.5191 
G01 X3.3635 Y2.5107 
G01 X3.3672 Y2.5018 
G01 X3.3697 Y2.4924 
G01 X3.3710 Y2.4828 
G01 X3.3710 Y2.4732 
G01 X3.3697 Y2.4636 
G01 X3.3672 Y2.4542 
G01 X3.3635 Y2.4453 
G01 X3.3587 Y2.4369 
G01 X3.3528 Y2.4293 
G01 X3.3460 Y2.4224 
G01 X3.3383 Y2.4165 
G01 X3.3299 Y2.4117 
G01 X3.3210 Y2.4080 
G01 X3.3117 Y2.4055 
G01 X3.3021 Y2.4043 
G01 X3.1739 Y2.4043 
G01 X3.1643 Y2.4055 
G01 X3.1550 Y2.4080 
G01 X3.1461 Y2.4117 
G01 X3.1377 Y2.4165 
G01 X3.1300 Y2.4224 
G01 X3.1232 Y2.4293 
G00 Z0.1000 
G00 X3.5752 Y2.7031 
G01 Z-0.0070 F10.00 
G01 X3.5702 Y2.7100 F20.00 
G01 X3.5664 Y2.7175 
G01 X3.5638 Y2.7255 
G01 X3.5625 Y2.7338 
G01 X3.5625 Y2.8202 
G01 X3.5638 Y2.8285 
G01 X3.5664 Y2.8365 
G01 X3.5702 Y2.8440 
G01 X3.5752 Y2.8509 
G01 X3.5811 Y2.8568 
G01 X3.5880 Y2.8618 
G01 X3.5955 Y2.8656 
G01 X3.6035 Y2.8682 
G01 X3.6118 Y2.8695 
G01 X3.6202 Y2.8695 
G01 X3.6285 Y2.8682 
G01 X3.6365 Y2.8656 
G01 X3.6440 Y2.8618 
G01 X3.6509 Y2.8568 
G01 X3.6568 Y2.8509 
G01 X3.6618 Y2.8440 
G01 X3.6656 Y2.8365 
G01 X3.6682 Y2.8285 
G01 X3.6695 Y2.8202 
G01 X3.6695 Y2.7338 
G01 X3.6682 Y2.7255 
G01 X3.6656 Y2.7175 
G01 X3.6618 Y2.7100 
G01 X3.6568 Y2.7031 
G01 X3.6509 Y2.6972 
G01 X3.6440 Y2.6922 
G01 X3.6365 Y2.6884 
G01 X3.6285 Y2.6858 
G01 X3.6202 Y2.6845 
G01 X3.6118 Y2.6845 
G01 X3.6035 Y2.6858 
G01 X3.5955 Y2.6884 
G01 X3.5880 Y2.6922 
G01 X3.5811 Y2.6972 
G01 X3.5752 Y2.7031 
G00 Z0.1000 
G00 X3.8564 Y2.7065 
G01 Z-0.0070 F10.00 
G01 X3.8538 Y2.7145 F20.00 
G01 X3.8525 Y2.7228 
G01 X3.8525 Y2.8092 
G01 X3.8538 Y2.8175 
G01 X3.8564 Y2.8255 
G01 X3.8602 Y2.8330 
G01 X3.8652 Y2.8399 
G01 X3.8711 Y2.8458 
G01 X3.8780 Y2.8508 
G01 X3.8855 Y2.8546 
G01 X3.8935 Y2.8572 
G01 X3.9018 Y2.8585 
G01 X3.9102 Y2.8585 
G01 X3.9185 Y2.8572 
G01 X3.9265 Y2.8546 
G01 X3.9340 Y2.8508 
G01 X3.9409 Y2.8458 
G01 X3.9468 Y2.8399 
G01 X3.9518 Y2.8330 
G01 X3.9556 Y2.8255 
G01 X3.9582 Y2.8175 
G01 X3.9595 Y2.8092 
G01 X3.9595 Y2.7228 
G01 X3.9582 Y2.7145 
G01 X3.9556 Y2.7065 
G01 X3.9518 Y2.6990 
G01 X3.9468 Y2.6921 
G01 X3.9409 Y2.6862 
G01 X3.9340 Y2.6812 
G01 X3.9265 Y2.6774 
G01 X3.9185 Y2.6748 
G01 X3.9102 Y2.6735 
G01 X3.9018 Y2.6735 
G01 X3.8935 Y2.6748 
G01 X3.8855 Y2.6774 
G01 X3.8780 Y2.6812 
G01 X3.8711 Y2.6862 
G01 X3.8652 Y2.6921 
G01 X3.8602 Y2.6990 
G01 X3.8564 Y2.7065 
G00 Z0.1000 
G00 X4.5744 Y2.4280 
G01 Z-0.0070 F10.00 
G01 X4.5811 Y2.4332 F20.00 
G01 X4.5884 Y2.4374 
G01 X4.5962 Y2.4406 
G01 X4.6044 Y2.4428 
G01 X4.6128 Y2.4439 
G01 X4.6212 Y2.4439 
G01 X4.6296 Y2.4428 
G01 X4.6378 Y2.4406 
G01 X4.6456 Y2.4374 
G01 X4.6529 Y2.4332 
G01 X4.6596 Y2.4280 
G01 X4.6656 Y2.4220 
G01 X4.6707 Y2.4153 
G01 X4.6750 Y2.4080 
G01 X4.6782 Y2.4002 
G01 X4.6804 Y2.3920 
G01 X4.6815 Y2.3837 
G01 X4.6815 Y2.2752 
G01 X4.6804 Y2.2668 
G01 X4.6782 Y2.2586 
G01 X4.6750 Y2.2508 
G01 X4.6707 Y2.2435 
G01 X4.6656 Y2.2368 
G01 X4.6598 Y2.2310 
G01 X4.6656 Y2.2252 
G01 X4.6707 Y2.2185 
G01 X4.6750 Y2.2112 
G01 X4.6782 Y2.2034 
G01 X4.6804 Y2.1952 
G01 X4.6815 Y2.1868 
G01 X4.6815 Y2.0783 
G01 X4.6804 Y2.0700 
G01 X4.6782 Y2.0618 
G01 X4.6750 Y2.0540 
G01 X4.6707 Y2.0467 
G01 X4.6656 Y2.0400 
G01 X4.6596 Y2.0340 
G01 X4.6529 Y2.0288 
G01 X4.6456 Y2.0246 
G01 X4.6378 Y2.0214 
G01 X4.6296 Y2.0192 
G01 X4.6212 Y2.0181 
G01 X4.6128 Y2.0181 
G01 X4.6044 Y2.0192 
G01 X4.5962 Y2.0214 
G01 X4.5884 Y2.0246 
G01 X4.5811 Y2.0288 
G01 X4.5744 Y2.0340 
G01 X4.5684 Y2.0400 
G01 X4.5633 Y2.0467 
G01 X4.5590 Y2.0540 
G01 X4.5558 Y2.0618 
G01 X4.5536 Y2.0700 
G01 X4.5525 Y2.0783 
G01 X4.5525 Y2.1868 
G01 X4.5536 Y2.1952 
G01 X4.5558 Y2.2034 
G01 X4.5590 Y2.2112 
G01 X4.5633 Y2.2185 
G01 X4.5684 Y2.2252 
G01 X4.5742 Y2.2310 
G01 X4.5684 Y2.2368 
G01 X4.5633 Y2.2435 
G01 X4.5590 Y2.2508 
G01 X4.5558 Y2.2586 
G01 X4.5536 Y2.2668 
G01 X4.5525 Y2.2752 
G01 X4.5525 Y2.3837 
G01 X4.5536 Y2.3920 
G01 X4.5558 Y2.4002 
G01 X4.5590 Y2.4080 
G01 X4.5633 Y2.4153 
G01 X4.5684 Y2.4220 
G01 X4.5744 Y2.4280 
G00 Z0.1000 
G00 X4.5791 Y0.9342 
G01 Z-0.0070 F10.00 
G01 X4.5864 Y0.9384 F20.00 
G01 X4.5942 Y0.9416 
G01 X4.6024 Y0.9438 
G01 X4.6108 Y0.9449 
G01 X4.6192 Y0.9449 
G01 X4.6276 Y0.9438 
G01 X4.6358 Y0.9416 
G01 X4.6436 Y0.9384 
G01 X4.6509 Y0.9342 
G01 X4.6576 Y0.9290 
G01 X4.6636 Y0.9230 
G01 X4.6687 Y0.9163 
G01 X4.6730 Y0.9090 
G01 X4.6762 Y0.9012 
G01 X4.6784 Y0.8930 
G01 X4.6795 Y0.8847 
G01 X4.6795 Y0.7762 
G01 X4.6784 Y0.7678 
G01 X4.6762 Y0.7596 
G01 X4.6730 Y0.7518 
G01 X4.6687 Y0.7445 
G01 X4.6636 Y0.7378 
G01 X4.6578 Y0.7320 
G01 X4.6636 Y0.7262 
G01 X4.6687 Y0.7195 
G01 X4.6730 Y0.7122 
G01 X4.6762 Y0.7044 
G01 X4.6784 Y0.6962 
G01 X4.6795 Y0.6878 
G01 X4.6795 Y0.5793 
G01 X4.6784 Y0.5710 
G01 X4.6762 Y0.5628 
G01 X4.6730 Y0.5550 
G01 X4.6687 Y0.5477 
G01 X4.6636 Y0.5410 
G01 X4.6576 Y0.5350 
G01 X4.6509 Y0.5298 
G01 X4.6436 Y0.5256 
G01 X4.6358 Y0.5224 
G01 X4.6276 Y0.5202 
G01 X4.6192 Y0.5191 
G01 X4.6108 Y0.5191 
G01 X4.6024 Y0.5202 
G01 X4.5942 Y0.5224 
G01 X4.5864 Y0.5256 
G01 X4.5791 Y0.5298 
G01 X4.5724 Y0.5350 
G01 X4.5664 Y0.5410 
G01 X4.5613 Y0.5477 
G01 X4.5570 Y0.5550 
G01 X4.5538 Y0.5628 
G01 X4.5516 Y0.5710 
G01 X4.5505 Y0.5793 
G01 X4.5505 Y0.6878 
G01 X4.5516 Y0.6962 
G01 X4.5538 Y0.7044 
G01 X4.5570 Y0.7122 
G01 X4.5613 Y0.7195 
G01 X4.5664 Y0.7262 
G01 X4.5722 Y0.7320 
G01 X4.5664 Y0.7378 
G01 X4.5613 Y0.7445 
G01 X4.5570 Y0.7518 
G01 X4.5538 Y0.7596 
G01 X4.5516 Y0.7678 
G01 X4.5505 Y0.7762 
G01 X4.5505 Y0.8847 
G01 X4.5516 Y0.8930 
G01 X4.5538 Y0.9012 
G01 X4.5570 Y0.9090 
G01 X4.5613 Y0.9163 
G01 X4.5664 Y0.9230 
G01 X4.5724 Y0.9290 
G01 X4.5791 Y0.9342 
G00 Z0.1000 
G00 X3.3528 Y0.5267 
G01 Z-0.0070 F10.00 
G01 X3.3587 Y0.5191 F20.00 
G01 X3.3635 Y0.5107 
G01 X3.3672 Y0.5018 
G01 X3.3697 Y0.4924 
G01 X3.3710 Y0.4828 
G01 X3.3710 Y0.4732 
G01 X3.3697 Y0.4636 
G01 X3.3672 Y0.4542 
G01 X3.3635 Y0.4453 
G01 X3.3587 Y0.4369 
G01 X3.3528 Y0.4293 
G01 X3.3460 Y0.4224 
G01 X3.3383 Y0.4165 
G01 X3.3299 Y0.4117 
G01 X3.3210 Y0.4080 
G01 X3.3117 Y0.4055 
G01 X3.3021 Y0.4042 
G01 X3.1739 Y0.4042 
G01 X3.1643 Y0.4055 
G01 X3.1550 Y0.4080 
G01 X3.1461 Y0.4117 
G01 X3.1377 Y0.4165 
G01 X3.1300 Y0.4224 
G01 X3.1232 Y0.4293 
G01 X3.1173 Y0.4369 
G01 X3.1125 Y0.4453 
G01 X3.1088 Y0.4542 
G01 X3.1063 Y0.4636 
G01 X3.1050 Y0.4732 
G01 X3.1050 Y0.4828 
G01 X3.1063 Y0.4924 
G01 X3.1088 Y0.5018 
G01 X3.1125 Y0.5107 
G01 X3.1173 Y0.5191 
G01 X3.1232 Y0.5267 
G01 X3.1300 Y0.5336 
G01 X3.1377 Y0.5395 
G01 X3.1461 Y0.5443 
G01 X3.1550 Y0.5480 
G01 X3.1643 Y0.5505 
G01 X3.1739 Y0.5517 
G01 X3.3021 Y0.5517 
G01 X3.3117 Y0.5505 
G01 X3.3210 Y0.5480 
G01 X3.3299 Y0.5443 
G01 X3.3383 Y0.5395 
G01 X3.3460 Y0.5336 
G01 X3.3528 Y0.5267 
G00 Z0.1000 
G00 X0.0562 Y0.5491 
G01 Z-0.0070 F10.00 
G01 X0.0507 Y0.5563 F20.00 
G01 X0.0461 Y0.5642 
G01 X0.0426 Y0.5726 
G01 X0.0403 Y0.5814 
G01 X0.0391 Y0.5904 
G01 X0.0391 Y0.5996 
G01 X0.0403 Y0.6086 
G01 X0.0426 Y0.6174 
G01 X0.0461 Y0.6258 
G01 X0.0507 Y0.6337 
G01 X0.0562 Y0.6409 
G01 X0.0627 Y0.6474 
G01 X0.0699 Y0.6529 
G01 X0.0778 Y0.6575 
G01 X0.0862 Y0.6610 
G01 X0.0950 Y0.6633 
G01 X0.1040 Y0.6645 
G01 X0.2131 Y0.6645 
G01 X0.2222 Y0.6633 
G01 X0.2310 Y0.6610 
G01 X0.2394 Y0.6575 
G01 X0.2473 Y0.6529 
G01 X0.2545 Y0.6474 
G01 X0.2570 Y0.6449 
G01 X0.2595 Y0.6474 
G01 X0.2667 Y0.6529 
G01 X0.2746 Y0.6575 
G01 X0.2830 Y0.6610 
G01 X0.2918 Y0.6633 
G01 X0.3009 Y0.6645 
G01 X0.4100 Y0.6645 
G01 X0.4190 Y0.6633 
G01 X0.4278 Y0.6610 
G01 X0.4362 Y0.6575 
G01 X0.4441 Y0.6529 
G01 X0.4513 Y0.6474 
G01 X0.4578 Y0.6409 
G01 X0.4633 Y0.6337 
G01 X0.4679 Y0.6258 
G01 X0.4714 Y0.6174 
G01 X0.4737 Y0.6086 
G01 X0.4749 Y0.5996 
G01 X0.4749 Y0.5904 
G01 X0.4737 Y0.5814 
G01 X0.4714 Y0.5726 
G01 X0.4679 Y0.5642 
G01 X0.4633 Y0.5563 
G01 X0.4578 Y0.5491 
G01 X0.4513 Y0.5426 
G01 X0.4441 Y0.5371 
G01 X0.4362 Y0.5325 
G01 X0.4278 Y0.5290 
G01 X0.4190 Y0.5267 
G01 X0.4100 Y0.5255 
G01 X0.3009 Y0.5255 
G01 X0.2918 Y0.5267 
G01 X0.2830 Y0.5290 
G01 X0.2746 Y0.5325 
G01 X0.2667 Y0.5371 
G01 X0.2595 Y0.5426 
G01 X0.2570 Y0.5451 
G01 X0.2545 Y0.5426 
G01 X0.2473 Y0.5371 
G01 X0.2394 Y0.5325 
G01 X0.2310 Y0.5290 
G01 X0.2222 Y0.5267 
G01 X0.2131 Y0.5255 
G01 X0.1040 Y0.5255 
G01 X0.0950 Y0.5267 
G01 X0.0862 Y0.5290 
G01 X0.0778 Y0.5325 
G01 X0.0699 Y0.5371 
G01 X0.0627 Y0.5426 
G01 X0.0562 Y0.5491 
G00 Z0.1000 
G00 X0.0782 Y1.1921 
G01 Z-0.0070 F10.00 
G01 X0.0727 Y1.1993 F20.00 
G01 X0.0681 Y1.2072 
G01 X0.0646 Y1.2156 
G01 X0.0623 Y1.2244 
G01 X0.0611 Y1.2334 
G01 X0.0611 Y1.2426 
G01 X0.0623 Y1.2516 
G01 X0.0646 Y1.2604 
G01 X0.0681 Y1.2688 
G01 X0.0727 Y1.2767 
G01 X0.0782 Y1.2839 
G01 X0.0847 Y1.2904 
G01 X0.0919 Y1.2959 
G01 X0.0998 Y1.3005 
G01 X0.1082 Y1.3040 
G01 X0.1170 Y1.3063 
G01 X0.1260 Y1.3075 
G01 X0.2351 Y1.3075 
G01 X0.2442 Y1.3063 
G01 X0.2530 Y1.3040 
G01 X0.2614 Y1.3005 
G01 X0.2693 Y1.2959 
G01 X0.2765 Y1.2904 
G01 X0.2790 Y1.2879 
